;FLAVOR:RepRap
;TIME:4033
;Filament used: 2.76757m
;Layer height: 0.2
;Generated with Cura_SteamEngine 2.6.0
M104 S195
M109 S195
G28 ;Home
G1 Z15.0 F6000 ;Move the platform down 15mm
;Prime the extruder
G92 E0
G1 F200 E3
G92 E0
;LAYER_COUNT:40
;LAYER:0
M107
G0 F2400 X137.654 Y12.605 Z0.3
;TYPE:SKIRT
G1 F1200 X137.733 Y11.897 E0.03554
G1 X137.872 Y11.284 E0.0669
G1 X138.043 Y10.751 E0.09483
G1 X138.282 Y10.183 E0.12557
G1 X138.541 Y9.692 E0.15327
G1 X138.857 Y9.201 E0.1824
G1 X139.163 Y8.799 E0.2076
G1 X139.407 Y8.555 E0.22482
G1 X140.141 Y7.894 E0.2741
G1 X140.542 Y7.587 E0.29929
G1 X141.109 Y7.295 E0.33111
G1 X141.898 Y6.984 E0.37342
G1 X142.381 Y6.836 E0.39863
G1 X143.07 Y6.761 E0.4332
G1 X192.475 Y6.75 E2.89803
G1 X192.979 Y6.79 E2.92325
G1 X193.471 Y6.909 E2.94851
G1 X193.751 Y7.015 E2.96344
G1 X194.817 Y7.478 E3.02143
G1 X195.263 Y7.715 E3.04662
G1 X195.667 Y8.02 E3.07188
G1 X195.911 Y8.262 E3.08902
G1 X196.65 Y9.076 E3.14387
G1 X196.959 Y9.476 E3.16909
G1 X197.181 Y9.874 E3.19183
G1 X197.497 Y10.551 E3.2291
G1 X197.674 Y11.024 E3.2543
G1 X197.735 Y11.28 E3.26743
G1 X197.927 Y12.245 E3.31651
G1 X197.989 Y12.87 E3.34785
G1 X197.972 Y71.165 E6.2562
G1 X197.914 Y71.773 E6.28667
G1 X197.813 Y72.294 E6.31315
G1 X197.615 Y72.94 E6.34685
G1 X197.242 Y73.815 E6.39431
G1 X197.007 Y74.263 E6.41955
G1 X196.75 Y74.616 E6.44133
G1 X196.132 Y75.353 E6.48932
G1 X195.778 Y75.714 E6.51454
G1 X195.388 Y76.003 E6.53876
G1 X194.794 Y76.378 E6.57381
G1 X194.347 Y76.613 E6.599
G1 X193.849 Y76.78 E6.62521
G1 X192.961 Y76.998 E6.67082
G1 X192.462 Y77.079 E6.69604
G1 X192.194 Y77.09 E6.70943
G1 X142.946 Y77.022 E9.16642
G1 X142.442 Y76.981 E9.19165
G1 X141.95 Y76.862 E9.2169
G1 X141.556 Y76.702 E9.23812
G1 X140.686 Y76.281 E9.28634
G1 X140.25 Y76.026 E9.31154
G1 X139.71 Y75.551 E9.34742
G1 X138.969 Y74.734 E9.40245
G1 X138.66 Y74.334 E9.42766
G1 X138.433 Y73.925 E9.451
G1 X138.11 Y73.225 E9.48946
G1 X137.904 Y72.629 E9.52092
G1 X137.742 Y71.952 E9.55565
G1 X137.654 Y71.207 E9.59308
G1 X137.654 Y12.605 E12.51674
G1 F2400 E10.51674
G0 F2400 X140.167 Y12.767
G0 X141.449 Y12.85
G0 X141.51 Y13.134
G0 X141.411 Y13.131
;TYPE:WALL-INNER
G1 F2400 E12.51674
G1 F1200 X141.44 Y12.685 E12.53904
G1 X141.522 Y12.281 E12.55961
G1 X141.659 Y11.891 E12.58023
G1 X141.84 Y11.542 E12.59985
G1 X142.062 Y11.233 E12.61883
G1 X142.318 Y10.974 E12.637
G1 X142.593 Y10.774 E12.65396
G1 X142.896 Y10.625 E12.67081
G1 X143.204 Y10.537 E12.68679
G1 X143.533 Y10.507 E12.70327
G1 X192.089 Y10.507 E15.12574
G1 X192.418 Y10.537 E15.14222
G1 X192.726 Y10.625 E15.1582
G1 X193.029 Y10.774 E15.17505
G1 X193.304 Y10.974 E15.19201
G1 X193.56 Y11.233 E15.21018
G1 X193.782 Y11.542 E15.22916
G1 X193.963 Y11.891 E15.24878
G1 X194.1 Y12.281 E15.2694
G1 X194.182 Y12.685 E15.28996
G1 X194.211 Y13.131 E15.31226
G1 X194.211 Y70.683 E18.18354
G1 X194.182 Y71.129 E18.20584
G1 X194.1 Y71.533 E18.22641
G1 X193.963 Y71.923 E18.24703
G1 X193.782 Y72.272 E18.26665
G1 X193.56 Y72.581 E18.28563
G1 X193.306 Y72.839 E18.30369
G1 X193.029 Y73.04 E18.32076
G1 X192.726 Y73.189 E18.33761
G1 X192.418 Y73.277 E18.35359
G1 X192.089 Y73.307 E18.37007
G1 X143.533 Y73.307 E20.79254
G1 X143.204 Y73.277 E20.80902
G1 X142.896 Y73.189 E20.82501
G1 X142.593 Y73.04 E20.84185
G1 X142.316 Y72.839 E20.85893
G1 X142.062 Y72.581 E20.87699
G1 X141.84 Y72.272 E20.89597
G1 X141.659 Y71.923 E20.91558
G1 X141.522 Y71.533 E20.93621
G1 X141.44 Y71.129 E20.95677
G1 X141.411 Y70.683 E20.97907
G1 X141.411 Y13.131 E23.85035
G0 F2400 X141.011 Y13.12
;TYPE:WALL-OUTER
G1 F1200 X141.043 Y12.63 E23.87485
G1 X141.136 Y12.172 E23.89817
G1 X141.289 Y11.735 E23.92127
G1 X141.5 Y11.328 E23.94414
G1 X141.754 Y10.975 E23.96583
G1 X142.056 Y10.669 E23.98728
G1 X142.386 Y10.43 E24.00761
G1 X142.752 Y10.25 E24.02796
G1 X143.126 Y10.143 E24.04737
G1 X143.518 Y10.107 E24.06701
G1 X192.104 Y10.107 E26.49097
G1 X192.496 Y10.143 E26.51061
G1 X192.87 Y10.25 E26.53002
G1 X193.236 Y10.43 E26.55037
G1 X193.566 Y10.669 E26.5707
G1 X193.868 Y10.975 E26.59215
G1 X194.122 Y11.328 E26.61384
G1 X194.333 Y11.735 E26.63671
G1 X194.486 Y12.172 E26.65981
G1 X194.579 Y12.63 E26.68313
G1 X194.611 Y13.12 E26.70763
G1 X194.611 Y70.694 E29.58001
G1 X194.579 Y71.184 E29.6045
G1 X194.486 Y71.642 E29.62782
G1 X194.333 Y72.079 E29.65092
G1 X194.122 Y72.486 E29.67379
G1 X193.868 Y72.839 E29.69549
G1 X193.566 Y73.145 E29.71694
G1 X193.236 Y73.384 E29.73727
G1 X192.87 Y73.564 E29.75761
G1 X192.496 Y73.671 E29.77702
G1 X192.104 Y73.707 E29.79666
G1 X143.518 Y73.707 E32.22063
G1 X143.126 Y73.671 E32.24027
G1 X142.752 Y73.564 E32.25967
G1 X142.386 Y73.384 E32.28002
G1 X142.056 Y73.145 E32.30035
G1 X141.754 Y72.839 E32.3218
G1 X141.5 Y72.486 E32.3435
G1 X141.289 Y72.079 E32.36637
G1 X141.136 Y71.642 E32.38947
G1 X141.043 Y71.184 E32.41278
G1 X141.011 Y70.694 E32.43728
G1 X141.011 Y13.12 E35.30966
G0 F2400 X141.024 Y12.921
G0 X141.59 Y13.179
;TYPE:SKIN
G1 F1200 X194.03 Y65.62 E39.00962
G1 X194.1 Y65.69
G0 F2400 X194.03 Y66.185
G1 F1200 X141.59 Y13.745 E42.70955
G1 X141.52 Y13.675
G0 F2400 X141.59 Y14.311
G1 F1200 X194.03 Y66.751 E46.40947
G1 X194.1 Y66.821
G0 F2400 X194.03 Y67.317
G1 F1200 X141.59 Y14.876 E50.10943
G1 X141.52 Y14.806
G0 F2400 X141.59 Y15.442
G1 F1200 X194.03 Y67.882 E53.80936
G1 X194.1 Y67.952
G0 F2400 X194.03 Y68.448
G1 F1200 X141.59 Y16.008 E57.50928
G1 X141.52 Y15.938
G0 F2400 X141.59 Y16.573
G1 F1200 X194.03 Y69.014 E61.20924
G1 X194.1 Y69.084
G0 F2400 X194.03 Y69.58
G1 F1200 X141.59 Y17.139 E64.9092
G1 X141.52 Y17.069
G0 F2400 X141.59 Y17.705
G1 F1200 X194.03 Y70.145 E68.60913
G1 X194.1 Y70.215
G0 F2400 X194.027 Y70.708
G1 F1200 X141.59 Y18.27 E72.30888
G1 X141.52 Y18.2
G0 F2400 X141.59 Y18.836
G1 F1200 X193.978 Y71.224 E76.00513
G1 X194.048 Y71.294
G0 F2400 X193.859 Y71.671
G1 F1200 X141.59 Y19.402 E79.69299
G1 X141.52 Y19.332
G0 F2400 X141.59 Y19.967
G1 F1200 X193.686 Y72.064 E83.36868
G1 X193.756 Y72.134
G0 F2400 X193.463 Y72.406
G1 F1200 X141.59 Y20.533 E87.0286
G1 X141.52 Y20.463
G0 F2400 X141.59 Y21.099
G1 F1200 X193.19 Y72.699 E90.66926
G1 X193.26 Y72.769
G0 F2400 X192.851 Y72.926
G1 F1200 X141.59 Y21.665 E94.286
G1 X141.52 Y21.595
G0 F2400 X141.59 Y22.23
G1 F1200 X192.442 Y73.083 E97.87392
G1 X192.512 Y73.153
G0 F2400 X191.92 Y73.126
G1 F1200 X141.59 Y22.796 E101.42498
G1 X141.52 Y22.726
G0 F2400 X141.59 Y23.362
G1 F1200 X191.355 Y73.126 E104.93613
G1 X191.425 Y73.196
G0 F2400 X190.789 Y73.126
G1 F1200 X141.59 Y23.927 E108.40738
G1 X141.52 Y23.857
G0 F2400 X141.59 Y24.493
G1 F1200 X190.223 Y73.126 E111.83871
G1 X190.293 Y73.196
G0 F2400 X189.658 Y73.126
G1 F1200 X141.59 Y25.059 E115.23013
G1 X141.52 Y24.989
G0 F2400 X141.59 Y25.624
G1 F1200 X189.092 Y73.126 E118.58165
G1 X189.162 Y73.196
G0 F2400 X188.526 Y73.126
G1 F1200 X141.59 Y26.19 E121.89324
G1 X141.52 Y26.12
G0 F2400 X141.59 Y26.756
G1 F1200 X187.961 Y73.126 E125.16493
G1 X188.031 Y73.196
G0 F2400 X187.395 Y73.126
G1 F1200 X141.59 Y27.321 E128.39672
G1 X141.52 Y27.251
G0 F2400 X141.59 Y27.887
G1 F1200 X186.829 Y73.126 E131.58857
G1 X186.899 Y73.196
G0 F2400 X186.263 Y73.126
G1 F1200 X141.59 Y28.453 E134.74049
G1 X141.52 Y28.383
G0 F2400 X141.59 Y29.018
G1 F1200 X185.698 Y73.126 E137.85255
G1 X185.768 Y73.196
G0 F2400 X185.132 Y73.126
G1 F1200 X141.59 Y29.584 E140.92468
G1 X141.52 Y29.514
G0 F2400 X141.59 Y30.15
G1 F1200 X184.566 Y73.126 E143.95686
G1 X184.636 Y73.196
G0 F2400 X184.001 Y73.126
G1 F1200 X141.59 Y30.716 E146.94915
G1 X141.52 Y30.646
G0 F2400 X141.59 Y31.281
G1 F1200 X183.435 Y73.126 E149.90155
G1 X183.505 Y73.196
G0 F2400 X182.869 Y73.126
G1 F1200 X141.59 Y31.847 E152.814
G1 X141.52 Y31.777
G0 F2400 X141.59 Y32.413
G1 F1200 X182.304 Y73.126 E155.68656
G1 X182.374 Y73.196
G0 F2400 X181.738 Y73.126
G1 F1200 X141.59 Y32.978 E158.51922
G1 X141.52 Y32.908
G0 F2400 X141.59 Y33.544
G1 F1200 X181.172 Y73.126 E161.31194
G1 X181.242 Y73.196
G0 F2400 X180.607 Y73.126
G1 F1200 X141.59 Y34.11 E164.06477
G1 X141.52 Y34.04
G0 F2400 X141.59 Y34.675
G1 F1200 X180.041 Y73.126 E166.77769
G1 X180.111 Y73.196
G0 F2400 X179.475 Y73.126
G1 F1200 X141.59 Y35.241 E169.45068
G1 X141.52 Y35.171
G0 F2400 X141.59 Y35.807
G1 F1200 X178.91 Y73.126 E172.08378
G1 X178.98 Y73.196
G0 F2400 X178.344 Y73.126
G1 F1200 X141.59 Y36.372 E174.67697
G1 X141.52 Y36.302
G0 F2400 X141.59 Y36.938
G1 F1200 X177.778 Y73.126 E177.23023
G1 X177.848 Y73.196
G0 F2400 X177.212 Y73.126
G1 F1200 X141.59 Y37.504 E179.74355
G1 X141.52 Y37.434
G0 F2400 X141.59 Y38.069
G1 F1200 X176.647 Y73.126 E182.21701
G1 X176.717 Y73.196
G0 F2400 X176.081 Y73.126
G1 F1200 X141.59 Y38.635 E184.65054
G1 X141.52 Y38.565
G0 F2400 X141.59 Y39.201
G1 F1200 X175.515 Y73.126 E187.04413
G1 X175.585 Y73.196
G0 F2400 X174.95 Y73.126
G1 F1200 X141.59 Y39.766 E189.39786
G1 X141.52 Y39.696
G0 F2400 X141.59 Y40.332
G1 F1200 X174.384 Y73.126 E191.71165
G1 X174.454 Y73.196
G0 F2400 X173.818 Y73.126
G1 F1200 X141.59 Y40.898 E193.98551
G1 X141.52 Y40.828
G0 F2400 X141.59 Y41.464
G1 F1200 X173.253 Y73.126 E196.21947
G1 X173.323 Y73.196
G0 F2400 X172.687 Y73.126
G1 F1200 X141.59 Y42.029 E198.41353
G1 X141.52 Y41.959
G0 F2400 X141.59 Y42.595
G1 F1200 X172.121 Y73.126 E200.56766
G1 X172.191 Y73.196
G0 F2400 X171.556 Y73.126
G1 F1200 X141.59 Y43.161 E202.68189
G1 X141.52 Y43.091
G0 F2400 X141.59 Y43.726
G1 F1200 X170.99 Y73.126 E204.75622
G1 X171.06 Y73.196
G0 F2400 X170.424 Y73.126
G1 F1200 X141.59 Y44.292 E206.79061
G1 X141.52 Y44.222
G0 F2400 X141.59 Y44.858
G1 F1200 X169.859 Y73.126 E208.78511
G1 X169.929 Y73.196
G0 F2400 X169.293 Y73.126
G1 F1200 X141.59 Y45.423 E210.7397
G1 X141.52 Y45.353
G0 F2400 X141.59 Y45.989
G1 F1200 X168.727 Y73.126 E212.65437
G1 X168.797 Y73.196
G0 F2400 X168.162 Y73.126
G1 F1200 X141.59 Y46.555 E214.52913
G1 X141.52 Y46.485
G0 F2400 X141.59 Y47.12
G1 F1200 X167.596 Y73.126 E216.36399
G1 X167.666 Y73.196
G0 F2400 X167.03 Y73.126
G1 F1200 X141.59 Y47.686 E218.15892
G1 X141.52 Y47.616
G0 F2400 X141.59 Y48.252
G1 F1200 X166.464 Y73.126 E219.91392
G1 X166.534 Y73.196
G0 F2400 X165.899 Y73.126
G1 F1200 X141.59 Y48.817 E221.62905
G1 X141.52 Y48.747
G0 F2400 X141.59 Y49.383
G1 F1200 X165.333 Y73.126 E223.30424
G1 X165.403 Y73.196
G0 F2400 X164.767 Y73.126
G1 F1200 X141.59 Y49.949 E224.93951
G1 X141.52 Y49.879
G0 F2400 X141.59 Y50.515
G1 F1200 X164.202 Y73.126 E226.53487
G1 X164.272 Y73.196
G0 F2400 X163.636 Y73.126
G1 F1200 X141.59 Y51.08 E228.09034
G1 X141.52 Y51.01
G0 F2400 X141.59 Y51.646
G1 F1200 X163.07 Y73.126 E229.60587
G1 X163.14 Y73.196
G0 F2400 X162.505 Y73.126
G1 F1200 X141.59 Y52.212 E231.0815
G1 X141.52 Y52.142
G0 F2400 X141.59 Y52.777
G1 F1200 X161.939 Y73.126 E232.51723
G1 X162.009 Y73.196
G0 F2400 X161.373 Y73.126
G1 F1200 X141.59 Y53.343 E233.91303
G1 X141.52 Y53.273
G0 F2400 X141.59 Y53.909
G1 F1200 X160.808 Y73.126 E235.26892
G1 X160.878 Y73.196
G0 F2400 X160.242 Y73.126
G1 F1200 X141.59 Y54.474 E236.58492
G1 X141.52 Y54.404
G0 F2400 X141.59 Y55.04
G1 F1200 X159.676 Y73.126 E237.86099
G1 X159.746 Y73.196
G0 F2400 X159.111 Y73.126
G1 F1200 X141.59 Y55.606 E239.09715
G1 X141.52 Y55.536
G0 F2400 X141.59 Y56.171
G1 F1200 X158.545 Y73.126 E240.29342
G1 X158.615 Y73.196
G0 F2400 X157.979 Y73.126
G1 F1200 X141.59 Y56.737 E241.44975
G1 X141.52 Y56.667
G0 F2400 X141.59 Y57.303
G1 F1200 X157.413 Y73.126 E242.56615
G1 X157.483 Y73.196
G0 F2400 X156.848 Y73.126
G1 F1200 X141.59 Y57.868 E243.64269
G1 X141.52 Y57.798
G0 F2400 X141.59 Y58.434
G1 F1200 X156.282 Y73.126 E244.67929
G1 X156.352 Y73.196
G0 F2400 X155.716 Y73.126
G1 F1200 X141.59 Y59 E245.67595
G1 X141.52 Y58.93
G0 F2400 X141.59 Y59.565
G1 F1200 X155.151 Y73.126 E246.63275
G1 X155.221 Y73.196
G0 F2400 X154.585 Y73.126
G1 F1200 X141.59 Y60.131 E247.54962
G1 X141.52 Y60.061
G0 F2400 X141.59 Y60.697
G1 F1200 X154.019 Y73.126 E248.42655
G1 X154.089 Y73.196
G0 F2400 X153.454 Y73.126
G1 F1200 X141.59 Y61.263 E249.26359
G1 X141.52 Y61.193
G0 F2400 X141.59 Y61.828
G1 F1200 X152.888 Y73.126 E250.06072
G1 X152.958 Y73.196
G0 F2400 X152.322 Y73.126
G1 F1200 X141.59 Y62.394 E250.81792
G1 X141.52 Y62.324
G0 F2400 X141.59 Y62.96
G1 F1200 X151.757 Y73.126 E251.53522
G1 X151.827 Y73.196
G0 F2400 X151.191 Y73.126
G1 F1200 X141.59 Y63.525 E252.21263
G1 X141.52 Y63.455
G0 F2400 X141.59 Y64.091
G1 F1200 X150.625 Y73.126 E252.85009
G1 X150.695 Y73.196
G0 F2400 X150.06 Y73.126
G1 F1200 X141.59 Y64.657 E253.44766
G1 X141.52 Y64.587
G0 F2400 X141.59 Y65.222
G1 F1200 X149.494 Y73.126 E254.00533
G1 X149.564 Y73.196
G0 F2400 X148.928 Y73.126
G1 F1200 X141.59 Y65.788 E254.52307
G1 X141.52 Y65.718
G0 F2400 X141.59 Y66.354
G1 F1200 X148.363 Y73.126 E255.00091
G1 X148.433 Y73.196
G0 F2400 X147.797 Y73.126
G1 F1200 X141.59 Y66.919 E255.43884
G1 X141.52 Y66.849
G0 F2400 X141.59 Y67.485
G1 F1200 X147.231 Y73.126 E255.83685
G1 X147.301 Y73.196
G0 F2400 X146.665 Y73.126
G1 F1200 X141.59 Y68.051 E256.19491
G1 X141.52 Y67.981
G0 F2400 X141.59 Y68.616
G1 F1200 X146.1 Y73.126 E256.51312
G1 X146.17 Y73.196
G0 F2400 X145.534 Y73.126
G1 F1200 X141.59 Y69.182 E256.79139
G1 X141.52 Y69.112
G0 F2400 X141.59 Y69.748
G1 F1200 X144.968 Y73.126 E257.02973
G1 X145.038 Y73.196
G0 F2400 X144.403 Y73.126
G1 F1200 X141.59 Y70.313 E257.2282
G1 X141.52 Y70.243
G0 F2400 X141.603 Y70.893
G1 F1200 X143.837 Y73.126 E257.38578
G1 X143.907 Y73.196
G0 F2400 X143.245 Y73.1
G1 F1200 X141.731 Y71.586 E257.49261
G1 X141.661 Y71.516
G0 F2400 X194.03 Y65.054
G1 F1200 X141.629 Y12.652 E261.18981
G1 X141.559 Y12.582
G0 F2400 X141.74 Y12.199
G1 F1200 X194.03 Y64.488 E264.87912
G1 X194.1 Y64.558
G0 F2400 X194.03 Y63.923
G1 F1200 X141.908 Y11.8 E268.55664
G1 X141.838 Y11.73
G0 F2400 X142.125 Y11.452
G1 F1200 X194.03 Y63.357 E272.21882
G1 X194.1 Y63.427
G0 F2400 X194.03 Y62.791
G1 F1200 X142.392 Y11.153 E275.86216
G1 X142.322 Y11.083
G0 F2400 X142.717 Y10.912
G1 F1200 X194.03 Y62.226 E279.48261
G1 X194.1 Y62.296
G0 F2400 X194.03 Y61.66
G1 F1200 X143.118 Y10.748 E283.07472
G1 X143.048 Y10.678
G0 F2400 X143.623 Y10.687
G1 F1200 X194.03 Y61.094 E286.63121
G1 X194.1 Y61.164
G0 F2400 X194.03 Y60.529
G1 F1200 X144.188 Y10.687 E290.14783
G1 X144.118 Y10.617
G0 F2400 X144.754 Y10.687
G1 F1200 X194.03 Y59.963 E293.62452
G1 X194.1 Y60.033
G0 F2400 X194.03 Y59.397
G1 F1200 X145.32 Y10.687 E297.06127
G1 X145.25 Y10.617
G0 F2400 X145.886 Y10.687
G1 F1200 X194.03 Y58.831 E300.45809
G1 X194.1 Y58.901
G0 F2400 X194.03 Y58.266
G1 F1200 X146.451 Y10.687 E303.81505
G1 X146.381 Y10.617
G0 F2400 X147.017 Y10.687
G1 F1200 X194.03 Y57.7 E307.13207
G1 X194.1 Y57.77
G0 F2400 X194.03 Y57.134
G1 F1200 X147.583 Y10.687 E310.40916
G1 X147.513 Y10.617
G0 F2400 X148.148 Y10.687
G1 F1200 X194.03 Y56.569 E313.64638
G1 X194.1 Y56.639
G0 F2400 X194.03 Y56.003
G1 F1200 X148.714 Y10.687 E316.84367
G1 X148.644 Y10.617
G0 F2400 X149.28 Y10.687
G1 F1200 X194.03 Y55.437 E320.00102
G1 X194.1 Y55.507
G0 F2400 X194.03 Y54.872
G1 F1200 X149.845 Y10.687 E323.11851
G1 X149.775 Y10.617
G0 F2400 X150.411 Y10.687
G1 F1200 X194.03 Y54.306 E326.19607
G1 X194.1 Y54.376
G0 F2400 X194.03 Y53.74
G1 F1200 X150.977 Y10.687 E329.23369
G1 X150.907 Y10.617
G0 F2400 X151.542 Y10.687
G1 F1200 X194.03 Y53.175 E332.23145
G1 X194.1 Y53.245
G0 F2400 X194.03 Y52.609
G1 F1200 X152.108 Y10.687 E335.18927
G1 X152.038 Y10.617
G0 F2400 X152.674 Y10.687
G1 F1200 X194.03 Y52.043 E338.10716
G1 X194.1 Y52.113
G0 F2400 X194.03 Y51.478
G1 F1200 X153.239 Y10.687 E340.98519
G1 X153.169 Y10.617
G0 F2400 X153.805 Y10.687
G1 F1200 X194.03 Y50.912 E343.82328
G1 X194.1 Y50.982
G0 F2400 X194.03 Y50.346
G1 F1200 X154.371 Y10.687 E346.62143
G1 X154.301 Y10.617
G0 F2400 X154.936 Y10.687
G1 F1200 X194.03 Y49.781 E349.37973
G1 X194.1 Y49.851
G0 F2400 X194.03 Y49.215
G1 F1200 X155.502 Y10.687 E352.09808
G1 X155.432 Y10.617
G0 F2400 X156.068 Y10.687
G1 F1200 X194.03 Y48.649 E354.77651
G1 X194.1 Y48.719
G0 F2400 X194.03 Y48.083
G1 F1200 X156.634 Y10.687 E357.415
G1 X156.564 Y10.617
G0 F2400 X157.199 Y10.687
G1 F1200 X194.03 Y47.518 E360.01362
G1 X194.1 Y47.588
G0 F2400 X194.03 Y46.952
G1 F1200 X157.765 Y10.687 E362.57232
G1 X157.695 Y10.617
G0 F2400 X158.331 Y10.687
G1 F1200 X194.03 Y46.386 E365.09107
G1 X194.1 Y46.456
