;FLAVOR:RepRap
;TIME:2744
;Filament used: 1.86376m
;Layer height: 0.2
;Generated with Cura_SteamEngine 2.6.0
M190 S50
M104 S195
M109 S195
G28 ;Home
G1 Z15.0 F6000 ;Move the platform down 15mm
;Prime the extruder
G92 E0
G1 F200 E3
G92 E0
;LAYER_COUNT:219
;LAYER:0
M107
G0 F3600 X88.784 Y88.096 Z0.3
;TYPE:SKIRT
G1 F1200 X88.984 Y87.908 E0.01369
G1 X90.12 Y86.918 E0.08887
G1 X90.67 Y86.516 E0.12286
G1 X92.854 Y85.188 E0.25038
G1 X93.303 Y84.953 E0.27566
G1 X94.33 Y84.495 E0.33177
G1 X94.762 Y84.331 E0.35482
G1 X96.21 Y83.877 E0.43053
G1 X96.649 Y83.766 E0.45312
G1 X98.048 Y83.496 E0.5242
G1 X98.475 Y83.438 E0.5457
G1 X99.413 Y83.36 E0.59266
G1 X99.766 Y83.346 E0.61029
G1 X101.371 Y83.355 E0.69036
G1 X101.831 Y83.384 E0.71336
G1 X103.216 Y83.552 E0.78296
G1 X103.571 Y83.612 E0.80092
G1 X104.608 Y83.834 E0.85383
G1 X105.079 Y83.965 E0.87822
G1 X106.72 Y84.533 E0.96486
G1 X107.168 Y84.719 E0.98906
G1 X108.359 Y85.301 E1.05519
G1 X108.782 Y85.541 E1.07946
G1 X110.386 Y86.583 E1.17488
G1 X110.898 Y86.978 E1.20714
G1 X112.334 Y88.284 E1.30398
G1 X112.664 Y88.621 E1.32752
G1 X113.599 Y89.698 E1.39867
G1 X113.901 Y90.093 E1.42348
G1 X114.671 Y91.242 E1.49248
G1 X114.93 Y91.689 E1.51826
G1 X115.855 Y93.55 E1.62194
G1 X116.067 Y94.063 E1.64963
G1 X116.529 Y95.447 E1.72243
G1 X116.657 Y95.927 E1.74721
G1 X116.97 Y97.487 E1.82659
G1 X117.047 Y98.168 E1.86078
G1 X117.117 Y100.807 E1.99249
G1 X117.068 Y101.542 E2.02924
G1 X116.699 Y103.859 E2.14629
G1 X116.541 Y104.504 E2.17942
G1 X116.03 Y106.025 E2.25947
G1 X115.819 Y106.534 E2.28696
G1 X114.95 Y108.279 E2.38422
G1 X114.655 Y108.777 E2.4131
G1 X113.644 Y110.233 E2.50153
G1 X113.221 Y110.745 E2.53466
G1 X111.623 Y112.383 E2.64883
G1 X111.26 Y112.713 E2.67331
G1 X110.353 Y113.439 E2.73127
G1 X110.035 Y113.668 E2.75082
G1 X109.087 Y114.285 E2.80725
G1 X108.67 Y114.522 E2.83118
G1 X106.962 Y115.362 E2.92614
G1 X106.47 Y115.565 E2.95269
G1 X104.981 Y116.065 E3.03106
G1 X104.483 Y116.197 E3.05676
G1 X103.096 Y116.471 E3.12729
G1 X102.613 Y116.536 E3.15161
G1 X100.676 Y116.678 E3.2485
G1 X99.943 Y116.665 E3.28508
G1 X97.481 Y116.392 E3.40866
G1 X96.93 Y116.291 E3.43661
G1 X95.665 Y115.967 E3.50176
G1 X95.158 Y115.8 E3.52839
G1 X93.372 Y115.078 E3.6245
G1 X92.834 Y114.812 E3.65444
G1 X91.31 Y113.91 E3.74279
G1 X90.945 Y113.666 E3.7647
G1 X89.84 Y112.836 E3.83365
G1 X89.481 Y112.533 E3.85708
G1 X82.623 Y105.993 E4.32987
G1 X82.243 Y105.575 E4.35805
G1 X81.925 Y105.107 E4.38628
G1 X81.604 Y104.407 E4.4247
G1 X81.163 Y103.134 E4.49191
G1 X81.059 Y102.78 E4.51032
G1 X80.799 Y101.723 E4.56463
G1 X80.703 Y101.166 E4.59282
G1 X80.683 Y100.776 E4.61231
G1 X80.68 Y99.22 E4.68994
G1 X80.719 Y98.656 E4.71814
G1 X80.77 Y98.369 E4.73268
G1 X80.916 Y97.692 E4.76724
G1 X81.103 Y97.071 E4.79959
G1 X81.764 Y95.39 E4.88971
G1 X82.008 Y94.88 E4.91791
G1 X82.321 Y94.409 E4.94613
G1 X82.774 Y93.915 E4.97957
G1 X85.252 Y91.628 E5.1478
G1 X88.784 Y88.096 E5.397
G0 F3600 X89.066 Y88.378
G1 F1200 X89.247 Y88.21 E5.40932
G1 X90.383 Y87.22 E5.4845
G1 X90.878 Y86.858 E5.51509
G1 X93.062 Y85.53 E5.64262
G1 X93.466 Y85.318 E5.66538
G1 X94.493 Y84.86 E5.72148
G1 X94.882 Y84.713 E5.74223
G1 X96.33 Y84.259 E5.81794
G1 X96.725 Y84.159 E5.83826
G1 X98.124 Y83.889 E5.90935
G1 X98.508 Y83.836 E5.92869
G1 X99.446 Y83.758 E5.97565
G1 X99.764 Y83.746 E5.99152
G1 X101.369 Y83.755 E6.0716
G1 X101.783 Y83.781 E6.09229
G1 X103.168 Y83.949 E6.1619
G1 X103.488 Y84.003 E6.17809
G1 X104.525 Y84.225 E6.231
G1 X104.949 Y84.343 E6.25295
G1 X106.59 Y84.911 E6.33959
G1 X106.993 Y85.079 E6.36137
G1 X108.184 Y85.661 E6.42751
G1 X108.564 Y85.876 E6.44929
G1 X110.168 Y86.918 E6.54472
G1 X110.629 Y87.274 E6.57377
G1 X112.065 Y88.58 E6.67062
G1 X112.361 Y88.883 E6.69175
G1 X113.296 Y89.96 E6.7629
G1 X113.569 Y90.316 E6.78529
G1 X114.339 Y91.465 E6.85429
G1 X114.572 Y91.867 E6.87747
G1 X115.497 Y93.728 E6.98115
G1 X115.688 Y94.19 E7.0061
G1 X116.15 Y95.574 E7.07889
G1 X116.265 Y96.006 E7.10119
G1 X116.578 Y97.566 E7.18057
G1 X116.647 Y98.179 E7.21135
G1 X116.717 Y100.818 E7.34305
G1 X116.673 Y101.479 E7.3761
G1 X116.304 Y103.796 E7.49316
G1 X116.162 Y104.376 E7.52295
G1 X115.651 Y105.897 E7.603
G1 X115.461 Y106.356 E7.62778
G1 X114.592 Y108.101 E7.72504
G1 X114.326 Y108.549 E7.75103
G1 X113.315 Y110.005 E7.83947
G1 X112.935 Y110.466 E7.86927
G1 X111.337 Y112.104 E7.98344
G1 X111.01 Y112.401 E8.00548
G1 X110.103 Y113.127 E8.06344
G1 X109.817 Y113.333 E8.08103
G1 X108.869 Y113.95 E8.13746
G1 X108.494 Y114.163 E8.15897
G1 X106.786 Y115.003 E8.25393
G1 X106.343 Y115.186 E8.27785
G1 X104.854 Y115.686 E8.35621
G1 X104.406 Y115.805 E8.37933
G1 X103.019 Y116.079 E8.44987
G1 X102.584 Y116.137 E8.47176
G1 X100.647 Y116.279 E8.56866
G1 X99.987 Y116.267 E8.60159
G1 X97.525 Y115.994 E8.72518
G1 X97.029 Y115.903 E8.75033
G1 X95.764 Y115.579 E8.81548
G1 X95.308 Y115.43 E8.83942
G1 X93.522 Y114.708 E8.93553
G1 X93.037 Y114.468 E8.96252
G1 X91.513 Y113.566 E9.05087
G1 X91.185 Y113.346 E9.07058
G1 X90.08 Y112.516 E9.13953
G1 X89.758 Y112.243 E9.16059
G1 X82.9 Y105.703 E9.63337
G1 X82.54 Y105.305 E9.66015
G1 X82.244 Y104.858 E9.68689
G1 X81.982 Y104.276 E9.71874
G1 X81.541 Y103.003 E9.78595
G1 X81.447 Y102.685 E9.80249
G1 X81.187 Y101.628 E9.8568
G1 X81.098 Y101.099 E9.88356
G1 X81.083 Y100.775 E9.89974
G1 X81.08 Y99.219 E9.97737
G1 X81.161 Y98.453 E10.0158
G1 X81.307 Y97.776 E10.05035
G1 X81.476 Y97.218 E10.07944
G1 X82.137 Y95.537 E10.16956
G1 X82.37 Y95.054 E10.19631
G1 X82.672 Y94.61 E10.2231
G1 X83.045 Y94.209 E10.25042
G1 X85.51 Y91.934 E10.41777
G1 X89.066 Y88.378 E10.66867
G0 F3600 X89.51 Y88.512
G1 F1200 X90.646 Y87.522 E10.74385
G1 X91.085 Y87.2 E10.77101
G1 X93.269 Y85.872 E10.89853
G1 X93.629 Y85.683 E10.91882
G1 X94.656 Y85.225 E10.97492
G1 X95.002 Y85.095 E10.99336
G1 X96.45 Y84.641 E11.06907
G1 X96.801 Y84.552 E11.08713
G1 X98.2 Y84.282 E11.15822
G1 X98.541 Y84.235 E11.17539
G1 X99.479 Y84.157 E11.22235
G1 X99.762 Y84.146 E11.23648
G1 X101.367 Y84.155 E11.31655
G1 X101.734 Y84.178 E11.3349
G1 X103.119 Y84.346 E11.4045
G1 X103.404 Y84.394 E11.41892
G1 X104.441 Y84.616 E11.47183
G1 X104.818 Y84.721 E11.49135
G1 X106.459 Y85.289 E11.57799
G1 X106.817 Y85.438 E11.59734
G1 X108.008 Y86.02 E11.66347
G1 X108.346 Y86.212 E11.68286
G1 X109.95 Y87.254 E11.77829
G1 X110.36 Y87.57 E11.80412
G1 X111.796 Y88.876 E11.90096
G1 X112.059 Y89.145 E11.91973
G1 X112.994 Y90.222 E11.99088
G1 X113.236 Y90.539 E12.01078
G1 X114.006 Y91.688 E12.07978
G1 X114.214 Y92.045 E12.1004
G1 X115.139 Y93.906 E12.20408
G1 X115.308 Y94.317 E12.22625
G1 X115.77 Y95.701 E12.29904
G1 X115.872 Y96.084 E12.31882
G1 X116.185 Y97.644 E12.3982
G1 X116.247 Y98.189 E12.42556
G1 X116.317 Y100.828 E12.55727
G1 X116.278 Y101.416 E12.58667
G1 X115.909 Y103.733 E12.70372
G1 X115.782 Y104.249 E12.73023
G1 X115.271 Y105.77 E12.81028
G1 X115.102 Y106.177 E12.83227
G1 X114.233 Y107.922 E12.92953
G1 X113.997 Y108.321 E12.95265
G1 X112.986 Y109.777 E13.04109
G1 X112.649 Y110.187 E13.06757
G1 X111.051 Y111.825 E13.18173
G1 X110.76 Y112.088 E13.2013
G1 X109.853 Y112.814 E13.25926
G1 X109.599 Y112.998 E13.27491
G1 X108.651 Y113.615 E13.33134
G1 X108.317 Y113.805 E13.35051
G1 X106.609 Y114.645 E13.44547
G1 X106.216 Y114.807 E13.46668
G1 X104.727 Y115.307 E13.54504
G1 X104.328 Y115.412 E13.56563
G1 X102.941 Y115.686 E13.63616
G1 X102.555 Y115.738 E13.65559
G1 X100.618 Y115.88 E13.75249
G1 X100.031 Y115.87 E13.78178
G1 X97.569 Y115.597 E13.90536
G1 X97.128 Y115.516 E13.92773
G1 X95.863 Y115.192 E13.99288
G1 X95.458 Y115.059 E14.01415
G1 X93.672 Y114.337 E14.11026
G1 X93.241 Y114.124 E14.13424
G1 X91.717 Y113.222 E14.22259
G1 X91.425 Y113.027 E14.24011
G1 X90.32 Y112.197 E14.30906
G1 X90.034 Y111.954 E14.32778
G1 X83.176 Y105.414 E14.80057
G1 X82.838 Y105.037 E14.82583
G1 X82.565 Y104.612 E14.85103
G1 X82.36 Y104.145 E14.87647
G1 X81.919 Y102.872 E14.94369
G1 X81.836 Y102.589 E14.9584
G1 X81.576 Y101.532 E15.01271
G1 X81.494 Y101.033 E15.03794
G1 X81.483 Y100.774 E15.05087
G1 X81.48 Y99.218 E15.1285
G1 X81.552 Y98.537 E15.16266
G1 X81.698 Y97.86 E15.19722
G1 X81.848 Y97.364 E15.22307
G1 X82.509 Y95.683 E15.31318
G1 X82.731 Y95.229 E15.3384
G1 X83.021 Y94.815 E15.36361
G1 X83.317 Y94.502 E15.38511
G1 X85.795 Y92.215 E15.55334
G1 X89.349 Y88.661 E15.80409
G1 X89.51 Y88.512 E15.81504
G0 F3600 X87.14 Y97.378
;TYPE:SUPPORT
G1 F1200 X87.14 Y97.394 E15.81584
G1 X87.077 Y97.69 E15.83094
G1 X86.915 Y97.69 E15.83902
G1 X86.515 Y98.09 E15.86724
G1 X86.521 Y101.513 E16.03801
G1 X86.777 Y101.951 E16.06332
G1 X87.057 Y102.109 E16.07936
G1 X87.058 Y102.113 E16.07957
G1 X87.146 Y102.624 E16.10544
G1 X85.51 Y102.88 E16.18805
G1 X84.925 Y101.144 E16.27945
G1 X84.872 Y100.748 E16.29938
G1 X84.871 Y99.167 E16.37826
G1 X84.941 Y98.78 E16.39788
G1 X85.6 Y97.081 E16.48879
G1 X87.141 Y97.373 E16.56704
G1 X87.14 Y97.378 E16.5673
G0 F3600 X86.357 Y98.642
G1 F1200 X85.168 Y98.642 E16.62662
G0 F3600 X85.312 Y98.268
G1 F1200 X85.312 Y101.792 E16.80243
G0 F3600 X85.148 Y101.308
G1 F1200 X86.361 Y101.308 E16.86295
G1 F1500 E10.36295
G0 F3600 X87.189 Y101.257
G0 X88.452 Y101.179
G0 X88.564 Y101.392
G0 X88.465 Y101.399
;TYPE:WALL-INNER
G1 F1500 E16.86295
G1 F1200 X88.378 Y99.997 E16.93303
G1 X88.49 Y98.346 E17.01559
G1 X88.786 Y96.873 E17.09054
G1 X89.272 Y95.433 E17.16637
G1 X89.328 Y95.3 E17.17357
G1 X90.011 Y93.926 E17.25012
G1 X90.851 Y92.669 E17.32554
G1 X90.945 Y92.553 E17.33299
G1 X91.862 Y91.508 E17.40235
G1 X91.96 Y91.406 E17.40941
G1 X93.106 Y90.404 E17.48536
G1 X94.366 Y89.558 E17.56107
G1 X94.501 Y89.481 E17.56883
G1 X95.876 Y88.81 E17.64516
G1 X97.311 Y88.323 E17.72076
G1 X98.953 Y87.999 E17.80426
G1 X100.476 Y87.901 E17.8804
G1 X101.996 Y87.998 E17.95639
G1 X102.14 Y88.018 E17.96364
G1 X103.499 Y88.285 E18.03274
G1 X103.626 Y88.316 E18.03926
G1 X105.082 Y88.813 E18.11602
G1 X105.222 Y88.875 E18.12365
G1 X106.444 Y89.477 E18.19162
G1 X106.583 Y89.557 E18.19962
G1 X107.844 Y90.403 E18.27538
G1 X108.98 Y91.396 E18.35065
G1 X110.1 Y92.667 E18.43517
G1 X110.949 Y93.938 E18.51142
G1 X111.615 Y95.283 E18.5863
G1 X111.683 Y95.441 E18.59488
G1 X112.167 Y96.874 E18.67035
G1 X112.463 Y98.361 E18.74599
G1 X112.481 Y98.51 E18.75348
G1 X112.571 Y99.885 E18.82222
G1 X112.575 Y100.031 E18.82951
G1 X112.474 Y101.558 E18.90586
G1 X112.188 Y103.039 E18.98111
G1 X112.142 Y103.204 E18.98965
G1 X111.65 Y104.638 E19.06529
G1 X110.983 Y105.997 E19.14082
G1 X110.042 Y107.406 E19.22535
G1 X109.054 Y108.531 E19.30005
G1 X107.893 Y109.558 E19.37738
G1 X107.787 Y109.64 E19.38406
G1 X106.521 Y110.479 E19.45984
G1 X105.16 Y111.155 E19.53565
G1 X103.558 Y111.701 E19.62009
G1 X102.061 Y111.995 E19.6962
G1 X100.545 Y112.098 E19.77201
G1 X100.404 Y112.099 E19.77905
G1 X99.033 Y112.009 E19.84759
G1 X98.88 Y111.993 E19.85527
G1 X97.389 Y111.7 E19.93108
G1 X97.248 Y111.659 E19.9384
G1 X95.94 Y111.215 E20.00732
G1 X95.804 Y111.163 E20.01458
G1 X94.45 Y110.492 E20.08997
G1 X94.181 Y110.304 E20.10634
G1 X93.04 Y109.542 E20.1748
G1 X91.897 Y108.531 E20.25093
G1 X90.91 Y107.408 E20.32552
G1 X90.082 Y106.179 E20.39945
G1 X89.974 Y106.006 E20.40962
G1 X89.299 Y104.632 E20.486
G1 X89.249 Y104.499 E20.49309
G1 X88.807 Y103.193 E20.56187
G1 X88.77 Y103.058 E20.56886
G1 X88.48 Y101.575 E20.64425
G1 X88.465 Y101.399 E20.65306
G0 F3600 X88.066 Y101.433
;TYPE:WALL-OUTER
G1 F1200 X87.977 Y99.997 E20.72484
G1 X88.092 Y98.297 E20.80985
G1 X88.399 Y96.768 E20.88765
G1 X88.896 Y95.295 E20.96521
G1 X88.969 Y95.123 E20.97453
G1 X89.581 Y93.881 E21.04361
G1 X89.666 Y93.722 E21.0526
G1 X90.528 Y92.431 E21.13005
G1 X90.644 Y92.289 E21.1392
G1 X91.561 Y91.244 E21.20856
G1 X91.686 Y91.115 E21.21752
G1 X92.863 Y90.085 E21.29555
G1 X94.162 Y89.214 E21.37358
G1 X94.313 Y89.127 E21.38227
G1 X94.445 Y89.068 E21.38949
G1 X95.723 Y88.439 E21.46055
G1 X97.202 Y87.937 E21.53847
G1 X98.749 Y87.628 E21.61718
G1 X98.909 Y87.601 E21.62527
G1 X100.475 Y87.5 E21.70356
G1 X102.041 Y87.6 E21.78185
G1 X102.215 Y87.625 E21.79062
G1 X103.576 Y87.892 E21.85981
G1 X103.746 Y87.934 E21.86855
G1 X105.227 Y88.439 E21.94662
G1 X105.392 Y88.512 E21.95562
G1 X106.629 Y89.122 E22.02443
G1 X106.793 Y89.216 E22.03386
G1 X108.087 Y90.084 E22.1116
G1 X109.262 Y91.112 E22.18948
G1 X110.42 Y92.426 E22.27686
G1 X111.288 Y93.726 E22.35485
G1 X111.366 Y93.871 E22.36306
G1 X111.983 Y95.125 E22.43279
G1 X112.055 Y95.293 E22.44191
G1 X112.553 Y96.768 E22.51958
G1 X112.858 Y98.299 E22.59746
G1 X112.879 Y98.475 E22.6063
G1 X112.971 Y99.873 E22.6762
G1 X112.976 Y100.035 E22.68429
G1 X112.871 Y101.612 E22.76314
G1 X112.577 Y103.134 E22.84047
G1 X112.528 Y103.311 E22.84964
G1 X112.02 Y104.792 E22.92775
G1 X111.329 Y106.2 E23.006
G1 X110.363 Y107.647 E23.0928
G1 X109.334 Y108.818 E23.17057
G1 X108.151 Y109.864 E23.24935
G1 X108.024 Y109.962 E23.25736
G1 X106.72 Y110.827 E23.33543
G1 X105.31 Y111.527 E23.41396
G1 X103.661 Y112.089 E23.50088
G1 X102.125 Y112.39 E23.57897
G1 X101.952 Y112.406 E23.58764
G1 X100.557 Y112.498 E23.65738
G1 X100.394 Y112.499 E23.66552
G1 X98.998 Y112.407 E23.73531
G1 X98.826 Y112.39 E23.74394
G1 X97.292 Y112.088 E23.82194
G1 X97.119 Y112.038 E23.83092
G1 X95.811 Y111.594 E23.89983
G1 X95.643 Y111.529 E23.90882
G1 X94.244 Y110.836 E23.98671
G1 X93.955 Y110.634 E24.0043
G1 X92.795 Y109.86 E24.07388
G1 X91.617 Y108.818 E24.15234
G1 X90.591 Y107.651 E24.22986
G1 X89.75 Y106.402 E24.30499
G1 X89.624 Y106.201 E24.31682
G1 X88.932 Y104.792 E24.39514
G1 X88.87 Y104.627 E24.40393
G1 X88.425 Y103.313 E24.47314
G1 X88.378 Y103.139 E24.48214
G1 X88.083 Y101.631 E24.5588
G1 X88.066 Y101.433 E24.56871
G0 F3600 X88.054 Y101.234
G0 X88.625 Y101.071
;TYPE:SKIN
G1 F1200 X99.406 Y111.851 E25.32933
G1 X99.476 Y111.921
G0 F3600 X100.011 Y111.891
G1 F1200 X88.588 Y100.467 E26.13532
G1 X88.518 Y100.397
G0 F3600 X88.566 Y99.88
G1 F1200 X100.598 Y111.912 E26.98424
G1 X100.668 Y111.982
G0 F3600 X101.128 Y111.876
G1 F1200 X88.602 Y99.35 E27.86802
G1 X88.532 Y99.28
G0 F3600 X88.637 Y98.82
G1 F1200 X101.657 Y111.84 E28.78665
G1 X101.727 Y111.91
G0 F3600 X102.171 Y111.788
G1 F1200 X88.681 Y98.298 E29.73845
G1 X88.611 Y98.228
G0 F3600 X88.777 Y97.828
G1 F1200 X102.645 Y111.696 E30.71691
G1 X102.715 Y111.766
G0 F3600 X103.117 Y111.602
G1 F1200 X88.872 Y97.357 E31.72197
G1 X88.802 Y97.287
G0 F3600 X88.97 Y96.889
G1 F1200 X103.581 Y111.501 E32.75289
G1 X103.651 Y111.571
G0 F3600 X104.004 Y111.358
G1 F1200 X89.112 Y96.466 E33.8036
G1 X89.042 Y96.396
G0 F3600 X89.255 Y96.043
G1 F1200 X104.426 Y111.214 E34.874
G1 X104.496 Y111.284
G0 F3600 X104.847 Y111.07
G1 F1200 X89.397 Y95.619 E35.96411
G1 X89.327 Y95.549
G0 F3600 X89.566 Y95.223
G1 F1200 X105.251 Y110.908 E37.07077
G1 X105.321 Y110.978
G0 F3600 X105.629 Y110.72
G1 F1200 X89.754 Y94.845 E38.19084
G1 X89.684 Y94.775
G0 F3600 X89.941 Y94.467
G1 F1200 X106.006 Y110.532 E39.32431
G1 X106.076 Y110.602
G0 F3600 X106.384 Y110.344
G1 F1200 X90.129 Y94.089 E40.47119
G1 X90.059 Y94.019
G0 F3600 X90.349 Y93.743
G1 F1200 X106.729 Y110.123 E41.62689
G1 X106.799 Y110.193
G0 F3600 X107.069 Y109.897
G1 F1200 X90.575 Y93.403 E42.79063
G1 X90.505 Y93.333
G0 F3600 X90.802 Y93.065
G1 F1200 X107.41 Y109.672 E43.96238
G1 X107.48 Y109.742
G0 F3600 X107.746 Y109.443
G1 F1200 X91.032 Y92.729 E45.14164
G1 X90.962 Y92.659
G0 F3600 X91.293 Y92.425
G1 F1200 X108.047 Y109.178 E46.32369
G1 X108.117 Y109.248
G0 F3600 X108.347 Y108.913
G1 F1200 X91.559 Y92.124 E47.50821
G1 X91.489 Y92.054
G0 F3600 X91.823 Y91.823
G1 F1200 X108.647 Y108.647 E48.69524
G1 X108.717 Y108.717
G0 F3600 X108.946 Y108.381
G1 F1200 X92.094 Y91.528 E49.88427
G1 X92.024 Y91.458
G0 F3600 X92.396 Y91.264
G1 F1200 X109.211 Y108.079 E51.07066
G1 X109.281 Y108.149
G0 F3600 X109.475 Y107.778
G1 F1200 X92.698 Y91.001 E52.25437
G1 X92.628 Y90.931
G0 F3600 X93 Y90.737
G1 F1200 X109.74 Y107.477 E53.43546
G1 X109.81 Y107.547
G0 F3600 X109.989 Y107.161
G1 F1200 X93.311 Y90.482 E54.61222
G1 X93.241 Y90.412
G0 F3600 X93.649 Y90.255
G1 F1200 X110.216 Y106.821 E55.78108
G1 X110.286 Y106.891
G0 F3600 X110.442 Y106.482
G1 F1200 X93.987 Y90.028 E56.94203
G1 X93.917 Y89.958
G0 F3600 X94.326 Y89.801
G1 F1200 X110.668 Y106.143 E58.09505
G1 X110.738 Y106.213
