;FLAVOR:RepRap
;TIME:6536
;Filament used: 4.88679m
;Layer height: 0.2
;Generated with Cura_SteamEngine 2.6.0
M190 S50
M104 S195
M109 S195
G28 ;Home
G1 Z15.0 F6000 ;Move the platform down 15mm
;Prime the extruder
G92 E0
G1 F200 E3
G92 E0
;LAYER_COUNT:50
;LAYER:0
M107
G0 F1200 X48.759 Y47.734 Z0.3
;TYPE:SKIRT
G1 X49.146 Y47.408 E0.02524
G1 X49.579 Y47.147 E0.05047
G1 X50.047 Y46.957 E0.07567
G1 X50.437 Y46.861 E0.09571
G1 X54.459 Y46.129 E0.29966
G1 X57.085 Y45.564 E0.43367
G1 X59.761 Y44.908 E0.57113
G1 X65.052 Y43.371 E0.84601
G1 X70.197 Y41.555 E1.11822
G1 X75.254 Y39.44 E1.39169
G1 X80.18 Y37.046 E1.66493
G1 X84.968 Y34.372 E1.93853
G1 X89.568 Y31.452 E2.21036
G1 X95.133 Y27.418 E2.55327
G1 X95.564 Y27.155 E2.57846
G1 X96.032 Y26.962 E2.60372
G1 X96.524 Y26.846 E2.62894
G1 X97.017 Y26.809 E2.6536
G1 X101 Y26.816 E2.85232
G1 X101.504 Y26.857 E2.87754
G1 X101.995 Y26.977 E2.90276
G1 X102.461 Y27.172 E2.92796
G1 X102.891 Y27.439 E2.95322
G1 X103.273 Y27.769 E2.9784
G1 X103.598 Y28.156 E3.00361
G1 X103.859 Y28.59 E3.02888
G1 X104.028 Y28.997 E3.05086
G1 X105.134 Y32.29 E3.22417
G1 X107.112 Y37.409 E3.49796
G1 X109.376 Y42.403 E3.77152
G1 X111.921 Y47.268 E4.04544
G1 X113.259 Y49.582 E4.1788
G1 X116.219 Y54.233 E4.45384
G1 X119.426 Y58.691 E4.72783
G1 X122.854 Y62.93 E4.99981
G1 X127.353 Y67.846 E5.33227
G1 X127.663 Y68.244 E5.35744
G1 X127.908 Y68.687 E5.3827
G1 X128.012 Y68.947 E5.39667
G1 X130.092 Y74.876 E5.71014
G1 X132.208 Y79.921 E5.98308
G1 X134.606 Y84.837 E6.25596
G1 X137.283 Y89.621 E6.52947
G1 X138.713 Y91.939 E6.66535
G1 X141.788 Y96.48 E6.93895
G1 X145.11 Y100.834 E7.21218
G1 X148.684 Y105.007 E7.48629
G1 X151.322 Y107.814 E7.67847
G1 X151.638 Y108.208 E7.70367
G1 X151.888 Y108.648 E7.72892
G1 X152.066 Y109.121 E7.75413
G1 X152.166 Y109.617 E7.77938
G1 X152.19 Y110.005 E7.79877
G1 X152.19 Y149.992 E9.79373
G1 X152.15 Y150.496 E9.81895
G1 X152.031 Y150.987 E9.84416
G1 X151.837 Y151.454 E9.86939
G1 X151.571 Y151.884 E9.89461
G1 X151.241 Y152.267 E9.91984
G1 X150.854 Y152.593 E9.94508
G1 X150.421 Y152.854 E9.9703
G1 X149.964 Y153.04 E9.99492
G1 X144.062 Y154.926 E10.30404
G1 X138.946 Y156.903 E10.57767
G1 X133.952 Y159.164 E10.85117
G1 X127.861 Y162.243 E11.19167
G1 X127.421 Y162.426 E11.21545
G1 X123.566 Y163.699 E11.41799
G1 X118.452 Y165.658 E11.69121
G1 X113.455 Y167.903 E11.96451
G1 X108.592 Y170.428 E12.23788
G1 X104.613 Y172.752 E12.46777
G1 X104.158 Y172.972 E12.49299
G1 X103.674 Y173.117 E12.5182
G1 X103 Y173.189 E12.55201
G1 X99.009 Y173.19 E12.75113
G1 X98.505 Y173.15 E12.77635
G1 X98.013 Y173.031 E12.8016
G1 X97.547 Y172.837 E12.82679
G1 X97.117 Y172.571 E12.85201
G1 X96.734 Y172.241 E12.87723
G1 X96.408 Y171.855 E12.90244
G1 X96.146 Y171.422 E12.92769
G1 X95.989 Y171.05 E12.94783
G1 X93.912 Y165.133 E13.26069
G1 X91.791 Y160.078 E13.53419
G1 X89.394 Y155.163 E13.80701
G1 X86.717 Y150.379 E14.08051
G1 X85.287 Y148.061 E14.21639
G1 X82.212 Y143.52 E14.49
G1 X78.89 Y139.166 E14.76322
G1 X75.316 Y134.994 E15.0373
G1 X72.673 Y132.179 E15.22994
G1 X72.357 Y131.785 E15.25514
G1 X72.108 Y131.345 E15.28036
G1 X71.972 Y131.006 E15.29858
G1 X70.871 Y127.722 E15.47138
G1 X68.888 Y122.591 E15.74582
G1 X66.624 Y117.597 E16.01938
G1 X64.079 Y112.732 E16.2933
G1 X62.731 Y110.401 E16.42764
G1 X59.783 Y105.769 E16.70157
G1 X56.581 Y101.317 E16.97516
G1 X53.145 Y97.069 E17.24774
G1 X48.649 Y92.155 E17.58003
G1 X48.338 Y91.756 E17.60527
G1 X48.094 Y91.313 E17.6305
G1 X47.923 Y90.838 E17.65569
G1 X47.829 Y90.341 E17.68093
G1 X47.81 Y89.995 E17.69821
G1 X47.81 Y50.009 E19.69312
G1 X47.85 Y49.505 E19.71835
G1 X47.969 Y49.014 E19.74355
G1 X48.163 Y48.547 E19.76878
G1 X48.429 Y48.117 E19.79401
G1 X48.759 Y47.734 E19.81923
G1 F1500 E13.31923
G0 F1200 X51.614 Y49.335
G0 X51.614 Y50.614
G0 X51.67 Y50.67
G0 X51.6 Y50.6
;TYPE:WALL-INNER
G1 F1500 E19.81923
G1 F1200 X54.4 Y50.6 E19.95892
G1 X54.4 Y64.026 E20.62875
G1 X54.468 Y64.8 E20.66751
G1 X54.675 Y65.574 E20.70748
G1 X55.014 Y66.301 E20.7475
G1 X55.474 Y66.958 E20.78752
G1 X56.042 Y67.526 E20.82759
G1 X56.699 Y67.986 E20.86761
G1 X57.426 Y68.325 E20.90763
G1 X58.2 Y68.532 E20.9476
G1 X58.974 Y68.6 E20.98636
G1 X65.682 Y68.6 E21.32103
G1 X66.168 Y66.785 E21.41477
G1 X66.859 Y65.305 E21.49625
G1 X67.804 Y63.956 E21.57843
G1 X68.956 Y62.804 E21.65971
G1 X70.305 Y61.859 E21.74188
G1 X71.786 Y61.168 E21.82341
G1 X73.369 Y60.744 E21.90517
G1 X75 Y60.601 E21.98686
G1 X76.631 Y60.744 E22.06854
G1 X78.214 Y61.168 E22.1503
G1 X79.695 Y61.859 E22.23183
G1 X80.954 Y62.741 E22.30853
G1 X81.044 Y62.804 E22.31401
G1 X81.196 Y62.956 E22.32473
G1 X81.119 Y63.033 E22.32919
G1 X79.223 Y64.928 E22.46293
G1 X78.301 Y64.282 E22.51909
G1 X77.258 Y63.796 E22.5765
G1 X76.147 Y63.498 E22.63389
G1 X75 Y63.397 E22.69133
G1 X73.853 Y63.498 E22.74878
G1 X72.742 Y63.796 E22.80616
G1 X71.699 Y64.282 E22.86357
G1 X70.756 Y64.942 E22.921
G1 X69.942 Y65.756 E22.97843
G1 X69.282 Y66.699 E23.03585
G1 X68.796 Y67.742 E23.09326
G1 X68.498 Y68.853 E23.15065
G1 X68.397 Y70 E23.20809
G1 X68.498 Y71.147 E23.26554
G1 X68.796 Y72.258 E23.32293
G1 X69.282 Y73.301 E23.38033
G1 X69.942 Y74.244 E23.43776
G1 X70.756 Y75.058 E23.49519
G1 X71.699 Y75.718 E23.55261
G1 X72.742 Y76.204 E23.61002
G1 X73.853 Y76.502 E23.66741
G1 X75 Y76.603 E23.72485
G1 X76.147 Y76.502 E23.7823
G1 X77.258 Y76.204 E23.83969
G1 X78.301 Y75.718 E23.89709
G1 X79.224 Y75.072 E23.9533
G1 X81.119 Y76.967 E24.087
G1 X81.196 Y77.044 E24.09244
G1 X81.044 Y77.196 E24.10316
G1 X80.954 Y77.259 E24.10766
G1 X79.695 Y78.141 E24.18436
G1 X78.214 Y78.832 E24.26589
G1 X76.631 Y79.256 E24.34765
G1 X75 Y79.399 E24.42933
G1 X73.369 Y79.256 E24.51102
G1 X71.786 Y78.832 E24.59278
G1 X70.305 Y78.141 E24.67431
G1 X68.956 Y77.196 E24.75648
G1 X67.804 Y76.044 E24.83776
G1 X66.859 Y74.695 E24.91994
G1 X66.168 Y73.215 E25.00142
G1 X65.682 Y71.4 E25.09517
G1 X58.974 Y71.4 E25.42983
G1 X58.2 Y71.468 E25.46859
G1 X57.426 Y71.675 E25.50856
G1 X56.699 Y72.014 E25.54858
G1 X56.042 Y72.474 E25.5886
G1 X55.474 Y73.042 E25.62867
G1 X55.014 Y73.699 E25.66869
G1 X54.675 Y74.426 E25.70871
G1 X54.468 Y75.2 E25.74868
G1 X54.4 Y75.974 E25.78744
G1 X54.4 Y89.4 E26.45727
G1 X51.6 Y89.4 E26.59696
G1 X51.6 Y50.6 E28.5327
G0 X51.2 Y50.2
;TYPE:WALL-OUTER
G1 X54.8 Y50.2 E28.71231
G1 X54.8 Y64.009 E29.40124
G1 X54.863 Y64.73 E29.43735
G1 X55.052 Y65.437 E29.47386
G1 X55.362 Y66.1 E29.51037
G1 X55.782 Y66.7 E29.54691
G1 X56.3 Y67.218 E29.58346
G1 X56.9 Y67.638 E29.62
G1 X57.563 Y67.948 E29.65651
G1 X58.27 Y68.137 E29.69302
G1 X58.991 Y68.2 E29.72913
G1 X65.375 Y68.2 E30.04763
G1 X65.791 Y66.649 E30.12775
G1 X66.513 Y65.102 E30.21292
G1 X67.497 Y63.697 E30.29849
G1 X68.697 Y62.497 E30.38316
G1 X70.102 Y61.513 E30.46874
G1 X71.649 Y60.791 E30.55391
G1 X73.3 Y60.349 E30.63918
G1 X75 Y60.2 E30.72432
G1 X76.7 Y60.349 E30.80946
G1 X78.351 Y60.791 E30.89473
G1 X79.898 Y61.513 E30.9799
G1 X81.303 Y62.497 E31.06547
G1 X81.621 Y62.815 E31.08791
G1 X81.762 Y62.956 E31.09786
G1 X81.621 Y63.097 E31.10428
G1 X79.226 Y65.491 E31.27323
G1 X78.986 Y65.25 E31.2902
G1 X78.1 Y64.63 E31.34415
G1 X77.121 Y64.173 E31.39805
G1 X76.077 Y63.893 E31.45198
G1 X75 Y63.799 E31.50591
G1 X73.923 Y63.893 E31.55985
G1 X72.879 Y64.173 E31.61377
G1 X71.9 Y64.63 E31.66768
G1 X71.014 Y65.25 E31.72163
G1 X70.25 Y66.014 E31.77553
G1 X69.63 Y66.9 E31.82948
G1 X69.173 Y67.879 E31.88338
G1 X68.893 Y68.923 E31.93731
G1 X68.799 Y70 E31.99125
G1 X68.893 Y71.077 E32.04518
G1 X69.173 Y72.121 E32.09911
G1 X69.63 Y73.1 E32.15301
G1 X70.25 Y73.986 E32.20696
G1 X71.014 Y74.75 E32.26086
G1 X71.9 Y75.37 E32.31481
G1 X72.879 Y75.827 E32.36872
G1 X73.923 Y76.107 E32.42264
G1 X75 Y76.201 E32.47658
G1 X76.077 Y76.107 E32.53052
G1 X77.121 Y75.827 E32.58444
G1 X78.1 Y75.37 E32.63834
G1 X78.986 Y74.75 E32.69229
G1 X79.227 Y74.509 E32.7093
G1 X81.762 Y77.044 E32.88816
G1 X81.303 Y77.503 E32.92054
G1 X79.898 Y78.487 E33.00612
G1 X78.351 Y79.209 E33.09129
G1 X76.7 Y79.651 E33.17656
G1 X75 Y79.8 E33.2617
G1 X73.3 Y79.651 E33.34684
G1 X71.649 Y79.209 E33.43211
G1 X70.102 Y78.487 E33.51728
G1 X68.697 Y77.503 E33.60285
G1 X67.497 Y76.303 E33.68752
G1 X66.513 Y74.898 E33.7731
G1 X65.791 Y73.351 E33.85827
G1 X65.375 Y71.8 E33.93838
G1 X58.991 Y71.8 E34.25688
G1 X58.27 Y71.863 E34.29299
G1 X57.563 Y72.052 E34.3295
G1 X56.9 Y72.362 E34.36602
G1 X56.3 Y72.782 E34.40256
G1 X55.782 Y73.3 E34.4391
G1 X55.362 Y73.9 E34.47564
G1 X55.052 Y74.563 E34.51216
G1 X54.863 Y75.27 E34.54867
G1 X54.8 Y75.991 E34.58478
G1 X54.8 Y89.8 E35.27371
G1 X51.2 Y89.8 E35.45331
G1 X51.2 Y50.2 E37.42897
G0 X51.4 Y50.2
G0 X51.911 Y50.78
;TYPE:SKIN
G1 X54.219 Y53.088 E37.59181
G1 X54.289 Y53.158
G0 X54.219 Y53.653
G1 X51.779 Y51.213 E37.76396
G1 X51.709 Y51.143
G0 X51.779 Y51.779
G1 X54.219 Y54.219 E37.93612
G1 X54.289 Y54.289
G0 X54.219 Y54.785
G1 X51.779 Y52.344 E38.10831
G1 X51.709 Y52.274
G0 X51.779 Y52.91
G1 X54.219 Y55.35 E38.28046
G1 X54.289 Y55.42
G0 X54.219 Y55.916
G1 X51.779 Y53.476 E38.45262
G1 X51.709 Y53.406
G0 X51.779 Y54.042
G1 X54.219 Y56.482 E38.62477
G1 X54.289 Y56.552
G0 X54.219 Y57.047
G1 X51.779 Y54.607 E38.79693
G1 X51.709 Y54.537
G0 X51.779 Y55.173
G1 X54.219 Y57.613 E38.96909
G1 X54.289 Y57.683
G0 X54.219 Y58.179
G1 X51.779 Y55.739 E39.14124
G1 X51.709 Y55.669
G0 X51.779 Y56.304
G1 X54.219 Y58.745 E39.31343
G1 X54.289 Y58.815
G0 X54.219 Y59.31
G1 X51.779 Y56.87 E39.48559
G1 X51.709 Y56.8
G0 X51.779 Y57.436
G1 X54.219 Y59.876 E39.65774
G1 X54.289 Y59.946
G0 X54.219 Y60.442
G1 X51.779 Y58.001 E39.82993
G1 X51.709 Y57.931
G0 X51.779 Y58.567
G1 X54.219 Y61.007 E40.00209
G1 X54.289 Y61.077
G0 X54.219 Y61.573
G1 X51.779 Y59.133 E40.17424
G1 X51.709 Y59.063
G0 X51.779 Y59.698
G1 X54.219 Y62.139 E40.34643
G1 X54.289 Y62.209
G0 X54.219 Y62.704
G1 X51.779 Y60.264 E40.51859
G1 X51.709 Y60.194
G0 X51.779 Y60.83
G1 X54.219 Y63.27 E40.69074
G1 X54.289 Y63.34
G0 X54.219 Y63.836
G1 X51.779 Y61.395 E40.86293
G1 X51.709 Y61.325
G0 X51.779 Y61.961
G1 X54.254 Y64.437 E41.03759
G1 X54.324 Y64.507
G0 X54.365 Y65.113
G1 X51.779 Y62.527 E41.22005
G1 X51.709 Y62.457
G0 X51.779 Y63.093
G1 X54.665 Y65.979 E41.42367
G1 X54.735 Y66.049
G0 X51.779 Y65.921
G1 X57.361 Y71.504 E41.81755
G1 X57.431 Y71.574
G0 X56.976 Y71.684
G1 X51.779 Y66.487 E42.18422
G1 X51.709 Y66.417
G0 X51.779 Y67.052
G1 X56.593 Y71.866 E42.52388
G1 X56.663 Y71.936
G0 X56.26 Y72.099
G1 X51.779 Y67.618 E42.84004
G1 X51.709 Y67.548
G0 X51.779 Y68.184
G1 X55.927 Y72.332 E43.1327
G1 X55.997 Y72.402
G0 X55.645 Y72.615
G1 X51.779 Y68.749 E43.40547
G1 X51.709 Y68.679
G0 X51.779 Y69.315
G1 X55.362 Y72.898 E43.65827
G1 X55.432 Y72.968
G0 X55.124 Y73.226
G1 X51.779 Y69.881 E43.89428
G1 X51.709 Y69.811
G0 X51.779 Y70.446
G1 X54.891 Y73.558 E44.11384
G1 X54.961 Y73.628
G0 X54.703 Y73.937
G1 X51.779 Y71.012 E44.32018
G1 X51.709 Y70.942
G0 X51.779 Y71.578
G1 X54.524 Y74.323 E44.51386
G1 X54.594 Y74.393
G0 X54.398 Y74.763
G1 X51.779 Y72.143 E44.69868
G1 X51.709 Y72.073
G0 X51.779 Y72.709
G1 X54.285 Y75.215 E44.87549
G1 X54.355 Y75.285
G0 X54.24 Y75.736
G1 X51.779 Y73.275 E45.04913
G1 X51.709 Y73.205
G0 X51.779 Y73.841
G1 X54.22 Y76.281 E45.22132
G1 X54.29 Y76.351
G0 X54.22 Y76.847
G1 X51.779 Y74.406 E45.39354
G1 X51.709 Y74.336
G0 X51.779 Y74.972
G1 X54.22 Y77.413 E45.56577
G1 X54.29 Y77.483
G0 X54.22 Y77.979
G1 X51.779 Y75.538 E45.73799
G1 X51.709 Y75.468
G0 X51.779 Y76.103
G1 X54.22 Y78.544 E45.91022
G1 X54.29 Y78.614
G0 X54.22 Y79.11
G1 X51.779 Y76.669 E46.08245
G1 X51.709 Y76.599
G0 X51.779 Y77.235
G1 X54.22 Y79.676 E46.25467
G1 X54.29 Y79.746
G0 X54.22 Y80.241
G1 X51.779 Y77.8 E46.4269
G1 X51.709 Y77.73
G0 X51.779 Y78.366
G1 X54.22 Y80.807 E46.59912
G1 X54.29 Y80.877
G0 X54.22 Y81.373
G1 X51.779 Y78.932 E46.77135
G1 X51.709 Y78.862
G0 X51.779 Y79.497
G1 X54.22 Y81.938 E46.94357
G1 X54.29 Y82.008
G0 X54.22 Y82.504
G1 X51.779 Y80.063 E47.1158
G1 X51.709 Y79.993
G0 X51.779 Y80.629
G1 X54.22 Y83.07 E47.28803
G1 X54.29 Y83.14
G0 X54.22 Y83.635
G1 X51.779 Y81.194 E47.46025
G1 X51.709 Y81.124
G0 X51.779 Y81.76
G1 X54.22 Y84.201 E47.63248
G1 X54.29 Y84.271
G0 X54.22 Y84.767
G1 X51.779 Y82.326 E47.8047
G1 X51.709 Y82.256
G0 X51.779 Y82.892
G1 X54.22 Y85.332 E47.97689
G1 X54.29 Y85.402
G0 X54.22 Y85.898
G1 X51.779 Y83.457 E48.14912
G1 X51.709 Y83.387
G0 X51.779 Y84.023
G1 X54.22 Y86.464 E48.32134
G1 X54.29 Y86.534
G0 X54.22 Y87.029
G1 X51.779 Y84.589 E48.49354
G1 X51.709 Y84.519
G0 X51.779 Y85.154
G1 X54.22 Y87.595 E48.66576
G1 X54.29 Y87.665
G0 X54.22 Y88.161
G1 X51.779 Y85.72 E48.83799
G1 X51.709 Y85.65
G0 X51.779 Y86.286
G1 X54.22 Y88.727 E49.01021
G1 X54.29 Y88.797
G0 X54.146 Y89.219
G1 X51.779 Y86.851 E49.17725
G1 X51.709 Y86.781
G0 X51.779 Y87.417
G1 X53.581 Y89.219 E49.30439
G1 X53.651 Y89.289
G0 X53.015 Y89.219
G1 X51.779 Y87.983 E49.3916
G1 X51.709 Y87.913
G0 X51.779 Y88.548
G1 X52.449 Y89.219 E49.43891
G1 X52.519 Y89.289
G0 X51.883 Y89.219
G1 X51.779 Y89.114 E49.44628
G0 X54.429 Y75.194
G0 X54.638 Y74.413
G0 X54.98 Y73.68
G0 X55.444 Y73.017
G0 X56.017 Y72.444
G0 X56.68 Y71.98
G0 X57.808 Y71.384
G1 X51.779 Y65.355 E49.87166
G1 X51.709 Y65.285
G0 X51.779 Y64.79
G1 X58.269 Y71.279 E50.32953
G1 X58.339 Y71.349
G0 X58.789 Y71.234
G1 X51.779 Y64.224 E50.82412
G1 X51.709 Y64.154
G0 X51.779 Y63.658
G1 X59.339 Y71.219 E51.35756
G1 X59.409 Y71.289
G0 X59.905 Y71.219
G1 X57.021 Y68.335 E51.56104
G1 X56.951 Y68.265
G0 X57.887 Y68.635
G1 X60.471 Y71.219 E51.74335
G1 X60.541 Y71.289
G0 X61.036 Y71.219
G1 X58.561 Y68.744 E51.91798
G1 X58.491 Y68.674
G0 X59.162 Y68.779
G1 X61.602 Y71.219 E52.09013
G1 X61.672 Y71.289
G0 X62.168 Y71.219
G1 X59.728 Y68.779 E52.26229
G1 X59.658 Y68.709
G0 X60.294 Y68.779
G1 X62.733 Y71.219 E52.43441
G1 X62.803 Y71.289
G0 X63.299 Y71.219
G1 X60.859 Y68.779 E52.60656
G1 X60.789 Y68.709
G0 X61.425 Y68.779
G1 X63.865 Y71.219 E52.77872
G1 X63.935 Y71.289
G0 X64.43 Y71.219
G1 X61.991 Y68.779 E52.95084
G1 X61.921 Y68.709
G0 X62.557 Y68.779
G1 X64.996 Y71.219 E53.12296
G1 X65.066 Y71.289
G0 X65.562 Y71.219
G1 X63.122 Y68.779 E53.29511
G1 X63.052 Y68.709
G0 X63.688 Y68.779
G1 X74.043 Y79.134 E54.02571
G1 X74.113 Y79.204
G0 X74.663 Y79.188
G1 X70.744 Y75.27 E54.30219
G1 X70.674 Y75.2
G0 X69.729 Y74.255
G1 X64.254 Y68.779 E54.68851
G1 X64.184 Y68.709
G0 X64.819 Y68.779
G1 X68.858 Y72.817 E54.97345
G1 X68.928 Y72.887
G0 X68.515 Y71.909
G1 X65.385 Y68.779 E55.19429
G1 X65.315 Y68.709
G0 X65.847 Y68.675
G1 X68.317 Y71.145 E55.36856
G1 X68.387 Y71.215
G0 X68.262 Y70.525
G1 X65.966 Y68.229 E55.53055
G1 X65.896 Y68.159
G0 X66.086 Y67.783
G1 X68.223 Y69.92 E55.68133
G1 X68.293 Y69.99
G0 X68.269 Y69.4
G1 X66.205 Y67.337 E55.82692
G1 X66.135 Y67.267
G0 X66.325 Y66.89
G1 X68.315 Y68.88 E55.96733
G1 X68.385 Y68.95
G0 X68.425 Y68.425
G1 X66.499 Y66.499 E56.10322
G1 X66.429 Y66.429
G0 X66.679 Y66.113
G1 X68.544 Y67.979 E56.23484
G1 X68.614 Y68.049
G0 X68.684 Y67.552
G1 X66.859 Y65.727 E56.3636
G1 X66.789 Y65.657
G0 X67.047 Y65.35
G1 X68.864 Y67.167 E56.4918
G1 X68.934 Y67.237
G0 X69.044 Y66.781
G1 X67.279 Y65.017 E56.6163
G1 X67.209 Y64.947
G0 X67.512 Y64.684
G1 X69.253 Y66.424 E56.7391
G1 X69.323 Y66.494
G0 X69.485 Y66.091
G1 X67.745 Y64.351 E56.86186
G1 X67.675 Y64.281
G0 X67.986 Y64.026
G1 X69.719 Y65.759 E56.98414
G1 X69.789 Y65.829
G0 X69.983 Y65.458
G1 X68.269 Y63.743 E57.1051
G1 X68.199 Y63.673
G0 X68.551 Y63.46
G1 X70.266 Y65.175 E57.22611
G1 X70.336 Y65.245
G0 X70.549 Y64.892
G1 X68.834 Y63.177 E57.34711
G1 X68.764 Y63.107
G0 X69.126 Y62.904
G1 X70.866 Y64.643 E57.46984
G1 X70.936 Y64.713
G0 X71.198 Y64.41
G1 X69.459 Y62.671 E57.59254
G1 X69.389 Y62.601
G0 X69.792 Y62.438
G1 X71.531 Y64.177 E57.71523
G1 X71.601 Y64.247
G0 X71.905 Y63.986
G1 X70.125 Y62.205 E57.84086
G1 X70.055 Y62.135
G0 X70.467 Y61.982
G1 X72.291 Y63.805 E57.96951
G1 X72.361 Y63.875
G0 X72.677 Y63.626
G1 X70.853 Y61.802 E58.09821
G1 X70.783 Y61.732
G0 X71.238 Y61.622
G1 X73.122 Y63.505 E58.2311
G1 X73.192 Y63.575
G0 X73.568 Y63.386
G1 X71.624 Y61.441 E58.36829
G1 X71.554 Y61.371
G0 X72.035 Y61.287
G1 X74.047 Y63.299 E58.51025
G1 X74.117 Y63.369
G0 X74.567 Y63.253
G1 X72.481 Y61.167 E58.65743
G1 X72.411 Y61.097
G0 X72.927 Y61.048
