;FLAVOR:RepRap
;TIME:2333
;Filament used: 1.408m
;Layer height: 0.2
;Generated with Cura_SteamEngine 2.6.0
M190 S50
M104 S195
M109 S195
G28 ;Home
G1 Z15.0 F6000 ;Move the platform down 15mm
;Prime the extruder
G92 E0
G1 F200 E3
G92 E0
;LAYER_COUNT:130
;LAYER:0
M107
G0 F1200 X82.531 Y85.283 Z0.3
;TYPE:SKIRT
G1 X82.98 Y84.939 E0.02822
G1 X83.473 Y84.663 E0.05641
G1 X84 Y84.459 E0.0846
G1 X84.551 Y84.331 E0.11282
G1 X85.177 Y84.282 E0.14415
G1 X114.82 Y84.282 E1.62304
G1 X115.384 Y84.322 E1.65125
G1 X115.937 Y84.441 E1.67947
G1 X116.467 Y84.637 E1.70767
G1 X116.964 Y84.905 E1.73584
G1 X117.419 Y85.241 E1.76406
G1 X117.822 Y85.638 E1.79228
G1 X118.164 Y86.088 E1.82048
G1 X118.44 Y86.581 E1.84866
G1 X118.644 Y87.109 E1.8769
G1 X118.771 Y87.659 E1.90507
G1 X118.82 Y88.281 E1.93619
G1 X118.824 Y107.426 E2.89134
G1 X118.784 Y107.99 E2.91955
G1 X118.665 Y108.543 E2.94777
G1 X118.47 Y109.073 E2.97595
G1 X118.201 Y109.571 E3.00418
G1 X117.865 Y110.025 E3.03236
G1 X117.468 Y110.428 E3.06059
G1 X117.019 Y110.771 E3.08877
G1 X116.526 Y111.047 E3.11696
G1 X115.998 Y111.251 E3.1452
G1 X115.447 Y111.378 E3.17341
G1 X114.824 Y111.427 E3.20459
G1 X85.193 Y111.426 E4.68289
G1 X84.629 Y111.386 E4.7111
G1 X84.076 Y111.267 E4.73932
G1 X83.546 Y111.071 E4.76751
G1 X83.049 Y110.803 E4.79568
G1 X82.594 Y110.467 E4.8239
G1 X82.191 Y110.07 E4.85212
G1 X81.848 Y109.62 E4.88035
G1 X81.573 Y109.127 E4.90851
G1 X81.369 Y108.599 E4.93675
G1 X81.242 Y108.048 E4.96496
G1 X81.193 Y107.429 E4.99594
G1 X81.177 Y88.285 E5.95104
G1 X81.216 Y87.721 E5.97925
G1 X81.335 Y87.169 E6.00742
G1 X81.53 Y86.638 E6.03564
G1 X81.799 Y86.14 E6.06388
G1 X82.134 Y85.686 E6.09203
G1 X82.531 Y85.283 E6.12025
G0 X82.922 Y85.476
G1 X83.364 Y85.172 E6.14701
G1 X83.846 Y84.937 E6.17377
G1 X84.357 Y84.777 E6.20048
G1 X84.887 Y84.694 E6.22724
G1 X85.177 Y84.682 E6.24172
G1 X114.82 Y84.682 E7.72062
G1 X115.355 Y84.722 E7.74739
G1 X115.878 Y84.841 E7.77415
G1 X116.377 Y85.036 E7.80087
G1 X116.842 Y85.304 E7.82765
G1 X117.262 Y85.637 E7.85439
G1 X117.628 Y86.029 E7.88115
G1 X117.931 Y86.471 E7.90788
G1 X118.166 Y86.954 E7.93468
G1 X118.326 Y87.465 E7.96139
G1 X118.409 Y87.995 E7.98816
G1 X118.42 Y88.281 E8.00244
G1 X118.424 Y107.426 E8.95759
G1 X118.384 Y107.961 E8.98435
G1 X118.265 Y108.484 E9.01111
G1 X118.07 Y108.983 E9.03784
G1 X117.803 Y109.448 E9.06459
G1 X117.47 Y109.869 E9.09137
G1 X117.077 Y110.234 E9.11813
G1 X116.635 Y110.538 E9.14489
G1 X116.153 Y110.773 E9.17165
G1 X115.641 Y110.933 E9.19841
G1 X115.112 Y111.016 E9.22512
G1 X114.824 Y111.027 E9.2395
G1 X85.193 Y111.026 E10.7178
G1 X84.658 Y110.986 E10.74456
G1 X84.135 Y110.867 E10.77132
G1 X83.636 Y110.672 E10.79805
G1 X83.171 Y110.404 E10.82483
G1 X82.751 Y110.071 E10.85157
G1 X82.385 Y109.679 E10.87833
G1 X82.081 Y109.237 E10.90509
G1 X81.847 Y108.754 E10.93187
G1 X81.687 Y108.243 E10.95858
G1 X81.604 Y107.713 E10.98534
G1 X81.593 Y107.429 E10.99952
G1 X81.577 Y88.285 E11.95462
G1 X81.616 Y87.75 E11.98138
G1 X81.735 Y87.227 E12.00814
G1 X81.93 Y86.728 E12.03487
G1 X82.197 Y86.262 E12.06167
G1 X82.53 Y85.842 E12.08841
G1 X82.922 Y85.476 E12.11516
G0 X83.311 Y85.683
G1 X83.743 Y85.421 E12.14037
G1 X84.212 Y85.231 E12.16562
G1 X84.704 Y85.117 E12.19081
G1 X85.177 Y85.082 E12.21447
G1 X114.82 Y85.082 E13.69337
G1 X115.324 Y85.122 E13.71859
G1 X115.815 Y85.241 E13.7438
G1 X116.282 Y85.435 E13.76903
G1 X116.712 Y85.701 E13.79425
G1 X117.095 Y86.031 E13.81948
G1 X117.421 Y86.418 E13.84472
G1 X117.682 Y86.851 E13.86994
G1 X117.872 Y87.319 E13.89514
G1 X117.985 Y87.812 E13.92038
G1 X118.02 Y88.281 E13.94384
G1 X118.024 Y107.426 E14.89899
G1 X117.984 Y107.93 E14.92421
G1 X117.865 Y108.422 E14.94947
G1 X117.671 Y108.888 E14.97465
G1 X117.405 Y109.318 E14.99988
G1 X117.075 Y109.701 E15.0251
G1 X116.689 Y110.028 E15.05034
G1 X116.256 Y110.289 E15.07556
G1 X115.787 Y110.479 E15.10081
G1 X115.295 Y110.592 E15.12599
G1 X114.824 Y110.627 E15.14955
G1 X85.193 Y110.626 E16.62785
G1 X84.689 Y110.586 E16.65307
G1 X84.197 Y110.467 E16.67833
G1 X83.731 Y110.272 E16.70353
G1 X83.301 Y110.007 E16.72873
G1 X82.918 Y109.676 E16.75398
G1 X82.592 Y109.29 E16.77919
G1 X82.331 Y108.857 E16.80441
G1 X82.141 Y108.389 E16.82961
G1 X82.028 Y107.896 E16.85485
G1 X81.993 Y107.429 E16.87821
G1 X81.977 Y88.285 E17.83331
G1 X82.017 Y87.781 E17.85853
G1 X82.135 Y87.289 E17.88378
G1 X82.329 Y86.822 E17.90901
G1 X82.595 Y86.392 E17.93423
G1 X82.925 Y86.009 E17.95945
G1 X83.311 Y85.683 E17.98466
G1 F1500 E11.48466
G0 F1200 X85.78 Y87.608
G0 X85.781 Y88.887
G0 X85.837 Y88.943
G0 X85.767 Y88.873
;TYPE:WALL-INNER
G1 F1500 E17.98466
G1 F1200 X114.232 Y88.872 E19.40478
G1 X114.233 Y106.637 E20.29108
G1 X114.233 Y106.837 E20.30106
G1 X114.033 Y106.837 E20.30752
G1 X85.767 Y106.836 E21.71772
G1 X85.767 Y88.873 E22.6139
G0 X85.367 Y88.473
;TYPE:WALL-OUTER
G1 X114.632 Y88.472 E24.07393
G1 X114.633 Y107.037 E25.00015
G1 X114.633 Y107.237 E25.01012
G1 X114.433 Y107.237 E25.01658
G1 X85.367 Y107.236 E26.46669
G1 X85.367 Y88.473 E27.40278
G0 X85.567 Y88.473
G0 X85.837 Y88.943
G0 X86.223 Y89.052
;TYPE:SKIN
G1 X103.827 Y106.655 E28.6448
G1 X103.897 Y106.725
G0 X103.261 Y106.655
G1 X85.946 Y89.34 E29.86647
G1 X85.876 Y89.27
G0 X85.946 Y89.906
G1 X102.695 Y106.655 E31.0482
G1 X102.765 Y106.725
G0 X102.13 Y106.655
G1 X85.946 Y90.472 E32.19004
G1 X85.876 Y90.402
G0 X85.946 Y91.037
G1 X101.564 Y106.655 E33.29197
G1 X101.634 Y106.725
G0 X100.998 Y106.655
G1 X85.946 Y91.603 E34.35397
G1 X85.876 Y91.533
G0 X85.946 Y92.169
G1 X100.433 Y106.655 E35.37607
G1 X100.503 Y106.725
G0 X99.867 Y106.655
G1 X85.946 Y92.734 E36.35827
G1 X85.876 Y92.664
G0 X85.946 Y93.3
G1 X99.301 Y106.655 E37.30054
G1 X99.371 Y106.725
G0 X98.736 Y106.655
G1 X85.946 Y93.866 E38.20291
G1 X85.876 Y93.796
G0 X85.946 Y94.431
G1 X98.17 Y106.655 E39.06538
G1 X98.24 Y106.725
G0 X97.604 Y106.655
G1 X85.946 Y94.997 E39.88791
G1 X85.876 Y94.927
G0 X85.946 Y95.563
G1 X97.039 Y106.655 E40.67055
G1 X97.109 Y106.725
G0 X96.473 Y106.655
G1 X85.946 Y96.129 E41.41325
G1 X85.876 Y96.059
G0 X85.946 Y96.694
G1 X95.907 Y106.655 E42.11605
G1 X95.977 Y106.725
G0 X95.342 Y106.655
G1 X85.946 Y97.26 E42.77896
G1 X85.876 Y97.19
G0 X85.946 Y97.826
G1 X94.775 Y106.655 E43.40189
G1 X94.845 Y106.725
G0 X94.209 Y106.655
G1 X85.946 Y98.391 E43.98492
G1 X85.876 Y98.321
G0 X85.946 Y98.957
G1 X93.644 Y106.655 E44.52806
G1 X93.714 Y106.725
G0 X93.078 Y106.655
G1 X85.946 Y99.523 E45.03126
G1 X85.876 Y99.453
G0 X85.946 Y100.088
G1 X92.512 Y106.655 E45.49456
G1 X92.582 Y106.725
G0 X91.947 Y106.655
G1 X85.946 Y100.654 E45.91797
G1 X85.876 Y100.584
G0 X85.946 Y101.22
G1 X91.381 Y106.655 E46.30144
G1 X91.451 Y106.725
G0 X90.815 Y106.655
G1 X85.946 Y101.785 E46.645
G1 X85.876 Y101.715
G0 X85.946 Y102.351
G1 X90.25 Y106.655 E46.94867
G1 X90.32 Y106.725
G0 X89.684 Y106.655
G1 X85.946 Y102.917 E47.21241
G1 X85.876 Y102.847
G0 X85.946 Y103.482
G1 X89.118 Y106.655 E47.43625
G1 X89.188 Y106.725
G0 X88.553 Y106.655
G1 X85.946 Y104.048 E47.62019
G1 X85.876 Y103.978
G0 X85.946 Y104.614
G1 X87.987 Y106.655 E47.76419
G1 X88.057 Y106.725
G0 X87.421 Y106.655
G1 X85.946 Y105.18 E47.86826
G1 X85.876 Y105.11
G0 X85.946 Y105.745
G1 X86.856 Y106.655 E47.93246
G1 X86.926 Y106.725
G0 X86.29 Y106.655
G1 X85.946 Y106.311 E47.95674
G0 X86.789 Y89.052
G1 X104.393 Y106.655 E49.19876
G1 X104.463 Y106.725
G0 X104.959 Y106.656
G1 X87.355 Y89.052 E50.44081
G1 X87.285 Y88.982
G0 X87.92 Y89.052
G1 X105.525 Y106.656 E51.68291
G1 X105.595 Y106.726
G0 X106.09 Y106.656
G1 X88.486 Y89.052 E52.92496
G1 X88.416 Y88.982
G0 X89.052 Y89.052
G1 X106.656 Y106.656 E54.16702
G1 X106.726 Y106.726
G0 X107.222 Y106.656
G1 X89.618 Y89.052 E55.40908
G1 X89.548 Y88.982
G0 X90.183 Y89.052
G1 X107.787 Y106.656 E56.65114
G1 X107.857 Y106.726
G0 X108.353 Y106.656
G1 X90.749 Y89.052 E57.89319
G1 X90.679 Y88.982
G0 X91.315 Y89.052
G1 X108.919 Y106.656 E59.13525
G1 X108.989 Y106.726
G0 X109.484 Y106.656
G1 X91.88 Y89.052 E60.37731
G1 X91.81 Y88.982
G0 X92.446 Y89.052
G1 X110.05 Y106.656 E61.61937
G1 X110.12 Y106.726
G0 X110.616 Y106.656
G1 X93.012 Y89.052 E62.86142
G1 X92.942 Y88.982
G0 X93.577 Y89.052
G1 X111.181 Y106.656 E64.10348
G1 X111.251 Y106.726
G0 X111.747 Y106.656
G1 X94.143 Y89.052 E65.34554
G1 X94.073 Y88.982
G0 X94.709 Y89.052
G1 X112.313 Y106.656 E66.58759
G1 X112.383 Y106.726
G0 X112.878 Y106.656
G1 X95.274 Y89.052 E67.82965
G1 X95.204 Y88.982
G0 X95.84 Y89.052
G1 X113.444 Y106.656 E69.07171
G1 X113.514 Y106.726
G0 X114.01 Y106.656
G1 X96.406 Y89.052 E70.31377
G1 X96.336 Y88.982
G0 X96.971 Y89.052
G1 X114.052 Y106.132 E71.51889
G1 X114.122 Y106.202
G0 X114.052 Y105.566
G1 X97.537 Y89.052 E72.68408
G1 X97.467 Y88.982
G0 X98.103 Y89.052
G1 X114.052 Y105.001 E73.80936
G1 X114.122 Y105.071
G0 X114.052 Y104.435
G1 X98.668 Y89.052 E74.89475
G1 X98.598 Y88.982
G0 X99.234 Y89.052
G1 X114.052 Y103.869 E75.94021
G1 X114.122 Y103.939
G0 X114.052 Y103.304
G1 X99.8 Y89.052 E76.94576
G1 X99.73 Y88.982
G0 X100.366 Y89.052
G1 X114.052 Y102.738 E77.91138
G1 X114.122 Y102.808
G0 X114.052 Y102.172
G1 X100.931 Y89.052 E78.83711
G1 X100.861 Y88.982
G0 X101.497 Y89.052
G1 X114.052 Y101.607 E79.72293
G1 X114.122 Y101.677
G0 X114.052 Y101.041
G1 X102.063 Y89.052 E80.56882
G1 X101.993 Y88.982
G0 X102.628 Y89.052
G1 X114.052 Y100.475 E81.37481
G1 X114.122 Y100.545
G0 X114.052 Y99.909
G1 X103.194 Y89.052 E82.14086
G1 X103.124 Y88.982
G0 X103.76 Y89.052
G1 X114.052 Y99.344 E82.86702
G1 X114.122 Y99.414
G0 X114.052 Y98.778
G1 X104.325 Y89.052 E83.55328
G1 X104.255 Y88.982
G0 X104.891 Y89.052
G1 X114.052 Y98.212 E84.1996
G1 X114.122 Y98.282
G0 X114.052 Y97.647
G1 X105.457 Y89.052 E84.80602
G1 X105.387 Y88.982
G0 X106.022 Y89.052
G1 X114.052 Y97.081 E85.37255
G1 X114.122 Y97.151
G0 X114.052 Y96.515
G1 X106.588 Y89.052 E85.89914
G1 X106.518 Y88.982
G0 X107.154 Y89.052
G1 X114.052 Y95.95 E86.38583
G1 X114.122 Y96.02
G0 X114.052 Y95.384
G1 X107.719 Y89.052 E86.83262
G1 X107.649 Y88.982
G0 X108.285 Y89.052
G1 X114.052 Y94.818 E87.23948
G1 X114.122 Y94.888
G0 X114.052 Y94.253
G1 X108.851 Y89.052 E87.60644
G1 X108.781 Y88.982
G0 X109.416 Y89.052
G1 X114.052 Y93.687 E87.9335
G1 X114.122 Y93.757
G0 X114.052 Y93.121
G1 X109.982 Y89.052 E88.22062
G1 X109.912 Y88.982
G0 X110.548 Y89.052
G1 X114.052 Y92.556 E88.46785
G1 X114.122 Y92.626
G0 X114.052 Y91.99
G1 X111.114 Y89.052 E88.67514
G1 X111.044 Y88.982
G0 X111.679 Y89.052
G1 X114.052 Y91.424 E88.84253
G1 X114.122 Y91.494
G0 X114.052 Y90.858
G1 X112.245 Y89.052 E88.96999
G1 X112.175 Y88.982
G0 X112.811 Y89.052
G1 X114.052 Y90.293 E89.05755
G1 X114.122 Y90.363
G0 X114.052 Y89.727
G1 X113.376 Y89.052 E89.10521
G1 X113.306 Y88.982
G0 X113.942 Y89.052
G1 X114.052 Y89.161 E89.11294
G0 X113.831 Y89.273
G0 X85.837 Y88.943
G0 X85.767 Y88.588
;TIME_ELAPSED:101.205009
;LAYER:1
M140 S50
M106 S255
G0 F4200 X85.767 Y88.588 Z0.5
;TYPE:WALL-INNER
G1 F1800 X114.232 Y88.588 E90.05969
G1 X114.233 Y106.968 E90.67101
G1 X114.233 Y107.168 E90.67766
G1 X114.033 Y107.168 E90.68197
G1 X85.767 Y107.167 E91.6221
G1 X85.767 Y88.588 E92.24004
G0 F4200 X85.367 Y88.188
;TYPE:WALL-OUTER
G1 F1200 X114.632 Y88.188 E93.21339
G1 X114.633 Y107.368 E93.85132
G1 X114.633 Y107.568 E93.85798
G1 X114.433 Y107.568 E93.86228
G1 X85.367 Y107.567 E94.82902
G1 X85.367 Y88.188 E95.47357
G0 F4200 X85.567 Y88.188
G0 X85.988 Y88.808
G1 F1200 X86.271 Y89.091 E95.49074
;TYPE:SKIN
G1 X86.665 Y88.697
G0 F4200 X87.16 Y88.767
G1 F1200 X85.947 Y89.98 E95.5478
G1 X85.877 Y90.05
G0 F4200 X85.947 Y90.546
G1 F1200 X87.726 Y88.767 E95.63148
G1 X87.796 Y88.697
G0 F4200 X88.292 Y88.767
G1 F1200 X85.947 Y91.112 E95.74178
G1 X85.877 Y91.182
G0 F4200 X85.947 Y91.677
G1 F1200 X88.857 Y88.767 E95.87866
G1 X88.927 Y88.697
G0 F4200 X89.423 Y88.767
G1 F1200 X85.947 Y92.243 E96.04216
G1 X85.877 Y92.313
G0 F4200 X85.947 Y92.809
G1 F1200 X89.989 Y88.767 E96.23228
G1 X90.059 Y88.697
G0 F4200 X90.554 Y88.767
G1 F1200 X85.947 Y93.374 E96.44898
G1 X85.877 Y93.444
G0 F4200 X85.947 Y93.94
G1 F1200 X91.12 Y88.767 E96.6923
G1 X91.19 Y88.697
G0 F4200 X91.686 Y88.767
G1 F1200 X85.947 Y94.506 E96.96225
G1 X85.877 Y94.576
G0 F4200 X85.947 Y95.071
G1 F1200 X92.251 Y88.767 E97.25877
G1 X92.321 Y88.697
G0 F4200 X92.817 Y88.767
G1 F1200 X85.947 Y95.637 E97.58191
G1 X85.877 Y95.707
G0 F4200 X85.947 Y96.203
G1 F1200 X93.383 Y88.767 E97.93168
G1 X93.453 Y88.697
G0 F4200 X93.949 Y88.767
G1 F1200 X85.947 Y96.768 E98.30804
G1 X85.877 Y96.838
G0 F4200 X85.947 Y97.334
G1 F1200 X94.514 Y88.767 E98.71101
G1 X94.584 Y88.697
G0 F4200 X95.08 Y88.767
G1 F1200 X85.947 Y97.9 E99.1406
G1 X85.877 Y97.97
G0 F4200 X85.947 Y98.466
G1 F1200 X95.646 Y88.767 E99.59681
G1 X95.716 Y88.697
G0 F4200 X96.211 Y88.767
G1 F1200 X85.947 Y99.031 E100.0796
G1 X85.877 Y99.101
G0 F4200 X85.947 Y99.597
G1 F1200 X96.777 Y88.767 E100.58901
G1 X96.847 Y88.697
G0 F4200 X97.343 Y88.767
G1 F1200 X85.947 Y100.163 E101.12504
G1 X85.877 Y100.233
G0 F4200 X85.947 Y100.728
G1 F1200 X97.908 Y88.767 E101.68765
G1 X97.978 Y88.697
G0 F4200 X98.474 Y88.767
G1 F1200 X85.947 Y101.294 E102.27688
G1 X85.877 Y101.364
G0 F4200 X85.947 Y101.86
G1 F1200 X99.04 Y88.767 E102.89273
G1 X99.11 Y88.697
G0 F4200 X99.605 Y88.767
G1 F1200 X85.947 Y102.425 E103.53516
G1 X85.877 Y102.495
G0 F4200 X85.947 Y102.991
G1 F1200 X100.171 Y88.767 E104.20422
G1 X100.241 Y88.697
G0 F4200 X100.737 Y88.767
G1 F1200 X85.947 Y103.557 E104.89989
G1 X85.877 Y103.627
G0 F4200 X85.947 Y104.122
G1 F1200 X101.302 Y88.767 E105.62215
G1 X101.372 Y88.697
G0 F4200 X101.868 Y88.767
G1 F1200 X85.947 Y104.688 E106.37102
G1 X85.877 Y104.758
G0 F4200 X85.947 Y105.254
G1 F1200 X102.434 Y88.767 E107.14652
G1 X102.504 Y88.697
G0 F4200 X103 Y88.767
G1 F1200 X85.947 Y105.819 E107.94862
G1 X85.877 Y105.889
G0 F4200 X85.947 Y106.385
G1 F1200 X103.565 Y88.767 E108.77731
G1 X103.635 Y88.697
G0 F4200 X104.131 Y88.767
G1 F1200 X85.947 Y106.951 E109.63263
G1 X85.877 Y107.021
G0 F4200 X86.477 Y106.986
G1 F1200 X104.697 Y88.767 E110.48962
G1 X104.767 Y88.697
G0 F4200 X105.262 Y88.767
G1 F1200 X87.043 Y106.986 E111.34659
G1 X86.973 Y107.056
G0 F4200 X87.609 Y106.986
G1 F1200 X105.828 Y88.767 E112.20355
G1 X105.898 Y88.697
G0 F4200 X106.394 Y88.767
G1 F1200 X88.174 Y106.986 E113.06054
G1 X88.104 Y107.056
G0 F4200 X88.74 Y106.986
G1 F1200 X106.959 Y88.767 E113.91751
G1 X107.029 Y88.697
G0 F4200 X107.525 Y88.767
G1 F1200 X89.306 Y106.986 E114.77447
G1 X89.236 Y107.056
G0 F4200 X89.871 Y106.986
G1 F1200 X108.091 Y88.767 E115.63146
G1 X108.161 Y88.697
G0 F4200 X108.656 Y88.767
G1 F1200 X90.437 Y106.986 E116.48843
G1 X90.367 Y107.056
G0 F4200 X91.003 Y106.986
G1 F1200 X109.222 Y88.767 E117.3454
G1 X109.292 Y88.697
G0 F4200 X109.788 Y88.767
G1 F1200 X91.568 Y106.986 E118.20238
G1 X91.498 Y107.056
G0 F4200 X92.134 Y106.986
G1 F1200 X110.353 Y88.767 E119.05935
G1 X110.423 Y88.697
G0 F4200 X110.919 Y88.767
G1 F1200 X92.7 Y106.986 E119.91632
G1 X92.63 Y107.056
G0 F4200 X93.265 Y106.986
G1 F1200 X111.485 Y88.767 E120.77331
G1 X111.555 Y88.697
G0 F4200 X112.05 Y88.767
G1 F1200 X93.831 Y106.986 E121.63027
G1 X93.761 Y107.056
G0 F4200 X94.397 Y106.986
G1 F1200 X112.616 Y88.767 E122.48724
G1 X112.686 Y88.697
G0 F4200 X113.182 Y88.767
G1 F1200 X94.963 Y106.986 E123.3442
G1 X94.893 Y107.056
G0 F4200 X95.528 Y106.987
G1 F1200 X113.748 Y88.767 E124.20122
G1 X113.818 Y88.697
G0 F4200 X114.051 Y89.029
G1 F1200 X96.093 Y106.987 E125.04591
G1 X96.023 Y107.057
G0 F4200 X96.659 Y106.987
G1 F1200 X114.051 Y89.595 E125.86397
G1 X114.121 Y89.525
G0 F4200 X114.051 Y90.161
G1 F1200 X97.225 Y106.987 E126.65542
G1 X97.155 Y107.057
G0 F4200 X97.79 Y106.987
G1 F1200 X114.051 Y90.726 E127.42028
G1 X114.121 Y90.656
G0 F4200 X114.051 Y91.292
G1 F1200 X98.356 Y106.987 E128.15853
G1 X98.286 Y107.057
G0 F4200 X98.922 Y106.987
G1 F1200 X114.051 Y91.858 E128.87015
G1 X114.121 Y91.788
G0 F4200 X114.051 Y92.423
G1 F1200 X99.487 Y106.987 E129.5552
G1 X99.417 Y107.057
G0 F4200 X100.053 Y106.987
G1 F1200 X114.051 Y92.989 E130.21362
G1 X114.121 Y92.919
G0 F4200 X114.051 Y93.555
G1 F1200 X100.619 Y106.987 E130.84542
G1 X100.549 Y107.057
G0 F4200 X101.184 Y106.987
G1 F1200 X114.051 Y94.12 E131.45064
