;FLAVOR:RepRap
;TIME:12475
;Filament used: 7.02335m
;Layer height: 0.2
;Generated with Cura_SteamEngine 2.6.0
M190 S70
M104 S205
M109 S205
G28 ;Home
G1 Z15.0 F6000 ;Move the platform down 15mm
;Prime the extruder
G92 E0
G1 F200 E3
G92 E0
;LAYER_COUNT:111
;LAYER:0
M107
G0 F600 X8.366 Y67.513 Z0.3
G0 X8.836 Y67.478
;TYPE:SKIRT
G1 F300 X71.348 Y67.484 E3.11874
G1 X71.915 Y67.535 E3.14714
G1 X72.598 Y67.658 E3.18176
G1 X73.125 Y67.8 E3.20899
G1 X73.944 Y68.098 E3.25247
G1 X73.95 Y68.1 E3.25279
G1 X75.573 Y68.694 E3.33901
G1 X80.818 Y70.39 E3.61403
G1 X86.143 Y71.785 E3.88866
G1 X88.809 Y72.366 E4.02479
G1 X91.478 Y72.864 E4.16024
G1 X96.895 Y73.644 E4.43328
G1 X102.349 Y74.117 E4.70641
G1 X107.834 Y74.281 E4.98018
G1 X113.303 Y74.135 E5.25312
G1 X118.755 Y73.681 E5.52607
G1 X124.19 Y72.916 E5.79989
G1 X129.574 Y71.845 E6.07376
G1 X132.163 Y71.216 E6.20669
G1 X137.465 Y69.685 E6.48201
G1 X142.638 Y67.867 E6.75557
G1 X147.679 Y65.768 E7.02799
G1 X154.262 Y62.518 E7.39427
G1 X154.732 Y62.33 E7.41952
G1 X155.225 Y62.219 E7.44473
G1 X155.695 Y62.187 E7.46824
G1 X156.491 Y62.191 E7.50795
G1 X156.995 Y62.234 E7.53318
G1 X157.486 Y62.355 E7.55841
G1 X157.991 Y62.573 E7.58586
G1 X162.389 Y64.939 E7.83501
G1 X164.832 Y66.132 E7.97065
G1 X169.842 Y68.321 E8.24341
G1 X174.998 Y70.233 E8.51776
G1 X180.728 Y71.991 E8.81679
G1 X181.199 Y72.177 E8.84205
G1 X181.634 Y72.434 E8.86726
G1 X182.053 Y72.787 E8.89459
G1 X182.603 Y73.337 E8.9334
G1 X182.931 Y73.722 E8.95863
G1 X183.194 Y74.153 E8.98382
G1 X183.404 Y74.677 E9.01198
G1 X184.887 Y79.601 E9.26854
G1 X186.759 Y84.78 E9.54329
G1 X187.768 Y87.24 E9.67594
G1 X190.081 Y92.262 E9.95178
G1 X192.822 Y97.415 E10.24298
G1 X193.024 Y97.879 E10.26822
G1 X193.15 Y98.369 E10.29346
G1 X193.197 Y98.922 E10.32115
G1 X193.196 Y99.708 E10.36037
G1 X193.155 Y100.212 E10.3856
G1 X193.036 Y100.703 E10.4108
G1 X192.815 Y101.218 E10.43876
G1 X190.382 Y105.75 E10.69538
G1 X188.052 Y110.72 E10.96923
G1 X187.024 Y113.172 E11.10188
G1 X185.103 Y118.376 E11.37863
G1 X183.378 Y123.981 E11.67121
G1 X183.192 Y124.451 E11.69643
G1 X182.934 Y124.886 E11.72166
G1 X182.583 Y125.303 E11.74886
G1 X182.048 Y125.838 E11.7866
G1 X181.663 Y126.166 E11.81184
G1 X181.232 Y126.429 E11.83703
G1 X180.706 Y126.64 E11.8653
G1 X175.864 Y128.095 E12.11754
G1 X170.696 Y129.958 E12.39161
G1 X168.219 Y130.972 E12.52515
G1 X163.218 Y133.269 E12.79971
G1 X157.97 Y136.059 E13.09623
G1 X157.506 Y136.26 E13.12146
G1 X157.016 Y136.386 E13.1467
G1 X156.456 Y136.433 E13.17474
G1 X155.665 Y136.43 E13.2142
G1 X155.161 Y136.388 E13.23943
G1 X154.613 Y136.248 E13.26765
G1 X152.276 Y135.424 E13.39128
G1 X147.044 Y133.814 E13.66438
G1 X141.661 Y132.484 E13.94102
G1 X139.071 Y131.963 E14.07282
G1 X133.619 Y131.099 E14.34822
G1 X128.176 Y130.55 E14.62115
G1 X122.71 Y130.309 E14.89411
G1 X117.222 Y130.379 E15.16793
G1 X111.783 Y130.755 E15.43993
G1 X106.333 Y131.444 E15.714
G1 X100.925 Y132.441 E15.98835
G1 X98.307 Y133.041 E16.12235
G1 X95.652 Y133.726 E16.25915
G1 X90.414 Y135.319 E16.53229
G1 X85.249 Y137.217 E16.80682
G1 X79.26 Y139.839 E17.13299
G1 X79.121 Y139.896 E17.14049
G1 X73.076 Y142.211 E17.46343
G1 X72.591 Y142.354 E17.48866
G1 X72.203 Y142.412 E17.50823
G1 X70.932 Y142.52 E17.57187
G1 X70.66 Y142.531 E17.58545
G1 X8.834 Y142.521 E20.66996
G1 X8.33 Y142.481 E20.69519
G1 X7.839 Y142.362 E20.72039
G1 X7.373 Y142.167 E20.74559
G1 X6.943 Y141.901 E20.77082
G1 X6.56 Y141.571 E20.79604
G1 X6.234 Y141.185 E20.82125
G1 X5.973 Y140.752 E20.84647
G1 X5.783 Y140.283 E20.87172
G1 X5.67 Y139.79 E20.89695
G1 X5.635 Y139.321 E20.92042
G1 X5.636 Y70.678 E24.34503
G1 X5.676 Y70.174 E24.37025
G1 X5.795 Y69.683 E24.39546
G1 X5.99 Y69.216 E24.42071
G1 X6.255 Y68.786 E24.44591
G1 X6.585 Y68.403 E24.47113
G1 X6.972 Y68.077 E24.49637
G1 X7.405 Y67.816 E24.5216
G1 X7.873 Y67.626 E24.5468
G1 X8.366 Y67.513 E24.57203
G1 X8.836 Y67.478 E24.59554
G1 F1500 E22.84554
G0 F600 X9.44 Y70.004
G0 X9.44 Y71.283
G0 X9.496 Y71.339
G0 X9.426 Y71.269
;TYPE:WALL-INNER
G1 F1500 E24.59554
G1 F300 X52.459 Y71.269 E26.74247
G1 X52.778 Y71.269 E26.75838
G1 X53.104 Y71.27 E26.77465
G1 X53.447 Y71.271 E26.79176
G1 X53.794 Y71.272 E26.80907
G1 X53.447 Y71.324
G1 X53.104 Y71.41
G1 X52.778 Y71.529 E26.81613
G1 X52.489 Y71.662 E26.82928
G1 X52.459 Y71.676 E26.83093
G1 X52.157 Y71.858 E26.84852
G1 X51.876 Y72.066 E26.86597
G1 X51.614 Y72.303 E26.88359
G1 X51.38 Y72.564 E26.90108
G1 X51.172 Y72.842 E26.9184
G1 X50.989 Y73.146 E26.9361
G1 X50.841 Y73.463 E26.95356
G1 X50.722 Y73.793 E26.97106
G1 X50.638 Y74.134 E26.98858
G1 X50.585 Y74.479 E27.006
G1 X50.569 Y74.831 E27.02357
G1 X50.585 Y75.181 E27.04105
G1 X50.637 Y75.529 E27.05861
G1 X50.723 Y75.869 E27.07611
G1 X50.841 Y76.197 E27.0935
G1 X50.989 Y76.516 E27.11104
G1 X51.171 Y76.818 E27.12863
G1 X51.379 Y77.099 E27.14607
G1 X51.616 Y77.359 E27.16363
G1 X51.876 Y77.596 E27.18118
G1 X52.157 Y77.804 E27.19862
G1 X52.459 Y77.986 E27.21621
G1 X52.778 Y78.134 E27.23376
G1 X53.106 Y78.252 E27.25115
G1 X53.446 Y78.338 E27.26864
G1 X53.794 Y78.39 E27.2862
G1 X54.144 Y78.406 E27.30368
G1 X54.495 Y78.39 E27.32121
G1 X54.84 Y78.337 E27.33862
G1 X55.182 Y78.254 E27.35618
G1 X55.512 Y78.134 E27.3737
G1 X55.829 Y77.986 E27.39115
G1 X56.133 Y77.803 E27.40885
G1 X56.411 Y77.595 E27.42618
G1 X56.672 Y77.361 E27.44366
G1 X56.909 Y77.099 E27.46129
G1 X57.117 Y76.818 E27.47873
G1 X57.299 Y76.516 E27.49632
G1 X57.446 Y76.197 E27.51385
G1 X57.565 Y75.871 E27.53116
G1 X57.651 Y75.528 E27.5488
G1 X57.703 Y75.18 E27.56636
G1 X57.718 Y74.83 E27.58383
G1 X57.702 Y74.483 E27.60117
G1 X57.651 Y74.134 E27.61876
G1 X57.566 Y73.792 E27.63634
G1 X57.447 Y73.462 E27.65384
G1 X57.298 Y73.147 E27.67123
G1 X57.118 Y72.845 E27.68877
G1 X56.909 Y72.563 E27.70628
G1 X56.673 Y72.302 E27.72384
G1 X56.411 Y72.065 E27.74146
G1 X56.13 Y71.859 E27.75885
G1 X55.831 Y71.677 E27.77631
G1 X55.807 Y71.665 E27.77765
G1 X55.512 Y71.528 E27.79387
G1 X55.182 Y71.409 E27.81138
G1 X54.84 Y71.324 E27.82896
G1 X54.493 Y71.273 E27.84646
G1 X54.84 Y71.273
G1 X55.182 Y71.273
G1 X55.511 Y71.273 E27.85
G1 X55.837 Y71.273 E27.86339
G1 X71.213 Y71.269 E28.6305
G1 X71.545 Y71.296 E28.64712
G1 X71.855 Y71.37 E28.66302
G1 X77.733 Y73.628 E28.97717
G1 X83.343 Y76.495 E29.29149
G1 X88.632 Y79.939 E29.60637
G1 X93.516 Y83.907 E29.92031
G1 X97.964 Y88.37 E30.23467
G1 X101.923 Y93.281 E30.54938
G1 X105.348 Y98.583 E30.86429
G1 X108.191 Y104.198 E31.17829
G1 X108.266 Y104.397 E31.1889
G1 X108.314 Y104.577 E31.19819
G1 X108.348 Y104.791 E31.209
G1 X108.358 Y105 E31.21944
G1 X108.348 Y105.207 E31.22978
G1 X108.314 Y105.415 E31.24029
G1 X108.263 Y105.611 E31.2504
G1 X108.192 Y105.794 E31.26019
G1 X106.036 Y110.063 E31.49879
G1 X105.317 Y111.471 E31.57767
G1 X101.895 Y116.757 E31.89182
G1 X97.937 Y121.659 E32.20615
G1 X93.498 Y126.11 E32.51977
G1 X88.607 Y130.079 E32.83402
G1 X83.33 Y133.513 E33.14813
G1 X77.727 Y136.372 E33.46195
G1 X71.857 Y138.63 E33.77572
G1 X71.542 Y138.705 E33.79188
G1 X71.214 Y138.731 E33.80829
G1 X55.834 Y138.731 E34.57561
G1 X55.512 Y138.731 E34.59167
G1 X55.182 Y138.731 E34.60813
G1 X54.84 Y138.731 E34.6252
G1 X54.473 Y138.731 E34.64351
G1 X54.84 Y138.677
G1 X55.182 Y138.594
G1 X55.512 Y138.474 E34.6505
G1 X55.804 Y138.338 E34.66377
G1 X55.829 Y138.326 E34.66516
G1 X56.133 Y138.143 E34.68286
G1 X56.411 Y137.935 E34.70018
G1 X56.672 Y137.701 E34.71767
G1 X56.909 Y137.439 E34.73529
G1 X57.117 Y137.158 E34.75274
G1 X57.299 Y136.856 E34.77033
G1 X57.446 Y136.537 E34.78785
G1 X57.565 Y136.212 E34.80512
G1 X57.651 Y135.869 E34.82276
G1 X57.703 Y135.521 E34.84032
G1 X57.718 Y135.17 E34.85784
G1 X57.702 Y134.823 E34.87517
G1 X57.651 Y134.475 E34.89272
G1 X57.566 Y134.134 E34.91025
G1 X57.447 Y133.802 E34.92785
G1 X57.298 Y133.487 E34.94523
G1 X57.118 Y133.185 E34.96277
G1 X56.909 Y132.903 E34.98029
G1 X56.673 Y132.642 E34.99784
G1 X56.411 Y132.405 E35.01547
G1 X56.13 Y132.199 E35.03285
G1 X55.831 Y132.017 E35.05031
G1 X55.512 Y131.868 E35.06788
G1 X55.182 Y131.749 E35.08538
G1 X54.84 Y131.664 E35.10296
G1 X54.493 Y131.613 E35.12046
G1 X54.145 Y131.596 E35.13784
G1 X53.794 Y131.612 E35.15537
G1 X53.447 Y131.664 E35.17288
G1 X53.104 Y131.75 E35.19052
G1 X52.778 Y131.869 E35.20783
G1 X52.459 Y132.016 E35.22536
G1 X52.157 Y132.198 E35.24295
G1 X51.876 Y132.406 E35.26039
G1 X51.614 Y132.643 E35.27801
G1 X51.38 Y132.904 E35.2955
G1 X51.172 Y133.182 E35.31282
G1 X50.989 Y133.486 E35.33053
G1 X50.841 Y133.804 E35.34803
G1 X50.722 Y134.134 E35.36553
G1 X50.638 Y134.475 E35.38305
G1 X50.585 Y134.82 E35.40046
G1 X50.569 Y135.171 E35.41799
G1 X50.585 Y135.522 E35.43552
G1 X50.637 Y135.871 E35.45313
G1 X50.724 Y136.209 E35.47054
G1 X50.84 Y136.537 E35.4879
G1 X50.989 Y136.856 E35.50546
G1 X51.171 Y137.158 E35.52305
G1 X51.379 Y137.439 E35.54049
G1 X51.616 Y137.699 E35.55805
G1 X51.876 Y137.936 E35.5756
G1 X52.157 Y138.144 E35.59304
G1 X52.459 Y138.326 E35.61063
G1 X52.484 Y138.338 E35.61202
G1 X52.778 Y138.474 E35.62818
G1 X53.106 Y138.592 E35.64557
G1 X53.446 Y138.678 E35.66306
G1 X53.816 Y138.731 E35.68171
G1 X53.446 Y138.731
G1 X53.106 Y138.731
G1 X52.778 Y138.731 E35.68443
G1 X52.454 Y138.731 E35.69778
G1 X9.426 Y138.731 E37.84445
G1 X9.426 Y71.269 E41.21015
G0 F600 X9.496 Y71.339
G0 X16.461 Y91.198
G0 X16.489 Y91.293
G1 F300 X16.084 Y91.438 E41.23161
G1 X15.695 Y91.622 E41.25308
G1 X15.33 Y91.843 E41.27436
G1 X14.986 Y92.097 E41.2957
G1 X14.667 Y92.385 E41.31714
G1 X14.379 Y92.703 E41.33854
G1 X14.123 Y93.048 E41.35998
G1 X13.904 Y93.417 E41.38138
G1 X13.72 Y93.802 E41.40267
G1 X13.575 Y94.207 E41.42413
G1 X13.471 Y94.623 E41.44553
G1 X13.408 Y95.048 E41.46696
G1 X13.389 Y95.461 E41.48759
G1 X13.388 Y114.54 E42.43944
G1 X13.41 Y114.951 E42.45998
G1 X13.471 Y115.376 E42.4814
G1 X13.575 Y115.793 E42.50284
G1 X13.72 Y116.198 E42.5243
G1 X13.904 Y116.587 E42.54577
G1 X14.125 Y116.952 E42.56706
G1 X14.379 Y117.296 E42.58839
G1 X14.667 Y117.615 E42.60983
G1 X14.985 Y117.903 E42.63124
G1 X15.33 Y118.159 E42.65267
G1 X15.699 Y118.378 E42.67408
G1 X16.084 Y118.562 E42.69537
G1 X16.489 Y118.707 E42.71683
G1 X16.905 Y118.81 E42.73821
G1 X17.329 Y118.874 E42.7596
G1 X17.743 Y118.893 E42.78028
G1 X91.748 Y118.894 E46.4724
G1 X92.161 Y118.872 E46.49304
G1 X92.584 Y118.81 E46.51437
G1 X93.001 Y118.707 E46.5358
G1 X93.406 Y118.562 E46.55726
G1 X93.794 Y118.378 E46.57868
G1 X94.159 Y118.157 E46.59997
G1 X94.503 Y117.903 E46.6213
G1 X94.822 Y117.615 E46.64274
G1 X95.111 Y117.297 E46.66418
G1 X95.366 Y116.952 E46.68559
G1 X95.586 Y116.583 E46.70702
G1 X95.769 Y116.198 E46.72829
G1 X95.914 Y115.793 E46.74975
G1 X96.018 Y115.377 E46.77114
G1 X96.081 Y114.952 E46.79258
G1 X96.1 Y114.539 E46.8132
G1 X96.101 Y95.46 E47.76506
G1 X96.079 Y95.049 E47.78559
G1 X96.018 Y94.624 E47.80701
G1 X95.914 Y94.207 E47.82845
G1 X95.769 Y93.804 E47.84982
G1 X95.587 Y93.414 E47.87129
G1 X95.364 Y93.048 E47.89268
G1 X95.111 Y92.704 E47.91398
G1 X94.822 Y92.385 E47.93545
G1 X94.504 Y92.097 E47.95686
G1 X94.159 Y91.841 E47.97829
G1 X93.791 Y91.622 E47.99966
G1 X93.406 Y91.438 E48.02094
G1 X93.001 Y91.293 E48.04241
G1 X92.585 Y91.19 E48.06379
G1 X92.161 Y91.126 E48.08518
G1 X91.747 Y91.107 E48.10586
G1 X17.664 Y91.11 E51.80187
G1 X17.329 Y91.128 E51.81861
G1 X16.906 Y91.19 E51.83994
G1 X16.489 Y91.293 E51.86137
G0 F600 X16.605 Y91.676
;TYPE:WALL-OUTER
G1 F300 X16.238 Y91.808 E51.88083
G1 X15.885 Y91.975 E51.90031
G1 X15.553 Y92.176 E51.91967
G1 X15.239 Y92.407 E51.93912
G1 X14.95 Y92.668 E51.95855
G1 X14.689 Y92.957 E51.97798
G1 X14.456 Y93.27 E51.99744
G1 X14.257 Y93.605 E52.01688
G1 X14.09 Y93.956 E52.03627
G1 X13.958 Y94.323 E52.05573
G1 X13.864 Y94.701 E52.07517
G1 X13.807 Y95.087 E52.09463
G1 X13.789 Y95.47 E52.11376
G1 X13.788 Y114.53 E53.06467
G1 X13.808 Y114.912 E53.08375
G1 X13.864 Y115.299 E53.10326
G1 X13.958 Y115.677 E53.12269
G1 X14.09 Y116.044 E53.14215
G1 X14.257 Y116.397 E53.16163
G1 X14.458 Y116.729 E53.181
G1 X14.689 Y117.043 E53.20045
G1 X14.95 Y117.332 E53.21987
G1 X15.239 Y117.593 E53.2393
G1 X15.552 Y117.826 E53.25877
G1 X15.887 Y118.025 E53.27821
G1 X16.238 Y118.192 E53.2976
G1 X16.605 Y118.324 E53.31706
G1 X16.983 Y118.417 E53.33648
G1 X17.368 Y118.475 E53.3559
G1 X17.752 Y118.493 E53.37508
G1 X91.738 Y118.494 E57.06626
G1 X92.121 Y118.474 E57.08539
G1 X92.507 Y118.417 E57.10486
G1 X92.885 Y118.324 E57.12428
G1 X93.252 Y118.192 E57.14374
G1 X93.604 Y118.025 E57.16318
G1 X93.936 Y117.824 E57.18254
G1 X94.25 Y117.593 E57.20199
G1 X94.539 Y117.332 E57.22141
G1 X94.801 Y117.043 E57.24088
G1 X95.033 Y116.73 E57.26031
G1 X95.233 Y116.395 E57.27978
G1 X95.399 Y116.044 E57.29915
G1 X95.531 Y115.677 E57.31861
G1 X95.625 Y115.299 E57.33804
G1 X95.682 Y114.913 E57.35751
G1 X95.7 Y114.53 E57.37664
G1 X95.701 Y95.47 E58.32754
G1 X95.681 Y95.088 E58.34663
G1 X95.625 Y94.701 E58.36614
G1 X95.531 Y94.323 E58.38557
G1 X95.399 Y93.957 E58.40498
G1 X95.234 Y93.603 E58.42447
G1 X95.031 Y93.271 E58.44388
G1 X94.801 Y92.957 E58.4633
G1 X94.539 Y92.668 E58.48276
G1 X94.25 Y92.407 E58.50219
G1 X93.937 Y92.174 E58.52165
G1 X93.602 Y91.975 E58.54109
G1 X93.252 Y91.808 E58.56044
G1 X92.885 Y91.676 E58.5799
G1 X92.507 Y91.583 E58.59932
G1 X92.122 Y91.525 E58.61875
G1 X91.738 Y91.507 E58.63792
G1 X17.674 Y91.51 E62.33299
G1 X17.369 Y91.526 E62.34823
G1 X16.983 Y91.583 E62.3677
G1 X16.605 Y91.676 E62.38712
G0 F600 X16.417 Y91.743
G0 X16.25 Y91.272
G0 X9.496 Y71.339
G0 X9.026 Y70.869
G1 F300 X71.232 Y70.869 E65.49059
G1 X71.608 Y70.899 E65.50941
G1 X71.969 Y70.986 E65.52793
G1 X77.899 Y73.264 E65.84486
G1 X83.542 Y76.148 E66.16103
G1 X88.866 Y79.615 E66.478
G1 X93.784 Y83.61 E66.79411
G1 X98.263 Y88.104 E67.11065
G1 X102.249 Y93.049 E67.42753
G1 X105.697 Y98.386 E67.74453
G1 X108.555 Y104.032 E68.06024
G1 X108.646 Y104.273 E68.07309
G1 X108.706 Y104.498 E68.08471
G1 X108.747 Y104.754 E68.09765
G1 X108.759 Y105 E68.10993
G1 X108.747 Y105.246 E68.12222
G1 X108.706 Y105.499 E68.13501
G1 X108.646 Y105.727 E68.14677
G1 X108.557 Y105.959 E68.15917
G1 X106.392 Y110.245 E68.39873
G1 X105.663 Y111.672 E68.47867
G1 X102.221 Y116.989 E68.79467
G1 X98.236 Y121.925 E69.11117
G1 X93.761 Y126.412 E69.42733
G1 X88.847 Y130.399 E69.74303
G1 X83.529 Y133.86 E70.05959
G1 X77.89 Y136.738 E70.37544
G1 X71.975 Y139.013 E70.69162
G1 X71.603 Y139.102 E70.7107
G1 X71.232 Y139.131 E70.72926
G1 X9.026 Y139.131 E73.83273
G1 X9.026 Y70.869 E77.23834
G0 F600 X9.226 Y70.869
G0 X9.496 Y71.339
G0 X50.485 Y74.496
G0 X50.984 Y74.519
G1 F300 X50.969 Y74.831 E77.25392
G1 X50.984 Y75.142 E77.26946
G1 X51.03 Y75.45 E77.28499
G1 X51.106 Y75.752 E77.30053
G1 X51.211 Y76.045 E77.31606
G1 X51.343 Y76.328 E77.33164
G1 X51.504 Y76.595 E77.34719
G1 X51.689 Y76.845 E77.36271
G1 X51.899 Y77.076 E77.37828
G1 X52.13 Y77.286 E77.39386
G1 X52.38 Y77.471 E77.40938
G1 X52.647 Y77.632 E77.42493
G1 X52.93 Y77.764 E77.44051
G1 X53.223 Y77.869 E77.45604
G1 X53.525 Y77.945 E77.47157
G1 X53.833 Y77.991 E77.48711
G1 X54.144 Y78.006 E77.50264
G1 X54.455 Y77.991 E77.51818
G1 X54.762 Y77.944 E77.53367
G1 X55.066 Y77.87 E77.54928
G1 X55.359 Y77.764 E77.56483
G1 X55.641 Y77.632 E77.58036
G1 X55.909 Y77.471 E77.59596
G1 X56.157 Y77.285 E77.61143
G1 X56.389 Y77.077 E77.62697
G1 X56.599 Y76.845 E77.64258
G1 X56.784 Y76.595 E77.6581
G1 X56.945 Y76.328 E77.67365
G1 X57.076 Y76.044 E77.68926
G1 X57.182 Y75.754 E77.70466
G1 X57.258 Y75.45 E77.7203
G1 X57.304 Y75.141 E77.73588
G1 X57.318 Y74.831 E77.75136
G1 X57.303 Y74.521 E77.76685
G1 X57.258 Y74.211 E77.78248
G1 X57.183 Y73.909 E77.798
G1 X57.077 Y73.616 E77.81354
G1 X56.944 Y73.335 E77.82906
G1 X56.785 Y73.067 E77.8446
G1 X56.599 Y72.817 E77.86015
G1 X56.39 Y72.585 E77.87573
G1 X56.158 Y72.376 E77.8913
G1 X55.907 Y72.192 E77.90683
G1 X55.642 Y72.03 E77.92233
G1 X55.359 Y71.898 E77.93791
G1 X55.066 Y71.792 E77.95345
G1 X54.763 Y71.717 E77.96902
G1 X54.454 Y71.672 E77.9846
G1 X54.144 Y71.656 E78.00009
G1 X53.833 Y71.671 E78.01562
G1 X53.525 Y71.717 E78.03116
G1 X53.221 Y71.793 E78.04679
G1 X52.931 Y71.899 E78.0622
G1 X52.647 Y72.03 E78.0778
G1 X52.38 Y72.191 E78.09336
G1 X52.13 Y72.376 E78.10887
G1 X51.898 Y72.586 E78.12448
G1 X51.69 Y72.818 E78.14003
