;FLAVOR:RepRap
;TIME:1376
;Filament used: 1.29464m
;Layer height: 0.2
;Generated with Cura_SteamEngine 2.6.0
M190 S55
M104 S195
M109 S195
G28 ;Home
G1 Z15.0 F6000 ;Move the platform down 15mm
;Prime the extruder
G92 E0
G1 F200 E3
G92 E0
;LAYER_COUNT:100
;LAYER:0
M107
G0 F2400 X87.365 Y87.007 Z0.3
;TYPE:SKIRT
G1 F1200 X87.815 Y86.665 E0.0282
G1 X88.308 Y86.389 E0.05639
G1 X88.836 Y86.185 E0.08463
G1 X89.386 Y86.058 E0.11279
G1 X90.009 Y86.009 E0.14397
G1 X109.991 Y86.01 E1.14087
G1 X110.555 Y86.05 E1.16908
G1 X111.108 Y86.169 E1.1973
G1 X111.638 Y86.365 E1.22549
G1 X112.136 Y86.633 E1.25371
G1 X112.59 Y86.97 E1.28192
G1 X112.993 Y87.366 E1.3101
G1 X113.336 Y87.816 E1.33833
G1 X113.611 Y88.309 E1.3665
G1 X113.815 Y88.837 E1.39474
G1 X113.942 Y89.388 E1.42295
G1 X113.991 Y90.01 E1.45407
G1 X113.991 Y109.991 E2.45093
G1 X113.951 Y110.555 E2.47914
G1 X113.832 Y111.108 E2.50736
G1 X113.636 Y111.638 E2.53555
G1 X113.368 Y112.135 E2.56372
G1 X113.032 Y112.59 E2.59194
G1 X112.635 Y112.993 E2.62016
G1 X112.185 Y113.335 E2.64836
G1 X111.692 Y113.611 E2.67655
G1 X111.164 Y113.815 E2.70479
G1 X110.614 Y113.942 E2.73295
G1 X109.991 Y113.991 E2.76413
G1 X90.009 Y113.991 E3.76104
G1 X89.445 Y113.951 E3.78924
G1 X88.892 Y113.832 E3.81747
G1 X88.362 Y113.636 E3.84566
G1 X87.865 Y113.368 E3.87383
G1 X87.41 Y113.032 E3.90205
G1 X87.007 Y112.635 E3.93027
G1 X86.665 Y112.185 E3.95847
G1 X86.389 Y111.692 E3.98666
G1 X86.185 Y111.164 E4.0149
G1 X86.058 Y110.614 E4.04306
G1 X86.009 Y109.991 E4.07424
G1 X86.009 Y90.009 E5.07114
G1 X86.049 Y89.445 E5.09935
G1 X86.168 Y88.892 E5.12757
G1 X86.364 Y88.362 E5.15576
G1 X86.632 Y87.865 E5.18393
G1 X86.968 Y87.41 E5.21215
G1 X87.365 Y87.007 E5.24037
G0 F2400 X87.756 Y87.201
G1 F1200 X88.198 Y86.898 E5.26711
G1 X88.681 Y86.663 E5.29391
G1 X89.192 Y86.503 E5.32062
G1 X89.722 Y86.42 E5.34739
G1 X90.009 Y86.409 E5.36172
G1 X109.991 Y86.41 E6.35862
G1 X110.526 Y86.45 E6.38539
G1 X111.049 Y86.569 E6.41215
G1 X111.548 Y86.764 E6.43888
G1 X112.013 Y87.032 E6.46565
G1 X112.433 Y87.365 E6.49239
G1 X112.799 Y87.757 E6.51915
G1 X113.103 Y88.199 E6.54591
G1 X113.337 Y88.682 E6.57269
G1 X113.497 Y89.194 E6.59945
G1 X113.58 Y89.723 E6.62617
G1 X113.591 Y90.01 E6.64049
G1 X113.591 Y109.991 E7.63735
G1 X113.551 Y110.526 E7.66412
G1 X113.432 Y111.049 E7.69088
G1 X113.237 Y111.548 E7.7176
G1 X112.969 Y112.013 E7.74438
G1 X112.636 Y112.433 E7.77112
G1 X112.244 Y112.799 E7.79788
G1 X111.802 Y113.102 E7.82461
G1 X111.319 Y113.337 E7.85141
G1 X110.808 Y113.497 E7.87812
G1 X110.278 Y113.58 E7.90489
G1 X109.991 Y113.591 E7.91922
G1 X90.009 Y113.591 E8.91612
G1 X89.474 Y113.551 E8.94289
G1 X88.951 Y113.432 E8.96965
G1 X88.452 Y113.237 E8.99638
G1 X87.987 Y112.969 E9.02315
G1 X87.567 Y112.636 E9.04989
G1 X87.201 Y112.244 E9.07665
G1 X86.898 Y111.802 E9.10339
G1 X86.663 Y111.319 E9.13018
G1 X86.503 Y110.808 E9.1569
G1 X86.42 Y110.278 E9.18366
G1 X86.409 Y109.991 E9.19799
G1 X86.409 Y90.009 E10.1949
G1 X86.449 Y89.474 E10.22166
G1 X86.568 Y88.951 E10.24842
G1 X86.763 Y88.452 E10.27515
G1 X87.031 Y87.987 E10.30193
G1 X87.364 Y87.567 E10.32867
G1 X87.756 Y87.201 E10.35542
G0 F2400 X88.145 Y87.408
G1 F1200 X88.578 Y87.147 E10.38065
G1 X89.046 Y86.957 E10.40585
G1 X89.539 Y86.844 E10.43108
G1 X90.009 Y86.809 E10.45459
G1 X109.991 Y86.81 E11.4515
G1 X110.495 Y86.85 E11.47672
G1 X110.987 Y86.969 E11.50198
G1 X111.453 Y87.164 E11.52718
G1 X111.883 Y87.429 E11.55238
G1 X112.266 Y87.76 E11.57763
G1 X112.592 Y88.146 E11.60284
G1 X112.853 Y88.579 E11.62806
G1 X113.043 Y89.048 E11.65331
G1 X113.156 Y89.54 E11.6785
G1 X113.191 Y90.01 E11.70201
G1 X113.191 Y109.991 E12.69887
G1 X113.151 Y110.495 E12.72409
G1 X113.032 Y110.986 E12.74929
G1 X112.838 Y111.453 E12.77452
G1 X112.572 Y111.883 E12.79975
G1 X112.242 Y112.266 E12.82497
G1 X111.855 Y112.592 E12.85022
G1 X111.422 Y112.853 E12.87544
G1 X110.954 Y113.043 E12.90064
G1 X110.461 Y113.156 E12.92587
G1 X109.991 Y113.191 E12.94939
G1 X90.009 Y113.191 E13.94629
G1 X89.505 Y113.151 E13.97152
G1 X89.014 Y113.032 E13.99672
G1 X88.547 Y112.838 E14.02195
G1 X88.117 Y112.572 E14.04718
G1 X87.734 Y112.242 E14.0724
G1 X87.408 Y111.855 E14.09764
G1 X87.147 Y111.422 E14.12287
G1 X86.957 Y110.954 E14.14807
G1 X86.844 Y110.461 E14.1733
G1 X86.809 Y109.991 E14.19681
G1 X86.809 Y90.009 E15.19372
G1 X86.849 Y89.505 E15.21894
G1 X86.968 Y89.014 E15.24415
G1 X87.162 Y88.547 E15.26938
G1 X87.428 Y88.117 E15.2946
G1 X87.758 Y87.734 E15.31983
G1 X88.145 Y87.408 E15.34507
G1 F2400 E13.34507
G0 F2400 X90.614 Y89.335
G0 X90.614 Y90.614
G0 X90.67 Y90.67
G0 X90.6 Y90.6
;TYPE:WALL-INNER
G1 F2400 E15.34507
G1 F1200 X109.4 Y90.6 E16.28301
G1 X109.4 Y109.4 E17.22094
G1 X90.6 Y109.4 E18.15888
G1 X90.6 Y90.6 E19.09681
G0 F2400 X90.2 Y90.2
;TYPE:WALL-OUTER
G1 F1200 X109.8 Y90.2 E20.07466
G1 X109.8 Y109.8 E21.05251
G1 X90.2 Y109.8 E22.03036
G1 X90.2 Y90.2 E23.00821
G0 F2400 X90.4 Y90.2
G0 X90.779 Y90.779
;TYPE:SKIN
G1 F1200 X109.219 Y109.219 E24.30925
G1 X109.289 Y109.289
G0 F2400 X108.654 Y109.219
G1 F1200 X90.779 Y91.345 E25.57039
G1 X90.709 Y91.275
G0 F2400 X90.779 Y91.911
G1 F1200 X108.088 Y109.219 E26.7916
G1 X108.158 Y109.289
G0 F2400 X107.522 Y109.219
G1 F1200 X90.779 Y92.476 E27.97291
G1 X90.709 Y92.406
G0 F2400 X90.779 Y93.042
G1 F1200 X106.956 Y109.219 E29.11428
G1 X107.026 Y109.289
G0 F2400 X106.391 Y109.219
G1 F1200 X90.779 Y93.608 E30.21576
G1 X90.709 Y93.538
G0 F2400 X90.779 Y94.173
G1 F1200 X105.825 Y109.219 E31.27733
G1 X105.895 Y109.289
G0 F2400 X105.259 Y109.219
G1 F1200 X90.779 Y94.739 E32.29898
G1 X90.709 Y94.669
G0 F2400 X90.779 Y95.305
G1 F1200 X104.694 Y109.219 E33.28072
G1 X104.764 Y109.289
G0 F2400 X104.128 Y109.219
G1 F1200 X90.779 Y95.87 E34.22256
G1 X90.709 Y95.8
G0 F2400 X90.779 Y96.436
G1 F1200 X103.562 Y109.219 E35.12447
G1 X103.632 Y109.289
G0 F2400 X102.997 Y109.219
G1 F1200 X90.779 Y97.002 E35.98648
G1 X90.709 Y96.932
G0 F2400 X90.779 Y97.568
G1 F1200 X102.431 Y109.219 E36.80856
G1 X102.501 Y109.289
G0 F2400 X101.865 Y109.219
G1 F1200 X90.779 Y98.133 E37.59074
G1 X90.709 Y98.063
G0 F2400 X90.779 Y98.699
G1 F1200 X101.3 Y109.219 E38.33301
G1 X101.37 Y109.289
G0 F2400 X100.734 Y109.219
G1 F1200 X90.779 Y99.265 E39.03536
G1 X90.709 Y99.195
G0 F2400 X90.779 Y99.83
G1 F1200 X100.168 Y109.219 E39.6978
G1 X100.238 Y109.289
G0 F2400 X99.603 Y109.219
G1 F1200 X90.779 Y100.396 E40.32035
G1 X90.709 Y100.326
G0 F2400 X90.779 Y100.962
G1 F1200 X99.037 Y109.219 E40.90296
G1 X99.107 Y109.289
G0 F2400 X98.471 Y109.219
G1 F1200 X90.779 Y101.527 E41.44567
G1 X90.709 Y101.457
G0 F2400 X90.779 Y102.093
G1 F1200 X97.906 Y109.219 E41.94849
G1 X97.976 Y109.289
G0 F2400 X97.34 Y109.219
G1 F1200 X90.779 Y102.659 E42.41136
G1 X90.709 Y102.589
G0 F2400 X90.779 Y103.224
G1 F1200 X96.774 Y109.219 E42.83434
G1 X96.844 Y109.289
G0 F2400 X96.208 Y109.219
G1 F1200 X90.779 Y103.79 E43.21739
G1 X90.709 Y103.72
G0 F2400 X90.779 Y104.356
G1 F1200 X95.643 Y109.219 E43.56054
G1 X95.713 Y109.289
G0 F2400 X95.077 Y109.219
G1 F1200 X90.779 Y104.921 E43.86378
G1 X90.709 Y104.851
G0 F2400 X90.779 Y105.487
G1 F1200 X94.511 Y109.219 E44.1271
G1 X94.581 Y109.289
G0 F2400 X93.946 Y109.219
G1 F1200 X90.779 Y106.053 E44.35051
G1 X90.709 Y105.983
G0 F2400 X90.779 Y106.618
G1 F1200 X93.38 Y109.219 E44.53402
G1 X93.45 Y109.289
G0 F2400 X92.814 Y109.219
G1 F1200 X90.779 Y107.184 E44.6776
G1 X90.709 Y107.114
G0 F2400 X90.779 Y107.75
G1 F1200 X92.249 Y109.219 E44.78128
G1 X92.319 Y109.289
G0 F2400 X91.683 Y109.219
G1 F1200 X90.779 Y108.316 E44.84503
G1 X90.709 Y108.246
G0 F2400 X90.779 Y108.881
G1 F1200 X91.117 Y109.219 E44.86888
G0 F2400 X109.219 Y108.654
G1 F1200 X91.345 Y90.779 E46.13002
G1 X91.275 Y90.709
G0 F2400 X91.911 Y90.779
G1 F1200 X109.219 Y108.088 E47.35123
G1 X109.289 Y108.158
G0 F2400 X109.219 Y107.522
G1 F1200 X92.476 Y90.779 E48.53254
G1 X92.406 Y90.709
G0 F2400 X93.042 Y90.779
G1 F1200 X109.219 Y106.956 E49.67391
G1 X109.289 Y107.026
G0 F2400 X109.219 Y106.391
G1 F1200 X93.608 Y90.779 E50.77539
G1 X93.538 Y90.709
G0 F2400 X94.173 Y90.779
G1 F1200 X109.219 Y105.825 E51.83697
G1 X109.289 Y105.895
G0 F2400 X109.219 Y105.259
G1 F1200 X94.739 Y90.779 E52.85861
G1 X94.669 Y90.709
G0 F2400 X95.305 Y90.779
G1 F1200 X109.219 Y104.694 E53.84035
G1 X109.289 Y104.764
G0 F2400 X109.219 Y104.128
G1 F1200 X95.87 Y90.779 E54.7822
G1 X95.8 Y90.709
G0 F2400 X96.436 Y90.779
G1 F1200 X109.219 Y103.562 E55.68411
G1 X109.289 Y103.632
G0 F2400 X109.219 Y102.997
G1 F1200 X97.002 Y90.779 E56.54612
G1 X96.932 Y90.709
G0 F2400 X97.568 Y90.779
G1 F1200 X109.219 Y102.431 E57.36819
G1 X109.289 Y102.501
G0 F2400 X109.219 Y101.865
G1 F1200 X98.133 Y90.779 E58.15037
G1 X98.063 Y90.709
G0 F2400 X98.699 Y90.779
G1 F1200 X109.219 Y101.3 E58.89265
G1 X109.289 Y101.37
G0 F2400 X109.219 Y100.734
G1 F1200 X99.265 Y90.779 E59.59499
G1 X99.195 Y90.709
G0 F2400 X99.83 Y90.779
G1 F1200 X109.219 Y100.168 E60.25744
G1 X109.289 Y100.238
G0 F2400 X109.219 Y99.603
G1 F1200 X100.396 Y90.779 E60.87998
G1 X100.326 Y90.709
G0 F2400 X100.962 Y90.779
G1 F1200 X109.219 Y99.037 E61.46259
G1 X109.289 Y99.107
G0 F2400 X109.219 Y98.471
G1 F1200 X101.527 Y90.779 E62.0053
G1 X101.457 Y90.709
G0 F2400 X102.093 Y90.779
G1 F1200 X109.219 Y97.906 E62.50812
G1 X109.289 Y97.976
G0 F2400 X109.219 Y97.34
G1 F1200 X102.659 Y90.779 E62.971
G1 X102.589 Y90.709
G0 F2400 X103.224 Y90.779
G1 F1200 X109.219 Y96.774 E63.39398
G1 X109.289 Y96.844
G0 F2400 X109.219 Y96.208
G1 F1200 X103.79 Y90.779 E63.77702
G1 X103.72 Y90.709
G0 F2400 X104.356 Y90.779
G1 F1200 X109.219 Y95.643 E64.12017
G1 X109.289 Y95.713
G0 F2400 X109.219 Y95.077
G1 F1200 X104.921 Y90.779 E64.42341
G1 X104.851 Y90.709
G0 F2400 X105.487 Y90.779
G1 F1200 X109.219 Y94.511 E64.68673
G1 X109.289 Y94.581
G0 F2400 X109.219 Y93.946
G1 F1200 X106.053 Y90.779 E64.91014
G1 X105.983 Y90.709
G0 F2400 X106.618 Y90.779
G1 F1200 X109.219 Y93.38 E65.09366
G1 X109.289 Y93.45
G0 F2400 X109.219 Y92.814
G1 F1200 X107.184 Y90.779 E65.23724
G1 X107.114 Y90.709
G0 F2400 X107.75 Y90.779
G1 F1200 X109.219 Y92.249 E65.34092
G1 X109.289 Y92.319
G0 F2400 X109.219 Y91.683
G1 F1200 X108.316 Y90.779 E65.40466
G1 X108.246 Y90.709
G0 F2400 X108.881 Y90.779
G1 F1200 X109.219 Y91.117 E65.42851
G0 F2400 X109 Y91.117
G0 X90.67 Y90.67
G0 X90.6 Y90.6
;TIME_ELAPSED:71.511934
;LAYER:1
M140 S55
M106 S255
G0 F3600 X90.6 Y90.6 Z0.5
;TYPE:WALL-INNER
G1 F1800 X109.4 Y90.6 E66.0538
G1 X109.4 Y109.4 E66.67909
G1 X90.6 Y109.4 E67.30438
G1 X90.6 Y90.6 E67.92967
G0 F3600 X90.2 Y90.2
;TYPE:WALL-OUTER
G1 F1200 X109.8 Y90.2 E68.58157
G1 X109.8 Y109.8 E69.23347
G1 X90.2 Y109.8 E69.88537
G1 X90.2 Y90.2 E70.53727
G0 F3600 X90.4 Y90.2
G0 X90.67 Y90.67
G0 X91.37 Y90.779
;TYPE:SKIN
G1 F1200 X90.779 Y91.37 E70.56507
G1 X90.709 Y91.44
G0 F3600 X90.779 Y91.936
G1 F1200 X91.936 Y90.779 E70.61949
G1 X92.006 Y90.709
G0 F3600 X92.502 Y90.779
G1 F1200 X90.779 Y92.502 E70.70053
G1 X90.709 Y92.572
G0 F3600 X90.779 Y93.067
G1 F1200 X93.067 Y90.779 E70.80815
G1 X93.137 Y90.709
G0 F3600 X93.633 Y90.779
G1 F1200 X90.779 Y93.633 E70.9424
G1 X90.709 Y93.703
G0 F3600 X90.779 Y94.199
G1 F1200 X94.199 Y90.779 E71.10326
G1 X94.269 Y90.709
G0 F3600 X94.765 Y90.779
G1 F1200 X90.779 Y94.765 E71.29075
G1 X90.709 Y94.835
G0 F3600 X90.779 Y95.33
G1 F1200 X95.33 Y90.779 E71.50482
G1 X95.4 Y90.709
G0 F3600 X95.896 Y90.779
G1 F1200 X90.779 Y95.896 E71.74551
G1 X90.709 Y95.966
G0 F3600 X90.779 Y96.462
G1 F1200 X96.462 Y90.779 E72.01282
G1 X96.532 Y90.709
G0 F3600 X97.027 Y90.779
G1 F1200 X90.779 Y97.027 E72.3067
G1 X90.709 Y97.097
G0 F3600 X90.779 Y97.593
G1 F1200 X97.593 Y90.779 E72.62721
G1 X97.663 Y90.709
G0 F3600 X98.159 Y90.779
G1 F1200 X90.779 Y98.159 E72.97435
G1 X90.709 Y98.229
G0 F3600 X90.779 Y98.724
G1 F1200 X98.724 Y90.779 E73.34805
G1 X98.794 Y90.709
G0 F3600 X99.29 Y90.779
G1 F1200 X90.779 Y99.29 E73.74839
G1 X90.709 Y99.36
G0 F3600 X90.779 Y99.856
G1 F1200 X99.856 Y90.779 E74.17534
G1 X99.926 Y90.709
G0 F3600 X100.421 Y90.779
G1 F1200 X90.779 Y100.421 E74.62887
G1 X90.709 Y100.491
G0 F3600 X90.779 Y100.987
G1 F1200 X100.987 Y90.779 E75.10902
G1 X101.057 Y90.709
G0 F3600 X101.553 Y90.779
G1 F1200 X90.779 Y101.553 E75.6158
G1 X90.709 Y101.623
G0 F3600 X90.779 Y102.118
G1 F1200 X102.118 Y90.779 E76.14915
G1 X102.188 Y90.709
G0 F3600 X102.684 Y90.779
G1 F1200 X90.779 Y102.684 E76.70913
G1 X90.709 Y102.754
G0 F3600 X90.779 Y103.25
G1 F1200 X103.25 Y90.779 E77.29572
G1 X103.32 Y90.709
G0 F3600 X103.816 Y90.779
G1 F1200 X90.779 Y103.816 E77.90894
G1 X90.709 Y103.886
G0 F3600 X90.779 Y104.381
G1 F1200 X104.381 Y90.779 E78.54874
G1 X104.451 Y90.709
G0 F3600 X104.947 Y90.779
G1 F1200 X90.779 Y104.947 E79.21516
G1 X90.709 Y105.017
G0 F3600 X90.779 Y105.513
G1 F1200 X105.513 Y90.779 E79.9082
G1 X105.583 Y90.709
G0 F3600 X106.078 Y90.779
G1 F1200 X90.779 Y106.078 E80.62782
G1 X90.709 Y106.148
G0 F3600 X90.779 Y106.644
G1 F1200 X106.644 Y90.779 E81.37406
G1 X106.714 Y90.709
G0 F3600 X107.21 Y90.779
G1 F1200 X90.779 Y107.21 E82.14692
G1 X90.709 Y107.28
G0 F3600 X90.779 Y107.775
G1 F1200 X107.775 Y90.779 E82.94636
G1 X107.845 Y90.709
G0 F3600 X108.341 Y90.779
G1 F1200 X90.779 Y108.341 E83.77243
G1 X90.709 Y108.411
G0 F3600 X90.779 Y108.907
G1 F1200 X108.907 Y90.779 E84.62511
G1 X108.977 Y90.709
G0 F3600 X109.219 Y91.032
G1 F1200 X91.032 Y109.219 E85.48057
G1 X90.962 Y109.289
G0 F3600 X91.598 Y109.219
G1 F1200 X109.219 Y91.598 E86.30941
G1 X109.289 Y91.528
G0 F3600 X109.219 Y92.164
G1 F1200 X92.164 Y109.219 E87.11163
G1 X92.094 Y109.289
G0 F3600 X92.729 Y109.219
G1 F1200 X109.219 Y92.729 E87.88726
G1 X109.289 Y92.659
G0 F3600 X109.219 Y93.295
G1 F1200 X93.295 Y109.219 E88.63628
G1 X93.225 Y109.289
G0 F3600 X93.861 Y109.219
G1 F1200 X109.219 Y93.861 E89.35867
G1 X109.289 Y93.791
G0 F3600 X109.219 Y94.427
G1 F1200 X94.427 Y109.219 E90.05444
G1 X94.357 Y109.289
G0 F3600 X94.992 Y109.219
G1 F1200 X109.219 Y94.992 E90.72364
G1 X109.289 Y94.922
G0 F3600 X109.219 Y95.558
G1 F1200 X95.558 Y109.219 E91.36621
G1 X95.488 Y109.289
G0 F3600 X96.124 Y109.219
G1 F1200 X109.219 Y96.124 E91.98216
G1 X109.289 Y96.054
G0 F3600 X109.219 Y96.689
G1 F1200 X96.689 Y109.219 E92.57153
G1 X96.619 Y109.289
G0 F3600 X97.255 Y109.219
G1 F1200 X109.219 Y97.255 E93.13428
G1 X109.289 Y97.185
G0 F3600 X109.219 Y97.821
G1 F1200 X97.821 Y109.219 E93.67041
G1 X97.751 Y109.289
G0 F3600 X98.386 Y109.219
G1 F1200 X109.219 Y98.386 E94.17996
G1 X109.289 Y98.316
G0 F3600 X109.219 Y98.952
G1 F1200 X98.952 Y109.219 E94.66289
G1 X98.882 Y109.289
G0 F3600 X99.518 Y109.219
G1 F1200 X109.219 Y99.518 E95.11919
G1 X109.289 Y99.448
G0 F3600 X109.219 Y100.083
G1 F1200 X100.083 Y109.219 E95.54892
G1 X100.013 Y109.289
G0 F3600 X100.649 Y109.219
G1 F1200 X109.219 Y100.649 E95.95203
G1 X109.289 Y100.579
G0 F3600 X109.219 Y101.215
G1 F1200 X101.215 Y109.219 E96.32851
G1 X101.145 Y109.289
G0 F3600 X101.78 Y109.219
G1 F1200 X109.219 Y101.78 E96.67842
G1 X109.289 Y101.71
G0 F3600 X109.219 Y102.346
G1 F1200 X102.346 Y109.219 E97.00171
G1 X102.276 Y109.289
G0 F3600 X102.912 Y109.219
G1 F1200 X109.219 Y102.912 E97.29837
G1 X109.289 Y102.842
G0 F3600 X109.219 Y103.478
G1 F1200 X103.478 Y109.219 E97.56841
G1 X103.408 Y109.289
G0 F3600 X104.043 Y109.219
G1 F1200 X109.219 Y104.043 E97.81187
G1 X109.289 Y103.973
G0 F3600 X109.219 Y104.609
G1 F1200 X104.609 Y109.219 E98.02871
G1 X104.539 Y109.289
G0 F3600 X105.175 Y109.219
G1 F1200 X109.219 Y105.175 E98.21893
G1 X109.289 Y105.105
G0 F3600 X109.219 Y105.74
G1 F1200 X105.74 Y109.219 E98.38257
G1 X105.67 Y109.289
G0 F3600 X106.306 Y109.219
G1 F1200 X109.219 Y106.306 E98.51959
G1 X109.289 Y106.236
G0 F3600 X109.219 Y106.872
G1 F1200 X106.872 Y109.219 E98.62998
G1 X106.802 Y109.289
G0 F3600 X107.437 Y109.219
G1 F1200 X109.219 Y107.437 E98.7138
G1 X109.289 Y107.367
G0 F3600 X109.219 Y108.003
G1 F1200 X108.003 Y109.219 E98.771
G1 X107.933 Y109.289
G0 F3600 X108.569 Y109.219
G1 F1200 X109.219 Y108.569 E98.80157
G1 X109.289 Y108.499
G0 F3600 X109.219 Y109.134
G1 F1200 X109.134 Y109.219 E98.80557
G0 F3600 X109 Y109
G0 X90.67 Y90.67
G0 X90.6 Y90.6
;TIME_ELAPSED:122.603397
;LAYER:2
G0 F4800 X90.6 Y90.6 Z0.7
;TYPE:WALL-INNER
