;FLAVOR:RepRap
;TIME:2011
;Filament used: 1.27074m
;Layer height: 0.2
;Generated with Cura_SteamEngine 2.6.0
M190 S50
M104 S195
M109 S195
G28 ;Home
G1 Z15.0 F6000 ;Move the platform down 15mm
;Prime the extruder
G92 E0
G1 F200 E3
G92 E0
;LAYER_COUNT:29
;LAYER:0
M107
G0 F1200 X90.03 Y76.736 Z0.3
G0 X90.423 Y76.369
;TYPE:SKIRT
G1 F600 X90.67 Y76.171 E0.01579
G1 X91.113 Y75.868 E0.04257
G1 X91.595 Y75.634 E0.0693
G1 X92.107 Y75.474 E0.09606
G1 X92.637 Y75.391 E0.12283
G1 X92.92 Y75.38 E0.13696
G1 X107.057 Y75.374 E0.84225
G1 X107.592 Y75.414 E0.86902
G1 X108.115 Y75.532 E0.89577
G1 X108.615 Y75.728 E0.92256
G1 X109.205 Y76.083 E0.95691
G1 X109.465 Y76.276 E0.97307
G1 X109.87 Y76.627 E0.99981
G1 X110.219 Y77.034 E1.02656
G1 X110.504 Y77.489 E1.05334
G1 X110.718 Y77.981 E1.08011
G1 X110.856 Y78.499 E1.10685
G1 X110.919 Y79.166 E1.14028
G1 X110.925 Y120.821 E3.21845
G1 X110.885 Y121.356 E3.24522
G1 X110.766 Y121.879 E3.27198
G1 X110.571 Y122.379 E3.29875
G1 X110.304 Y122.844 E3.32551
G1 X109.97 Y123.264 E3.35228
G1 X109.577 Y123.631 E3.3791
G1 X109.33 Y123.829 E3.3949
G1 X108.887 Y124.132 E3.42167
G1 X108.405 Y124.366 E3.44841
G1 X107.893 Y124.526 E3.47517
G1 X107.363 Y124.609 E3.50193
G1 X107.08 Y124.62 E3.51606
G1 X92.944 Y124.626 E4.22131
G1 X92.409 Y124.586 E4.24808
G1 X91.886 Y124.468 E4.27482
G1 X91.386 Y124.272 E4.30162
G1 X90.802 Y123.921 E4.33561
G1 X90.541 Y123.728 E4.3518
G1 X90.134 Y123.377 E4.37862
G1 X89.785 Y122.971 E4.40533
G1 X89.499 Y122.517 E4.4321
G1 X89.284 Y122.026 E4.45884
G1 X89.145 Y121.508 E4.4856
G1 X89.081 Y120.834 E4.51937
G1 X89.075 Y79.179 E6.59755
G1 X89.115 Y78.644 E6.62432
G1 X89.234 Y78.121 E6.65108
G1 X89.429 Y77.621 E6.67785
G1 X89.696 Y77.156 E6.7046
G1 X90.03 Y76.736 E6.73137
G1 X90.423 Y76.369 E6.7582
G0 F1200 X90.674 Y76.681
G1 F600 X90.921 Y76.483 E6.77399
G1 X91.339 Y76.199 E6.79921
G1 X91.796 Y75.984 E6.8244
G1 X92.282 Y75.845 E6.84962
G1 X92.921 Y75.78 E6.88167
G1 X107.058 Y75.774 E7.58696
G1 X107.562 Y75.814 E7.61219
G1 X108.053 Y75.932 E7.63738
G1 X108.52 Y76.127 E7.66263
G1 X108.966 Y76.405 E7.68885
G1 X109.226 Y76.598 E7.705
G1 X109.607 Y76.93 E7.73022
G1 X109.931 Y77.318 E7.75544
G1 X110.19 Y77.753 E7.78069
G1 X110.376 Y78.223 E7.80591
G1 X110.487 Y78.716 E7.83112
G1 X110.519 Y79.167 E7.85368
G1 X110.525 Y120.822 E9.93186
G1 X110.485 Y121.326 E9.95708
G1 X110.366 Y121.817 E9.98229
G1 X110.172 Y122.284 E10.00751
G1 X109.906 Y122.714 E10.03274
G1 X109.576 Y123.097 E10.05796
G1 X109.326 Y123.319 E10.07464
G1 X109.079 Y123.517 E10.09044
G1 X108.661 Y123.801 E10.11565
G1 X108.204 Y124.016 E10.14085
G1 X107.718 Y124.155 E10.16606
G1 X107.079 Y124.22 E10.19811
G1 X92.943 Y124.226 E10.90336
G1 X92.439 Y124.186 E10.92858
G1 X91.948 Y124.068 E10.95377
G1 X91.481 Y123.873 E10.97902
G1 X91.039 Y123.599 E11.00497
G1 X90.778 Y123.406 E11.02116
G1 X90.397 Y123.074 E11.04637
G1 X90.072 Y122.686 E11.07163
G1 X89.813 Y122.253 E11.0968
G1 X89.625 Y121.783 E11.12205
G1 X89.514 Y121.29 E11.14726
G1 X89.481 Y120.833 E11.17012
G1 X89.475 Y79.178 E13.2483
G1 X89.515 Y78.674 E13.27352
G1 X89.634 Y78.183 E13.29873
G1 X89.828 Y77.716 E13.32396
G1 X90.094 Y77.286 E13.34918
G1 X90.424 Y76.903 E13.37441
G1 X90.674 Y76.681 E13.39109
G1 F1500 E9.39109
G0 F1200 X92.443 Y78.496
G0 X93.279 Y79.578
G0 X93.465 Y79.664
G0 X93.465 Y79.564
;TYPE:WALL-INNER
G1 F1500 E13.39109
G1 F600 X97.442 Y79.564 E13.5895
G1 X97.443 Y120.236 E15.61863
G1 X97.443 Y120.436 E15.62861
G1 X97.243 Y120.436 E15.63507
G1 X93.266 Y120.436 E15.83349
G1 X93.265 Y79.764 E17.86262
G1 X93.265 Y79.564 E17.8726
G1 X93.465 Y79.564 E17.87906
G0 F1200 X93.112 Y79.164
;TYPE:WALL-OUTER
G1 F600 X97.715 Y79.164 E18.1087
G1 X97.842 Y79.262 E18.11671
G1 X97.843 Y120.618 E20.17997
G1 X97.843 Y120.738 E20.18595
G1 X97.716 Y120.836 E20.19396
G1 X97.596 Y120.836 E20.19994
G1 X92.993 Y120.836 E20.42959
G1 X92.866 Y120.738 E20.43759
G1 X92.865 Y79.382 E22.50085
G1 X92.865 Y79.262 E22.50684
G1 X92.992 Y79.164 E22.51484
G1 X93.112 Y79.164 E22.52083
G0 F1200 X93.312 Y79.164
G0 X93.444 Y79.868
;TYPE:SKIN
G1 F600 X97.262 Y83.686 E22.79021
G1 X97.332 Y83.756
G0 F1200 X97.262 Y84.251
G1 F600 X93.444 Y80.434 E23.05955
G1 X93.374 Y80.364
G0 F1200 X93.444 Y80.999
G1 F600 X97.262 Y84.817 E23.32893
G1 X97.332 Y84.887
G0 F1200 X97.262 Y85.383
G1 F600 X93.444 Y81.565 E23.59831
G1 X93.374 Y81.495
G0 F1200 X93.444 Y82.131
G1 F600 X97.262 Y85.948 E23.86766
G1 X97.332 Y86.018
G0 F1200 X97.262 Y86.514
G1 F600 X93.444 Y82.696 E24.13704
G1 X93.374 Y82.626
G0 F1200 X93.444 Y83.262
G1 F600 X97.262 Y87.08 E24.40642
G1 X97.332 Y87.15
G0 F1200 X97.262 Y87.645
G1 F600 X93.444 Y83.828 E24.67576
G1 X93.374 Y83.758
G0 F1200 X93.444 Y84.393
G1 F600 X97.262 Y88.211 E24.94515
G1 X97.332 Y88.281
G0 F1200 X97.262 Y88.777
G1 F600 X93.444 Y84.959 E25.21453
G1 X93.374 Y84.889
G0 F1200 X93.444 Y85.525
G1 F600 X97.262 Y89.342 E25.48387
G1 X97.332 Y89.412
G0 F1200 X97.262 Y89.908
G1 F600 X93.444 Y86.09 E25.75325
G1 X93.374 Y86.02
G0 F1200 X93.444 Y86.656
G1 F600 X97.262 Y90.474 E26.02263
G1 X97.332 Y90.544
G0 F1200 X97.262 Y91.039
G1 F600 X93.444 Y87.222 E26.29198
G1 X93.374 Y87.152
G0 F1200 X93.444 Y87.788
G1 F600 X97.262 Y91.605 E26.56132
G1 X97.332 Y91.675
G0 F1200 X97.262 Y92.171
G1 F600 X93.444 Y88.353 E26.8307
G1 X93.374 Y88.283
G0 F1200 X93.444 Y88.919
G1 F600 X97.262 Y92.737 E27.10008
G1 X97.332 Y92.807
G0 F1200 X97.262 Y93.302
G1 F600 X93.444 Y89.485 E27.36943
G1 X93.374 Y89.415
G0 F1200 X93.444 Y90.05
G1 F600 X97.262 Y93.868 E27.63881
G1 X97.332 Y93.938
G0 F1200 X97.262 Y94.434
G1 F600 X93.444 Y90.616 E27.90819
G1 X93.374 Y90.546
G0 F1200 X93.444 Y91.182
G1 F600 X97.262 Y94.999 E28.17754
G1 X97.332 Y95.069
G0 F1200 X97.262 Y95.565
G1 F600 X93.444 Y91.747 E28.44692
G1 X93.374 Y91.677
G0 F1200 X93.444 Y92.313
G1 F600 X97.262 Y96.131 E28.7163
G1 X97.332 Y96.201
G0 F1200 X97.262 Y96.696
G1 F600 X93.444 Y92.879 E28.98564
G1 X93.374 Y92.809
G0 F1200 X93.444 Y93.444
G1 F600 X97.262 Y97.262 E29.25502
G1 X97.332 Y97.332
G0 F1200 X97.262 Y97.828
G1 F600 X93.444 Y94.01 E29.5244
G1 X93.374 Y93.94
G0 F1200 X93.444 Y94.576
G1 F600 X97.262 Y98.393 E29.79375
G1 X97.332 Y98.463
G0 F1200 X97.262 Y98.959
G1 F600 X93.444 Y95.141 E30.06313
G1 X93.374 Y95.071
G0 F1200 X93.444 Y95.707
G1 F600 X97.262 Y99.525 E30.33251
G1 X97.332 Y99.595
G0 F1200 X97.263 Y100.091
G1 F600 X93.444 Y96.273 E30.60192
G1 X93.374 Y96.203
G0 F1200 X93.444 Y96.838
G1 F600 X97.263 Y100.657 E30.87138
G1 X97.333 Y100.727
G0 F1200 X97.263 Y101.223
G1 F600 X93.444 Y97.404 E31.14083
G1 X93.374 Y97.334
G0 F1200 X93.444 Y97.97
G1 F600 X97.263 Y101.788 E31.41024
G1 X97.333 Y101.858
G0 F1200 X97.263 Y102.354
G1 F600 X93.444 Y98.536 E31.67966
G1 X93.374 Y98.466
G0 F1200 X93.444 Y99.101
G1 F600 X97.263 Y102.92 E31.94911
G1 X97.333 Y102.99
G0 F1200 X97.263 Y103.485
G1 F600 X93.444 Y99.667 E32.21853
G1 X93.374 Y99.597
G0 F1200 X93.445 Y100.233
G1 F600 X97.263 Y104.051 E32.48791
G1 X97.333 Y104.121
G0 F1200 X97.263 Y104.617
G1 F600 X93.445 Y100.799 E32.75729
G1 X93.375 Y100.729
G0 F1200 X93.445 Y101.365
G1 F600 X97.263 Y105.182 E33.02663
G1 X97.333 Y105.252
G0 F1200 X97.263 Y105.748
G1 F600 X93.445 Y101.93 E33.29601
G1 X93.375 Y101.86
G0 F1200 X93.445 Y102.496
G1 F600 X97.263 Y106.314 E33.56539
G1 X97.333 Y106.384
G0 F1200 X97.263 Y106.879
G1 F600 X93.445 Y103.062 E33.83474
G1 X93.375 Y102.992
G0 F1200 X93.445 Y103.627
G1 F600 X97.263 Y107.445 E34.10412
G1 X97.333 Y107.515
G0 F1200 X97.263 Y108.011
G1 F600 X93.445 Y104.193 E34.3735
G1 X93.375 Y104.123
G0 F1200 X93.445 Y104.759
G1 F600 X97.263 Y108.576 E34.64284
G1 X97.333 Y108.646
G0 F1200 X97.263 Y109.142
G1 F600 X93.445 Y105.324 E34.91222
G1 X93.375 Y105.254
G0 F1200 X93.445 Y105.89
G1 F600 X97.263 Y109.708 E35.18161
G1 X97.333 Y109.778
G0 F1200 X97.263 Y110.274
G1 F600 X93.445 Y106.456 E35.45099
G1 X93.375 Y106.386
G0 F1200 X93.445 Y107.022
G1 F600 X97.263 Y110.839 E35.72033
G1 X97.333 Y110.909
G0 F1200 X97.263 Y111.405
G1 F600 X93.445 Y107.587 E35.98971
G1 X93.375 Y107.517
G0 F1200 X93.445 Y108.153
G1 F600 X97.263 Y111.971 E36.25909
G1 X97.333 Y112.041
G0 F1200 X97.263 Y112.536
G1 F600 X93.445 Y108.719 E36.52844
G1 X93.375 Y108.649
G0 F1200 X93.445 Y109.284
G1 F600 X97.263 Y113.102 E36.79782
G1 X97.333 Y113.172
G0 F1200 X97.263 Y113.668
G1 F600 X93.445 Y109.85 E37.0672
G1 X93.375 Y109.78
G0 F1200 X93.445 Y110.416
G1 F600 X97.263 Y114.233 E37.33654
G1 X97.333 Y114.303
G0 F1200 X97.263 Y114.799
G1 F600 X93.445 Y110.981 E37.60592
G1 X93.375 Y110.911
G0 F1200 X93.445 Y111.547
G1 F600 X97.263 Y115.365 E37.8753
G1 X97.333 Y115.435
G0 F1200 X97.263 Y115.93
G1 F600 X93.445 Y112.113 E38.14465
G1 X93.375 Y112.043
G0 F1200 X93.445 Y112.678
G1 F600 X97.263 Y116.496 E38.41403
G1 X97.333 Y116.566
G0 F1200 X97.263 Y117.062
G1 F600 X93.445 Y113.244 E38.68341
G1 X93.375 Y113.174
G0 F1200 X93.445 Y113.81
G1 F600 X97.263 Y117.627 E38.95276
G1 X97.333 Y117.697
G0 F1200 X97.263 Y118.193
G1 F600 X93.445 Y114.375 E39.22214
G1 X93.375 Y114.305
G0 F1200 X93.445 Y114.941
G1 F600 X97.263 Y118.759 E39.49152
G1 X97.333 Y118.829
G0 F1200 X97.263 Y119.324
G1 F600 X93.445 Y115.507 E39.76086
G1 X93.375 Y115.437
G0 F1200 X93.445 Y116.072
G1 F600 X97.263 Y119.89 E40.03024
G1 X97.333 Y119.96
G0 F1200 X97.062 Y120.255
G1 F600 X93.445 Y116.638 E40.28544
G1 X93.375 Y116.568
G0 F1200 X93.445 Y117.204
G1 F600 X96.496 Y120.255 E40.50071
G1 X96.566 Y120.325
G0 F1200 X95.931 Y120.255
G1 F600 X93.445 Y117.77 E40.67607
G1 X93.375 Y117.7
G0 F1200 X93.445 Y118.335
G1 F600 X95.365 Y120.255 E40.81154
G1 X95.435 Y120.325
G0 F1200 X94.799 Y120.255
G1 F600 X93.445 Y118.901 E40.90707
G1 X93.375 Y118.831
G0 F1200 X93.445 Y119.467
G1 F600 X94.233 Y120.255 E40.96267
G1 X94.303 Y120.325
G0 F1200 X93.668 Y120.255
G1 F600 X93.445 Y120.032 E40.9784
G0 F1200 X97.262 Y83.12
G1 F600 X93.886 Y79.743 E41.21663
G1 X93.816 Y79.673
G0 F1200 X94.451 Y79.743
G1 F600 X97.262 Y82.554 E41.41496
G1 X97.332 Y82.624
G0 F1200 X97.262 Y81.989
G1 F600 X95.017 Y79.743 E41.5734
G1 X94.947 Y79.673
G0 F1200 X95.583 Y79.743
G1 F600 X97.262 Y81.423 E41.69189
G1 X97.332 Y81.493
G0 F1200 X97.262 Y80.857
G1 F600 X96.148 Y79.743 E41.77049
G1 X96.078 Y79.673
G0 F1200 X96.714 Y79.743
G1 F600 X97.262 Y80.291 E41.80916
G0 F1200 X97.042 Y80.29
G1 F1500 E37.80916
G0 F1200 X97.442 Y79.764
G0 X98.707 Y79.763
G0 X101.293 Y79.765
G0 X102.558 Y79.764
G0 X102.658 Y79.764
G0 X102.557 Y79.764
;TYPE:WALL-INNER
G1 F1500 E41.80916
G1 F600 X102.557 Y79.564 E41.81913
G1 X102.757 Y79.564 E41.82559
G1 X106.734 Y79.564 E42.02401
G1 X106.735 Y120.236 E44.05314
G1 X106.735 Y120.436 E44.06312
G1 X106.535 Y120.436 E44.06958
G1 X102.558 Y120.436 E44.26799
G1 X102.557 Y79.764 E46.29713
G0 F1200 X102.157 Y79.382
;TYPE:WALL-OUTER
G1 F600 X102.157 Y79.262 E46.30312
G1 X102.284 Y79.164 E46.31112
G1 X102.404 Y79.164 E46.31711
G1 X107.007 Y79.164 E46.54675
G1 X107.134 Y79.262 E46.55475
G1 X107.135 Y120.618 E48.61801
G1 X107.135 Y120.738 E48.624
G1 X107.008 Y120.836 E48.632
G1 X106.888 Y120.836 E48.63799
G1 X102.285 Y120.836 E48.86763
G1 X102.158 Y120.738 E48.87564
G1 X102.157 Y79.382 E50.9389
G0 F1200 X102.157 Y79.262
G0 X102.22 Y79.213
G0 X102.627 Y79.634
G0 X102.937 Y79.743
;TYPE:SKIN
G1 F600 X106.553 Y83.36 E51.19406
G1 X106.623 Y83.43
G0 F1200 X106.553 Y82.795
G1 F600 X103.502 Y79.743 E51.40936
G1 X103.432 Y79.673
G0 F1200 X104.068 Y79.743
G1 F600 X106.553 Y82.229 E51.58473
G1 X106.623 Y82.299
G0 F1200 X106.553 Y81.663
G1 F600 X104.634 Y79.743 E51.72016
G1 X104.564 Y79.673
G0 F1200 X105.199 Y79.743
G1 F600 X106.553 Y81.098 E51.81572
G1 X106.623 Y81.168
G0 F1200 X106.553 Y80.532
G1 F600 X105.765 Y79.743 E51.87136
G1 X105.695 Y79.673
G0 F1200 X106.331 Y79.743
G1 F600 X106.553 Y79.966 E51.88706
G0 F1200 X102.736 Y80.108
G1 F600 X106.553 Y83.926 E52.1564
G1 X106.623 Y83.996
G0 F1200 X106.553 Y84.492
G1 F600 X102.736 Y80.674 E52.42575
G1 X102.666 Y80.604
G0 F1200 X102.736 Y81.24
G1 F600 X106.553 Y85.057 E52.69506
G1 X106.623 Y85.127
G0 F1200 X106.553 Y85.623
G1 F600 X102.736 Y81.805 E52.9644
G1 X102.666 Y81.735
G0 F1200 X102.736 Y82.371
G1 F600 X106.553 Y86.189 E53.23375
G1 X106.623 Y86.259
G0 F1200 X106.553 Y86.754
G1 F600 X102.736 Y82.937 E53.50306
G1 X102.666 Y82.867
G0 F1200 X102.736 Y83.502
G1 F600 X106.553 Y87.32 E53.7724
G1 X106.623 Y87.39
G0 F1200 X106.553 Y87.886
G1 F600 X102.736 Y84.068 E54.04175
G1 X102.666 Y83.998
G0 F1200 X102.736 Y84.634
G1 F600 X106.553 Y88.451 E54.31106
G1 X106.623 Y88.521
G0 F1200 X106.553 Y89.017
G1 F600 X102.736 Y85.2 E54.58037
G1 X102.666 Y85.13
G0 F1200 X102.736 Y85.765
G1 F600 X106.553 Y89.583 E54.84971
G1 X106.623 Y89.653
G0 F1200 X106.553 Y90.149
G1 F600 X102.736 Y86.331 E55.11906
G1 X102.666 Y86.261
G0 F1200 X102.736 Y86.897
G1 F600 X106.553 Y90.714 E55.38837
G1 X106.623 Y90.784
G0 F1200 X106.553 Y91.28
G1 F600 X102.736 Y87.462 E55.65771
G1 X102.666 Y87.392
G0 F1200 X102.736 Y88.028
G1 F600 X106.553 Y91.846 E55.92706
G1 X106.623 Y91.916
G0 F1200 X106.553 Y92.411
G1 F600 X102.736 Y88.594 E56.19637
G1 X102.666 Y88.524
G0 F1200 X102.736 Y89.159
G1 F600 X106.553 Y92.977 E56.46571
G1 X106.623 Y93.047
G0 F1200 X106.553 Y93.543
G1 F600 X102.736 Y89.725 E56.73506
G1 X102.666 Y89.655
G0 F1200 X102.736 Y90.291
G1 F600 X106.553 Y94.108 E57.00437
G1 X106.623 Y94.178
G0 F1200 X106.553 Y94.674
G1 F600 X102.736 Y90.856 E57.27371
G1 X102.666 Y90.786
G0 F1200 X102.736 Y91.422
G1 F600 X106.553 Y95.24 E57.54306
G1 X106.623 Y95.31
G0 F1200 X106.553 Y95.805
G1 F600 X102.736 Y91.988 E57.81237
G1 X102.666 Y91.918
G0 F1200 X102.736 Y92.553
G1 F600 X106.553 Y96.371 E58.08171
G1 X106.623 Y96.441
G0 F1200 X106.553 Y96.937
G1 F600 X102.736 Y93.119 E58.35106
G1 X102.666 Y93.049
G0 F1200 X102.736 Y93.685
G1 F600 X106.553 Y97.502 E58.62037
G1 X106.623 Y97.572
G0 F1200 X106.553 Y98.068
G1 F600 X102.736 Y94.25 E58.88971
G1 X102.666 Y94.18
G0 F1200 X102.736 Y94.816
G1 F600 X106.553 Y98.634 E59.15906
G1 X106.623 Y98.704
G0 F1200 X106.553 Y99.2
G1 F600 X102.736 Y95.382 E59.4284
G1 X102.666 Y95.312
G0 F1200 X102.736 Y95.948
G1 F600 X106.553 Y99.765 E59.69771
G1 X106.623 Y99.835
G0 F1200 X106.554 Y100.332
G1 F600 X102.736 Y96.513 E59.96713
G1 X102.666 Y96.443
G0 F1200 X102.736 Y97.079
G1 F600 X106.554 Y100.897 E60.23651
G1 X106.624 Y100.967
G0 F1200 X106.554 Y101.463
G1 F600 X102.736 Y97.645 E60.50589
G1 X102.666 Y97.575
G0 F1200 X102.736 Y98.21
G1 F600 X106.554 Y102.029 E60.77531
G1 X106.624 Y102.099
G0 F1200 X106.554 Y102.594
G1 F600 X102.736 Y98.776 E61.04469
G1 X102.666 Y98.706
G0 F1200 X102.736 Y99.342
G1 F600 X106.554 Y103.16 E61.31407
G1 X106.624 Y103.23
G0 F1200 X106.554 Y103.726
G1 F600 X102.736 Y99.907 E61.58348
G1 X102.666 Y99.837
G0 F1200 X102.736 Y100.474
G1 F600 X106.554 Y104.291 E61.85283
G1 X106.624 Y104.361
G0 F1200 X106.554 Y104.857
G1 F600 X102.736 Y101.039 E62.12221
G1 X102.666 Y100.969
G0 F1200 X102.736 Y101.605
G1 F600 X106.554 Y105.423 E62.39159
G1 X106.624 Y105.493
G0 F1200 X106.554 Y105.988
G1 F600 X102.736 Y102.171 E62.66094
G1 X102.666 Y102.101
G0 F1200 X102.736 Y102.736
G1 F600 X106.554 Y106.554 E62.93032
G1 X106.624 Y106.624
G0 F1200 X106.554 Y107.12
G1 F600 X102.736 Y103.302 E63.1997
G1 X102.666 Y103.232
G0 F1200 X102.736 Y103.868
G1 F600 X106.554 Y107.685 E63.46904
G1 X106.624 Y107.755
G0 F1200 X106.554 Y108.251
G1 F600 X102.736 Y104.434 E63.73839
G1 X102.666 Y104.364
G0 F1200 X102.736 Y104.999
G1 F600 X106.554 Y108.817 E64.00777
G1 X106.624 Y108.887
G0 F1200 X106.554 Y109.383
G1 F600 X102.736 Y105.565 E64.27715
G1 X102.666 Y105.495
G0 F1200 X102.736 Y106.131
G1 F600 X106.554 Y109.948 E64.54649
G1 X106.624 Y110.018
G0 F1200 X106.554 Y110.514
G1 F600 X102.736 Y106.696 E64.81587
G1 X102.666 Y106.626
G0 F1200 X102.736 Y107.262
G1 F600 X106.554 Y111.08 E65.08525
G1 X106.624 Y111.15
G0 F1200 X106.554 Y111.645
G1 F600 X102.736 Y107.828 E65.3546
G1 X102.666 Y107.758
G0 F1200 X102.736 Y108.393
G1 F600 X106.554 Y112.211 E65.62398
G1 X106.624 Y112.281
G0 F1200 X106.554 Y112.777
G1 F600 X102.736 Y108.959 E65.89336
G1 X102.666 Y108.889
G0 F1200 X102.736 Y109.525
G1 F600 X106.554 Y113.342 E66.16271
G1 X106.624 Y113.412
G0 F1200 X106.554 Y113.908
