;FLAVOR:RepRap
;TIME:3218
;Filament used: 2.4075m
;Layer height: 0.2
;Generated with Cura_SteamEngine 2.6.0
M190 S50
M104 S195
M109 S195
G28 ;Home
G1 Z15.0 F6000 ;Move the platform down 15mm
;Prime the extruder
G92 E0
G1 F200 E3
G92 E0
;LAYER_COUNT:35
;LAYER:0
M107
G0 F1200 X78.644 Y69.239 Z0.3
;TYPE:SKIRT
G1 X79.36 Y68.536 E0.05006
G1 X79.789 Y68.176 E0.078
G1 X80.248 Y67.848 E0.10615
G1 X80.779 Y67.533 E0.13695
G1 X81.778 Y67.052 E0.19227
G1 X82.53 Y66.788 E0.23203
G1 X83.639 Y66.532 E0.28881
G1 X84.169 Y66.451 E0.31556
G1 X84.449 Y66.44 E0.32954
G1 X115.579 Y66.444 E1.88262
G1 X116.114 Y66.484 E1.90939
G1 X116.383 Y66.535 E1.92305
G1 X117.431 Y66.775 E1.97669
G1 X117.997 Y66.955 E2.00632
G1 X118.546 Y67.181 E2.03594
G1 X119.092 Y67.462 E2.06657
G1 X120.018 Y68.044 E2.12114
G1 X120.449 Y68.362 E2.14786
G1 X120.665 Y68.564 E2.16261
G1 X121.512 Y69.423 E2.2228
G1 X122.009 Y70.054 E2.26287
G1 X122.554 Y70.933 E2.31447
G1 X122.891 Y71.64 E2.35355
G1 X123.261 Y72.696 E2.40937
G1 X123.441 Y73.478 E2.4494
G1 X123.568 Y74.591 E2.50529
G1 X123.591 Y75 E2.52573
G1 X123.582 Y125.228 E5.03162
G1 X123.533 Y125.819 E5.0612
G1 X123.338 Y126.989 E5.12038
G1 X123.195 Y127.557 E5.1496
G1 X123.049 Y127.986 E5.17221
G1 X122.803 Y128.546 E5.20272
G1 X122.221 Y129.616 E5.26349
G1 X121.817 Y130.21 E5.29933
G1 X121.296 Y130.831 E5.33977
G1 X120.921 Y131.215 E5.36655
G1 X120.432 Y131.647 E5.3991
G1 X119.943 Y132.011 E5.42952
G1 X119.062 Y132.556 E5.4812
G1 X118.586 Y132.803 E5.50796
G1 X118.258 Y132.925 E5.52541
G1 X116.933 Y133.346 E5.59478
G1 X116.161 Y133.501 E5.63406
G1 X115.294 Y133.578 E5.67748
G1 X114.975 Y133.592 E5.69342
G1 X84.772 Y133.582 E7.20025
G1 X84.304 Y133.551 E7.22365
G1 X83.422 Y133.435 E7.26803
G1 X82.856 Y133.314 E7.29691
G1 X82.24 Y133.129 E7.329
G1 X81.687 Y132.912 E7.35863
G1 X80.755 Y132.454 E7.41044
G1 X80.226 Y132.135 E7.44126
G1 X79.691 Y131.746 E7.47426
G1 X79.241 Y131.358 E7.5039
G1 X78.54 Y130.645 E7.55379
G1 X78.18 Y130.216 E7.58173
G1 X77.85 Y129.755 E7.61001
G1 X77.497 Y129.144 E7.64522
G1 X76.945 Y127.924 E7.71203
G1 X76.701 Y127.177 E7.75123
G1 X76.521 Y126.316 E7.79512
G1 X76.445 Y125.581 E7.83198
G1 X76.418 Y74.775 E10.3667
G1 X76.449 Y74.304 E10.39025
G1 X76.565 Y73.422 E10.43463
G1 X76.686 Y72.856 E10.46351
G1 X76.871 Y72.24 E10.4956
G1 X77.088 Y71.687 E10.52523
G1 X77.548 Y70.751 E10.57727
G1 X77.87 Y70.219 E10.60829
G1 X78.257 Y69.688 E10.64107
G1 X78.644 Y69.239 E10.67065
G0 X78.924 Y69.525
G1 X79.64 Y68.822 E10.72071
G1 X80.022 Y68.501 E10.7456
G1 X80.481 Y68.173 E10.77375
G1 X80.953 Y67.894 E10.8011
G1 X81.952 Y67.413 E10.85642
G1 X82.62 Y67.178 E10.89175
G1 X83.729 Y66.922 E10.94853
G1 X84.449 Y66.84 E10.98468
G1 X115.579 Y66.844 E12.53776
G1 X116.293 Y66.925 E12.57361
G1 X117.341 Y67.165 E12.62725
G1 X117.845 Y67.325 E12.65363
G1 X118.394 Y67.551 E12.68325
G1 X118.879 Y67.801 E12.71048
G1 X119.805 Y68.383 E12.76504
G1 X120.381 Y68.845 E12.80188
G1 X121.228 Y69.704 E12.86206
G1 X121.669 Y70.265 E12.89767
G1 X122.214 Y71.144 E12.94926
G1 X122.514 Y71.772 E12.98399
G1 X122.884 Y72.828 E13.03981
G1 X123.043 Y73.523 E13.07538
G1 X123.17 Y74.636 E13.13127
G1 X123.191 Y75 E13.14946
G1 X123.182 Y125.228 E15.65534
G1 X123.138 Y125.753 E15.68163
G1 X122.943 Y126.923 E15.7408
G1 X122.816 Y127.428 E15.76678
G1 X122.67 Y127.857 E15.78939
G1 X122.452 Y128.355 E15.81651
G1 X121.87 Y129.425 E15.87728
G1 X121.51 Y129.953 E15.90916
G1 X120.989 Y130.574 E15.94961
G1 X120.657 Y130.915 E15.97335
G1 X120.168 Y131.347 E16.0059
G1 X119.732 Y131.67 E16.03297
G1 X118.851 Y132.215 E16.08466
G1 X118.402 Y132.447 E16.10987
G1 X118.137 Y132.544 E16.12395
G1 X116.812 Y132.965 E16.19331
G1 X116.126 Y133.102 E16.22821
G1 X115.259 Y133.179 E16.27164
G1 X114.975 Y133.192 E16.28582
G1 X84.772 Y133.182 E17.79265
G1 X84.356 Y133.155 E17.81345
G1 X83.474 Y133.039 E17.85783
G1 X82.971 Y132.931 E17.8835
G1 X82.355 Y132.746 E17.91559
G1 X81.864 Y132.553 E17.94191
G1 X80.932 Y132.095 E17.99372
G1 X80.461 Y131.811 E18.02116
G1 X79.926 Y131.422 E18.05416
G1 X79.526 Y131.077 E18.08051
G1 X78.825 Y130.364 E18.1304
G1 X78.505 Y129.984 E18.15518
G1 X78.175 Y129.523 E18.18347
G1 X77.862 Y128.979 E18.21478
G1 X77.31 Y127.759 E18.28159
G1 X77.093 Y127.095 E18.31644
G1 X76.913 Y126.234 E18.36032
G1 X76.845 Y125.581 E18.39308
G1 X76.818 Y74.775 E20.9278
G1 X76.845 Y74.356 E20.94874
G1 X76.961 Y73.474 E20.99313
G1 X77.069 Y72.971 E21.01879
G1 X77.254 Y72.355 E21.05088
G1 X77.447 Y71.864 E21.0772
G1 X77.907 Y70.928 E21.12923
G1 X78.193 Y70.454 E21.15685
G1 X78.58 Y69.923 E21.18963
G1 X78.924 Y69.525 E21.21588
G1 F1500 E14.71588
G0 F1200 X80.81 Y71.199
G0 X81.754 Y72.039
G0 X81.64 Y72.317
G0 X81.562 Y72.255
;TYPE:WALL-INNER
G1 F1500 E21.21588
G1 F1200 X81.888 Y71.888 E21.24037
G1 X82.255 Y71.562 E21.26486
G1 X82.659 Y71.276 E21.28955
G1 X83.09 Y71.037 E21.31414
G1 X83.553 Y70.846 E21.33913
G1 X84.022 Y70.71 E21.36349
G1 X84.504 Y70.629 E21.38788
G1 X85.015 Y70.6 E21.41341
G1 X114.985 Y70.6 E22.90862
G1 X115.496 Y70.629 E22.93416
G1 X115.978 Y70.71 E22.95854
G1 X116.447 Y70.846 E22.9829
G1 X116.91 Y71.037 E23.00789
G1 X117.341 Y71.276 E23.03248
G1 X117.745 Y71.562 E23.05717
G1 X118.112 Y71.888 E23.08166
G1 X118.438 Y72.255 E23.10615
G1 X118.724 Y72.659 E23.13085
G1 X118.963 Y73.09 E23.15544
G1 X119.154 Y73.553 E23.18042
G1 X119.29 Y74.022 E23.20479
G1 X119.371 Y74.504 E23.22917
G1 X119.4 Y75.011 E23.2545
G1 X119.4 Y124.989 E25.74792
G1 X119.371 Y125.496 E25.77325
G1 X119.29 Y125.978 E25.79764
G1 X119.154 Y126.447 E25.822
G1 X118.963 Y126.91 E25.84699
G1 X118.724 Y127.341 E25.87157
G1 X118.438 Y127.745 E25.89627
G1 X118.112 Y128.112 E25.92076
G1 X117.745 Y128.438 E25.94525
G1 X117.341 Y128.724 E25.96995
G1 X116.91 Y128.963 E25.99453
G1 X116.447 Y129.154 E26.01952
G1 X115.978 Y129.29 E26.04388
G1 X115.496 Y129.371 E26.06827
G1 X114.985 Y129.4 E26.0938
G1 X85.015 Y129.4 E27.58901
G1 X84.504 Y129.371 E27.61455
G1 X84.022 Y129.29 E27.63893
G1 X83.553 Y129.154 E27.66329
G1 X83.09 Y128.963 E27.68828
G1 X82.659 Y128.724 E27.71287
G1 X82.255 Y128.438 E27.73756
G1 X81.888 Y128.112 E27.76205
G1 X81.562 Y127.745 E27.78654
G1 X81.276 Y127.341 E27.81124
G1 X81.037 Y126.91 E27.83583
G1 X80.846 Y126.447 E27.86081
G1 X80.71 Y125.978 E27.88518
G1 X80.629 Y125.496 E27.90956
G1 X80.6 Y124.989 E27.9349
G1 X80.6 Y75.011 E30.42831
G1 X80.629 Y74.504 E30.45364
G1 X80.71 Y74.022 E30.47803
G1 X80.846 Y73.553 E30.50239
G1 X81.037 Y73.09 E30.52738
G1 X81.276 Y72.659 E30.55196
G1 X81.562 Y72.255 E30.57666
G0 X81.249 Y72.005
;TYPE:WALL-OUTER
G1 X81.605 Y71.605 E30.60337
G1 X82.005 Y71.249 E30.63009
G1 X82.446 Y70.936 E30.65707
G1 X82.918 Y70.675 E30.68398
G1 X83.415 Y70.47 E30.7108
G1 X83.932 Y70.32 E30.73766
G1 X84.459 Y70.231 E30.76432
G1 X85.011 Y70.2 E30.7919
G1 X114.989 Y70.2 E32.28751
G1 X115.541 Y70.231 E32.3151
G1 X116.068 Y70.32 E32.34176
G1 X116.585 Y70.47 E32.36862
G1 X117.082 Y70.675 E32.39544
G1 X117.554 Y70.936 E32.42235
G1 X117.995 Y71.249 E32.44933
G1 X118.395 Y71.605 E32.47604
G1 X118.751 Y72.005 E32.50276
G1 X119.064 Y72.446 E32.52974
G1 X119.325 Y72.918 E32.55665
G1 X119.53 Y73.415 E32.58347
G1 X119.68 Y73.932 E32.61033
G1 X119.769 Y74.459 E32.63699
G1 X119.8 Y75.011 E32.66457
G1 X119.8 Y124.989 E35.15798
G1 X119.769 Y125.541 E35.18557
G1 X119.68 Y126.068 E35.21223
G1 X119.53 Y126.585 E35.23909
G1 X119.325 Y127.082 E35.26591
G1 X119.064 Y127.554 E35.29282
G1 X118.751 Y127.995 E35.3198
G1 X118.395 Y128.395 E35.34651
G1 X117.995 Y128.751 E35.37323
G1 X117.554 Y129.064 E35.40021
G1 X117.082 Y129.325 E35.42712
G1 X116.585 Y129.53 E35.45394
G1 X116.068 Y129.68 E35.4808
G1 X115.541 Y129.769 E35.50746
G1 X114.989 Y129.8 E35.53504
G1 X85.011 Y129.8 E37.03065
G1 X84.459 Y129.769 E37.05824
G1 X83.932 Y129.68 E37.0849
G1 X83.415 Y129.53 E37.11176
G1 X82.918 Y129.325 E37.13858
G1 X82.446 Y129.064 E37.16549
G1 X82.005 Y128.751 E37.19247
G1 X81.605 Y128.395 E37.21918
G1 X81.249 Y127.995 E37.2459
G1 X80.936 Y127.554 E37.27288
G1 X80.675 Y127.082 E37.29979
G1 X80.47 Y126.585 E37.32661
G1 X80.32 Y126.068 E37.35346
G1 X80.231 Y125.541 E37.38013
G1 X80.2 Y124.989 E37.40771
G1 X80.2 Y75.011 E39.90112
G1 X80.231 Y74.459 E39.92871
G1 X80.32 Y73.932 E39.95537
G1 X80.47 Y73.415 E39.98223
G1 X80.675 Y72.918 E40.00905
G1 X80.936 Y72.446 E40.03596
G1 X81.249 Y72.005 E40.06294
G0 X81.382 Y71.856
G0 X81.835 Y72.218
;TYPE:SKIN
G1 X119.219 Y109.602 E42.70058
G1 X119.289 Y109.672
G0 X119.219 Y109.037
G1 X82.112 Y71.93 E45.31868
G1 X82.042 Y71.86
G0 X82.416 Y71.668
G1 X119.219 Y108.471 E47.91533
G1 X119.289 Y108.541
G0 X119.219 Y107.905
G1 X82.747 Y71.433 E50.48863
G1 X82.677 Y71.363
G0 X83.11 Y71.231
G1 X119.219 Y107.34 E53.03631
G1 X119.289 Y107.41
G0 X119.219 Y106.774
G1 X83.505 Y71.059 E55.55616
G1 X83.435 Y70.989
G0 X83.934 Y70.923
G1 X119.219 Y106.208 E58.04571
G1 X119.289 Y106.278
G0 X119.219 Y105.643
G1 X84.405 Y70.828 E60.50206
G1 X84.335 Y70.758
G0 X84.927 Y70.785
G1 X119.219 Y105.077 E62.92155
G1 X119.289 Y105.147
G0 X119.219 Y104.511
G1 X85.487 Y70.779 E65.30152
G1 X85.417 Y70.709
G0 X86.053 Y70.779
G1 X119.219 Y103.946 E67.6416
G1 X119.289 Y104.016
G0 X119.219 Y103.38
G1 X86.619 Y70.779 E69.94174
G1 X86.549 Y70.709
G0 X87.184 Y70.779
G1 X119.219 Y102.814 E72.20198
G1 X119.289 Y102.884
G0 X119.219 Y102.249
G1 X87.75 Y70.779 E74.42233
G1 X87.68 Y70.709
G0 X88.316 Y70.779
G1 X119.219 Y101.683 E76.60273
G1 X119.289 Y101.753
G0 X119.219 Y101.117
G1 X88.881 Y70.779 E78.74324
G1 X88.811 Y70.709
G0 X89.447 Y70.779
G1 X119.219 Y100.551 E80.84382
G1 X119.289 Y100.621
G0 X119.219 Y99.986
G1 X90.013 Y70.779 E82.9045
G1 X89.943 Y70.709
G0 X90.578 Y70.779
G1 X119.219 Y99.42 E84.92527
G1 X119.289 Y99.49
G0 X119.219 Y98.854
G1 X91.144 Y70.779 E86.90612
G1 X91.074 Y70.709
G0 X91.71 Y70.779
G1 X119.219 Y98.289 E88.84706
G1 X119.289 Y98.359
G0 X119.219 Y97.723
G1 X92.276 Y70.779 E90.74807
G1 X92.206 Y70.709
G0 X92.841 Y70.779
G1 X119.219 Y97.157 E92.60918
G1 X119.289 Y97.227
G0 X119.219 Y96.592
G1 X93.407 Y70.779 E94.43039
G1 X93.337 Y70.709
G0 X93.973 Y70.779
G1 X119.219 Y96.026 E96.21167
G1 X119.289 Y96.096
G0 X119.219 Y95.46
G1 X94.538 Y70.779 E97.95305
G1 X94.468 Y70.709
G0 X95.104 Y70.779
G1 X119.219 Y94.895 E99.65452
G1 X119.289 Y94.965
G0 X119.219 Y94.329
G1 X95.67 Y70.779 E101.31607
G1 X95.6 Y70.709
G0 X96.235 Y70.779
G1 X119.219 Y93.763 E102.93771
G1 X119.289 Y93.833
G0 X119.219 Y93.198
G1 X96.801 Y70.779 E104.51946
G1 X96.731 Y70.709
G0 X97.367 Y70.779
G1 X119.219 Y92.632 E106.06127
G1 X119.289 Y92.702
G0 X119.219 Y92.066
G1 X97.932 Y70.779 E107.56319
G1 X97.862 Y70.709
G0 X98.498 Y70.779
G1 X119.219 Y91.501 E109.0252
G1 X119.289 Y91.571
G0 X119.219 Y90.935
G1 X99.064 Y70.779 E110.44728
G1 X98.994 Y70.709
G0 X99.629 Y70.779
G1 X119.219 Y90.369 E111.82946
G1 X119.289 Y90.439
G0 X119.219 Y89.803
G1 X100.195 Y70.779 E113.17171
G1 X100.125 Y70.709
G0 X100.761 Y70.779
G1 X119.219 Y89.238 E114.47405
G1 X119.289 Y89.308
G0 X119.219 Y88.672
G1 X101.326 Y70.779 E115.7365
G1 X101.256 Y70.709
G0 X101.892 Y70.779
G1 X119.219 Y88.106 E116.95901
G1 X119.289 Y88.176
G0 X119.219 Y87.541
G1 X102.458 Y70.779 E118.14163
G1 X102.388 Y70.709
G0 X103.024 Y70.779
G1 X119.219 Y86.975 E119.28431
G1 X119.289 Y87.045
G0 X119.219 Y86.409
G1 X103.589 Y70.779 E120.38709
G1 X103.519 Y70.709
G0 X104.155 Y70.779
G1 X119.219 Y85.844 E121.44997
G1 X119.289 Y85.914
G0 X119.219 Y85.278
G1 X104.721 Y70.779 E122.47292
G1 X104.651 Y70.709
G0 X105.286 Y70.779
G1 X119.219 Y84.712 E123.45597
G1 X119.289 Y84.782
G0 X119.219 Y84.147
G1 X105.852 Y70.779 E124.39912
G1 X105.782 Y70.709
G0 X106.418 Y70.779
G1 X119.219 Y83.581 E125.30233
G1 X119.289 Y83.651
G0 X119.219 Y83.015
G1 X106.983 Y70.779 E126.16565
G1 X106.913 Y70.709
G0 X107.549 Y70.779
G1 X119.219 Y82.45 E126.98906
G1 X119.289 Y82.52
G0 X119.219 Y81.884
G1 X108.115 Y70.779 E127.77255
G1 X108.045 Y70.709
G0 X108.68 Y70.779
G1 X119.219 Y81.318 E128.51613
G1 X119.289 Y81.388
G0 X119.219 Y80.753
G1 X109.246 Y70.779 E129.21981
G1 X109.176 Y70.709
G0 X109.812 Y70.779
G1 X119.219 Y80.187 E129.88356
G1 X119.289 Y80.257
G0 X119.219 Y79.621
G1 X110.377 Y70.779 E130.50741
G1 X110.307 Y70.709
G0 X110.943 Y70.779
G1 X119.219 Y79.055 E131.09133
G1 X119.289 Y79.125
G0 X119.219 Y78.49
G1 X111.509 Y70.779 E131.63535
G1 X111.439 Y70.709
G0 X112.075 Y70.779
G1 X119.219 Y77.924 E132.13943
G1 X119.289 Y77.994
G0 X119.219 Y77.358
G1 X112.64 Y70.779 E132.60362
G1 X112.57 Y70.709
G0 X113.206 Y70.779
G1 X119.219 Y76.793 E133.0279
G1 X119.289 Y76.863
G0 X119.219 Y76.227
G1 X113.772 Y70.779 E133.41225
G1 X113.702 Y70.709
G0 X114.337 Y70.779
G1 X119.219 Y75.661 E133.7567
G1 X119.289 Y75.731
G0 X119.219 Y75.096
G1 X114.903 Y70.779 E134.06125
G1 X114.833 Y70.709
G0 X115.502 Y70.813
G1 X119.186 Y74.497 E134.32118
G1 X119.256 Y74.567
G0 X119.03 Y73.775
G1 X116.223 Y70.968 E134.51923
G1 X116.153 Y70.898
G0 X117.26 Y71.439
G1 X118.56 Y72.74 E134.61099
G1 X118.63 Y72.81
G0 X81.584 Y72.533
G1 X119.219 Y110.168 E137.26634
G1 X119.289 Y110.238
G0 X119.219 Y110.734
G1 X81.36 Y72.875 E139.9375
G1 X81.29 Y72.805
G0 X81.165 Y73.246
G1 X119.219 Y111.3 E142.62241
G1 X119.289 Y111.37
G0 X119.219 Y111.865
G1 X81.004 Y73.65 E145.31869
G1 X80.934 Y73.58
G0 X80.879 Y74.091
G1 X119.219 Y112.431 E148.02378
G1 X119.289 Y112.501
G0 X119.219 Y112.997
G1 X80.803 Y74.581 E150.73424
G1 X80.733 Y74.511
G0 X80.779 Y75.122
G1 X119.219 Y113.562 E153.44639
G1 X119.289 Y113.632
G0 X119.219 Y114.128
G1 X80.779 Y75.688 E156.15854
G1 X80.709 Y75.618
G0 X80.779 Y76.253
G1 X119.219 Y114.694 E158.87072
G1 X119.289 Y114.764
G0 X119.219 Y115.259
G1 X80.779 Y76.819 E161.58287
G1 X80.709 Y76.749
G0 X80.779 Y77.385
G1 X119.219 Y115.825 E164.29502
G1 X119.289 Y115.895
G0 X119.219 Y116.391
G1 X80.779 Y77.95 E167.0072
G1 X80.709 Y77.88
G0 X80.779 Y78.516
G1 X119.219 Y116.956 E169.71935
G1 X119.289 Y117.026
G0 X119.219 Y117.522
G1 X80.779 Y79.082 E172.4315
G1 X80.709 Y79.012
G0 X80.779 Y79.647
G1 X119.219 Y118.088 E175.14369
G1 X119.289 Y118.158
G0 X119.219 Y118.653
G1 X80.779 Y80.213 E177.85584
G1 X80.709 Y80.143
G0 X80.779 Y80.779
G1 X119.219 Y119.219 E180.56799
G1 X119.289 Y119.289
G0 X119.219 Y119.785
G1 X80.779 Y81.344 E183.28017
G1 X80.709 Y81.274
G0 X80.779 Y81.91
G1 X119.219 Y120.35 E185.99232
G1 X119.289 Y120.42
G0 X119.219 Y120.916
G1 X80.779 Y82.476 E188.70447
G1 X80.709 Y82.406
G0 X80.779 Y83.041
G1 X119.219 Y121.482 E191.41666
G1 X119.289 Y121.552
G0 X119.219 Y122.048
G1 X80.779 Y83.607 E194.12884
G1 X80.709 Y83.537
G0 X80.779 Y84.173
G1 X119.219 Y122.613 E196.84099
G1 X119.289 Y122.683
G0 X119.219 Y123.179
G1 X80.779 Y84.738 E199.55318
G1 X80.709 Y84.668
G0 X80.779 Y85.304
G1 X119.219 Y123.745 E202.26536
G1 X119.289 Y123.815
G0 X119.219 Y124.31
G1 X80.779 Y85.87 E204.97751
G1 X80.709 Y85.8
G0 X80.779 Y86.436
G1 X119.219 Y124.876 E207.68966
G1 X119.289 Y124.946
G0 X119.195 Y125.418
G1 X80.779 Y87.001 E210.40015
G1 X80.709 Y86.931
G0 X80.779 Y87.567
G1 X119.119 Y125.908 E213.10528
G1 X119.189 Y125.978
G0 X118.995 Y126.349
G1 X80.779 Y88.133 E215.80163
G1 X80.709 Y88.063
G0 X80.779 Y88.698
G1 X118.833 Y126.753 E218.48658
G1 X118.903 Y126.823
G0 X118.638 Y127.123
G1 X80.779 Y89.264 E221.15773
G1 X80.709 Y89.194
G0 X80.779 Y89.83
G1 X118.414 Y127.465 E223.81309
G1 X118.484 Y127.535
G0 X118.163 Y127.78
G1 X80.779 Y90.395 E226.45077
G1 X80.709 Y90.325
G0 X80.779 Y90.961
G1 X117.886 Y128.069 E229.0689
G1 X117.956 Y128.139
G0 X117.582 Y128.33
G1 X80.779 Y91.527 E231.66555
G1 X80.709 Y91.457
G0 X80.779 Y92.092
G1 X117.251 Y128.565 E234.23888
G1 X117.321 Y128.635
G0 X116.888 Y128.768
G1 X80.779 Y92.658 E236.7866
G1 X80.709 Y92.588
G0 X80.779 Y93.224
G1 X116.494 Y128.939 E239.30649
G1 X116.564 Y129.009
G0 X116.065 Y129.075
G1 X80.779 Y93.789 E241.79611
G1 X80.709 Y93.719
G0 X80.779 Y94.355
G1 X115.594 Y129.17 E244.25249
G1 X115.664 Y129.24
G0 X115.071 Y129.213
G1 X80.779 Y94.921 E246.67198
G1 X80.709 Y94.851
G0 X80.779 Y95.486
G1 X114.51 Y129.218 E249.05192
G1 X114.58 Y129.288
G0 X113.945 Y129.218
G1 X80.779 Y96.052 E251.39196
G1 X80.709 Y95.982
G0 X80.779 Y96.618
G1 X113.379 Y129.218 E253.69206
G1 X113.449 Y129.288
