;FLAVOR:RepRap
;TIME:4520
;Filament used: 3.21297m
;Layer height: 0.2
;Generated with Cura_SteamEngine 2.6.0
M190 S50
M104 S195
M109 S195
G28 ;Home
G1 Z15.0 F6000 ;Move the platform down 15mm
;Prime the extruder
G92 E0
G1 F200 E3
G92 E0
;LAYER_COUNT:326
;LAYER:0
M107
G0 F3600 X86.061 Y87.164 Z0.3
;TYPE:SKIRT
G1 F1200 X88.053 Y85.297 E0.13621
G1 X88.55 Y84.901 E0.16791
G1 X90.179 Y83.801 E0.26598
G1 X90.571 Y83.567 E0.28875
G1 X91.94 Y82.855 E0.36574
G1 X92.227 Y82.72 E0.38156
G1 X93.392 Y82.227 E0.44467
G1 X93.886 Y82.055 E0.47077
G1 X96.029 Y81.463 E0.58169
G1 X96.52 Y81.36 E0.60672
G1 X97.912 Y81.158 E0.67689
G1 X98.292 Y81.122 E0.69594
G1 X99.756 Y81.051 E0.76906
G1 X100.198 Y81.054 E0.79111
G1 X102.386 Y81.19 E0.90048
G1 X102.946 Y81.265 E0.92867
G1 X104.487 Y81.583 E1.00717
G1 X104.806 Y81.662 E1.02357
G1 X106.151 Y82.057 E1.0935
G1 X106.591 Y82.215 E1.11683
G1 X108.05 Y82.836 E1.19594
G1 X108.35 Y82.978 E1.2125
G1 X109.432 Y83.549 E1.27353
G1 X109.753 Y83.738 E1.29212
G1 X111.155 Y84.654 E1.37567
G1 X111.555 Y84.953 E1.40059
G1 X112.772 Y85.986 E1.48022
G1 X113.062 Y86.258 E1.50006
G1 X114.261 Y87.5 E1.58619
G1 X114.635 Y87.948 E1.6153
G1 X116.164 Y90.082 E1.74628
G1 X116.449 Y90.545 E1.7734
G1 X117.054 Y91.691 E1.83805
G1 X117.231 Y92.072 E1.85901
G1 X117.896 Y93.734 E1.94832
G1 X118.055 Y94.22 E1.97383
G1 X118.624 Y96.424 E2.0874
G1 X118.72 Y96.93 E2.11309
G1 X118.904 Y98.408 E2.1874
G1 X118.934 Y98.823 E2.20816
G1 X118.963 Y100.282 E2.28096
G1 X118.946 Y100.743 E2.30397
G1 X118.727 Y103.023 E2.41825
G1 X118.635 Y103.575 E2.44617
G1 X118.292 Y105.004 E2.51948
G1 X118.21 Y105.295 E2.53457
G1 X117.801 Y106.566 E2.60118
G1 X117.627 Y107.012 E2.62507
G1 X116.841 Y108.722 E2.71896
G1 X116.625 Y109.129 E2.74195
G1 X115.856 Y110.394 E2.8158
G1 X115.648 Y110.702 E2.83435
G1 X114.719 Y111.952 E2.91205
G1 X114.365 Y112.366 E2.93922
G1 X112.561 Y114.206 E3.06778
G1 X112.105 Y114.606 E3.09804
G1 X110.845 Y115.551 E3.17662
G1 X110.576 Y115.736 E3.19291
G1 X109.421 Y116.463 E3.26099
G1 X108.994 Y116.697 E3.28529
G1 X107.276 Y117.506 E3.38003
G1 X106.728 Y117.716 E3.4093
G1 X104.072 Y118.518 E3.54772
G1 X103.42 Y118.657 E3.58098
G1 X101.458 Y118.906 E3.67965
G1 X101.026 Y118.937 E3.70126
G1 X99.697 Y118.961 E3.76757
G1 X99.263 Y118.946 E3.78924
G1 X97.37 Y118.774 E3.88407
G1 X96.891 Y118.701 E3.90824
G1 X95.515 Y118.405 E3.97846
G1 X95.151 Y118.308 E3.99726
G1 X93.205 Y117.693 E4.09908
G1 X92.727 Y117.507 E4.12467
G1 X91.27 Y116.831 E4.2048
G1 X90.852 Y116.607 E4.22846
G1 X89.485 Y115.763 E4.30861
G1 X89.16 Y115.539 E4.3283
G1 X87.789 Y114.493 E4.41434
G1 X87.456 Y114.209 E4.43617
G1 X86.548 Y113.344 E4.49874
G1 X86.342 Y113.133 E4.51345
G1 X85.49 Y112.192 E4.57678
G1 X85.245 Y111.894 E4.59603
G1 X84.273 Y110.587 E4.67729
G1 X83.964 Y110.102 E4.70598
G1 X82.819 Y107.983 E4.82614
G1 X82.636 Y107.597 E4.84745
G1 X82.297 Y106.769 E4.89209
G1 X82.143 Y106.318 E4.91587
G1 X81.409 Y103.66 E5.05344
G1 X81.291 Y103.051 E5.08439
G1 X81.121 Y101.57 E5.15876
G1 X81.098 Y101.268 E5.17387
G1 X81.046 Y99.921 E5.24112
G1 X81.053 Y99.489 E5.26268
G1 X81.168 Y97.836 E5.34535
G1 X81.226 Y97.377 E5.36843
G1 X81.498 Y95.925 E5.44213
G1 X81.565 Y95.631 E5.45717
G1 X81.901 Y94.371 E5.52223
G1 X82.026 Y93.984 E5.54252
G1 X82.571 Y92.547 E5.61919
G1 X82.801 Y92.046 E5.6467
G1 X83.905 Y90.027 E5.7615
G1 X84.202 Y89.564 E5.78894
G1 X85.583 Y87.701 E5.90464
G1 X86.061 Y87.164 E5.94051
G0 F3600 X86.334 Y87.456
G1 F1200 X88.326 Y85.589 E6.07672
G1 X88.773 Y85.233 E6.10523
G1 X90.402 Y84.133 E6.20329
G1 X90.756 Y83.922 E6.22385
G1 X92.125 Y83.21 E6.30084
G1 X92.383 Y83.089 E6.31505
G1 X93.548 Y82.596 E6.37817
G1 X93.992 Y82.441 E6.40163
G1 X96.135 Y81.849 E6.51255
G1 X96.577 Y81.756 E6.53508
G1 X97.969 Y81.554 E6.60526
G1 X98.312 Y81.521 E6.62245
G1 X99.776 Y81.45 E6.69557
G1 X100.173 Y81.453 E6.71538
G1 X102.361 Y81.589 E6.82475
G1 X102.866 Y81.656 E6.85016
G1 X104.407 Y81.974 E6.92867
G1 X104.693 Y82.046 E6.94338
G1 X106.038 Y82.441 E7.01332
G1 X106.434 Y82.583 E7.0343
G1 X107.893 Y83.204 E7.11341
G1 X108.163 Y83.332 E7.12832
G1 X109.245 Y83.903 E7.18936
G1 X109.534 Y84.073 E7.20608
G1 X110.936 Y84.989 E7.28964
G1 X111.297 Y85.258 E7.3121
G1 X112.514 Y86.291 E7.39174
G1 X112.774 Y86.536 E7.40956
G1 X113.973 Y87.778 E7.49569
G1 X114.309 Y88.181 E7.52186
G1 X115.838 Y90.315 E7.65284
G1 X116.096 Y90.731 E7.67726
G1 X116.701 Y91.877 E7.74191
G1 X116.859 Y92.221 E7.7608
G1 X117.524 Y93.883 E7.85011
G1 X117.668 Y94.32 E7.87306
G1 X118.237 Y96.524 E7.98662
G1 X118.323 Y96.979 E8.00973
G1 X118.507 Y98.457 E8.08403
G1 X118.534 Y98.83 E8.10269
G1 X118.563 Y100.289 E8.17549
G1 X118.548 Y100.705 E8.19626
G1 X118.329 Y102.985 E8.31054
G1 X118.246 Y103.481 E8.33563
G1 X117.903 Y104.91 E8.40894
G1 X117.829 Y105.173 E8.42257
G1 X117.42 Y106.444 E8.48919
G1 X117.264 Y106.845 E8.51065
G1 X116.478 Y108.555 E8.60455
G1 X116.283 Y108.921 E8.62524
G1 X115.514 Y110.186 E8.69909
G1 X115.327 Y110.463 E8.71577
G1 X114.398 Y111.713 E8.79347
G1 X114.08 Y112.086 E8.81792
G1 X112.276 Y113.926 E8.94648
G1 X111.865 Y114.286 E8.97374
G1 X110.605 Y115.231 E9.05231
G1 X110.363 Y115.398 E9.06698
G1 X109.208 Y116.125 E9.13507
G1 X108.824 Y116.335 E9.15691
G1 X107.106 Y117.144 E9.25165
G1 X106.613 Y117.333 E9.27799
G1 X103.957 Y118.135 E9.41641
G1 X103.369 Y118.26 E9.4464
G1 X101.407 Y118.509 E9.54507
G1 X101.019 Y118.537 E9.56447
G1 X99.69 Y118.561 E9.63079
G1 X99.299 Y118.547 E9.65031
G1 X97.406 Y118.375 E9.74514
G1 X96.975 Y118.309 E9.76689
G1 X95.599 Y118.013 E9.83711
G1 X95.271 Y117.927 E9.85403
G1 X93.325 Y117.312 E9.95585
G1 X92.895 Y117.145 E9.97886
G1 X91.438 Y116.469 E10.05899
G1 X91.062 Y116.266 E10.08031
G1 X89.695 Y115.422 E10.16046
G1 X89.402 Y115.221 E10.17819
G1 X88.031 Y114.175 E10.26422
G1 X87.732 Y113.92 E10.28383
G1 X86.824 Y113.055 E10.3464
G1 X86.638 Y112.864 E10.3597
G1 X85.786 Y111.923 E10.42303
G1 X85.566 Y111.655 E10.44033
G1 X84.594 Y110.348 E10.52159
G1 X84.316 Y109.911 E10.54743
G1 X83.171 Y107.792 E10.66759
G1 X83.006 Y107.445 E10.68676
G1 X82.667 Y106.617 E10.7314
G1 X82.529 Y106.211 E10.75279
G1 X81.795 Y103.553 E10.89036
G1 X81.688 Y103.006 E10.91817
G1 X81.518 Y101.525 E10.99254
G1 X81.498 Y101.253 E11.00615
G1 X81.446 Y99.906 E11.0734
G1 X81.452 Y99.517 E11.09281
G1 X81.567 Y97.864 E11.17548
G1 X81.62 Y97.451 E11.19625
G1 X81.892 Y95.999 E11.26995
G1 X81.952 Y95.734 E11.28351
G1 X82.288 Y94.474 E11.34857
G1 X82.4 Y94.125 E11.36685
G1 X82.945 Y92.688 E11.44353
G1 X83.152 Y92.238 E11.46824
G1 X84.256 Y90.219 E11.58304
G1 X84.523 Y89.802 E11.60775
G1 X85.904 Y87.939 E11.72345
G1 X86.334 Y87.456 E11.75571
G0 F3600 X86.608 Y87.748
G1 F1200 X88.6 Y85.881 E11.89192
G1 X88.997 Y85.564 E11.91726
G1 X90.626 Y84.464 E12.01533
G1 X90.94 Y84.277 E12.03356
G1 X92.309 Y83.565 E12.11054
G1 X92.539 Y83.457 E12.12322
G1 X93.704 Y82.964 E12.18633
G1 X94.099 Y82.827 E12.20719
G1 X96.242 Y82.235 E12.31811
G1 X96.634 Y82.152 E12.3381
G1 X98.026 Y81.95 E12.40828
G1 X98.331 Y81.921 E12.42356
G1 X99.795 Y81.85 E12.49669
G1 X100.149 Y81.852 E12.51435
G1 X102.337 Y81.988 E12.62372
G1 X102.785 Y82.048 E12.64627
G1 X104.326 Y82.366 E12.72477
G1 X104.581 Y82.43 E12.73789
G1 X105.926 Y82.825 E12.80782
G1 X106.277 Y82.951 E12.82643
G1 X107.736 Y83.572 E12.90554
G1 X107.977 Y83.686 E12.91884
G1 X109.059 Y84.257 E12.97987
G1 X109.315 Y84.408 E12.9947
G1 X110.717 Y85.324 E13.07825
G1 X111.038 Y85.563 E13.09822
G1 X112.255 Y86.596 E13.17786
G1 X112.486 Y86.813 E13.19367
G1 X113.685 Y88.055 E13.2798
G1 X113.984 Y88.414 E13.30311
G1 X115.513 Y90.548 E13.43408
G1 X115.742 Y90.918 E13.45579
G1 X116.347 Y92.064 E13.52044
G1 X116.488 Y92.369 E13.53721
G1 X117.153 Y94.031 E13.62651
G1 X117.28 Y94.42 E13.64693
G1 X117.849 Y96.624 E13.76049
G1 X117.926 Y97.029 E13.78106
G1 X118.11 Y98.507 E13.85537
G1 X118.134 Y98.838 E13.87192
G1 X118.163 Y100.297 E13.94473
G1 X118.149 Y100.667 E13.9632
G1 X117.93 Y102.947 E14.07747
G1 X117.857 Y103.388 E14.09978
G1 X117.514 Y104.817 E14.17309
G1 X117.448 Y105.05 E14.18517
G1 X117.039 Y106.321 E14.25179
G1 X116.901 Y106.677 E14.27084
G1 X116.115 Y108.387 E14.36473
G1 X115.941 Y108.713 E14.38317
G1 X115.172 Y109.978 E14.45702
G1 X115.006 Y110.225 E14.47187
G1 X114.077 Y111.475 E14.54957
G1 X113.794 Y111.806 E14.5713
G1 X111.99 Y113.646 E14.69985
G1 X111.625 Y113.966 E14.72407
G1 X110.365 Y114.911 E14.80265
G1 X110.15 Y115.059 E14.81567
G1 X108.995 Y115.786 E14.88376
G1 X108.653 Y115.973 E14.90321
G1 X106.935 Y116.782 E14.99794
G1 X106.497 Y116.95 E15.02135
G1 X103.841 Y117.752 E15.15977
G1 X103.319 Y117.864 E15.1864
G1 X101.357 Y118.113 E15.28507
G1 X101.012 Y118.137 E15.30232
G1 X99.683 Y118.161 E15.36864
G1 X99.335 Y118.149 E15.38601
G1 X97.442 Y117.977 E15.48084
G1 X97.059 Y117.918 E15.50018
G1 X95.683 Y117.622 E15.5704
G1 X95.392 Y117.545 E15.58541
G1 X93.446 Y116.93 E15.68723
G1 X93.063 Y116.782 E15.70772
G1 X91.606 Y116.106 E15.78785
G1 X91.272 Y115.926 E15.80678
G1 X89.905 Y115.082 E15.88693
G1 X89.645 Y114.903 E15.90268
G1 X88.274 Y113.857 E15.98871
G1 X88.008 Y113.63 E16.00616
G1 X87.1 Y112.765 E16.06872
G1 X86.935 Y112.596 E16.08051
G1 X86.083 Y111.655 E16.14384
G1 X85.887 Y111.417 E16.15922
G1 X84.915 Y110.11 E16.24048
G1 X84.668 Y109.721 E16.26347
G1 X83.523 Y107.602 E16.38364
G1 X83.377 Y107.293 E16.40069
G1 X83.038 Y106.465 E16.44532
G1 X82.914 Y106.105 E16.46432
G1 X82.18 Y103.447 E16.60189
G1 X82.086 Y102.96 E16.62664
G1 X81.916 Y101.479 E16.70101
G1 X81.897 Y101.237 E16.71312
G1 X81.845 Y99.89 E16.78037
G1 X81.851 Y99.545 E16.79759
G1 X81.966 Y97.892 E16.88025
G1 X82.013 Y97.525 E16.89871
G1 X82.285 Y96.073 E16.97241
G1 X82.338 Y95.837 E16.98448
G1 X82.674 Y94.577 E17.04954
G1 X82.774 Y94.267 E17.06579
G1 X83.319 Y92.83 E17.14247
G1 X83.503 Y92.43 E17.16443
G1 X84.607 Y90.411 E17.27924
G1 X84.844 Y90.04 E17.3012
G1 X86.225 Y88.177 E17.4169
G1 X86.608 Y87.748 E17.44559
G1 F1500 E10.94559
G0 F3600 X88.497 Y89.42
G0 X89.439 Y90.292
G0 X89.846 Y90.015
G0 X89.776 Y89.944
;TYPE:WALL-INNER
G1 F1500 E17.44559
G1 F1200 X90.235 Y89.47 E17.47851
G1 X90.743 Y89.047 E17.51149
G1 X91.255 Y88.593 E17.54563
G1 X91.453 Y88.449 E17.55784
G1 X91.973 Y88.115 E17.58867
G1 X92.518 Y87.742 E17.62162
G1 X93.783 Y87.054 E17.69346
G1 X94.384 Y86.803 E17.72596
G1 X95.011 Y86.518 E17.76032
G1 X95.369 Y86.397 E17.77917
G1 X96.397 Y86.079 E17.83286
G1 X96.696 Y86.011 E17.84815
G1 X97.779 Y85.791 E17.90329
G1 X99.223 Y85.646 E17.97569
G1 X100.145 Y85.646 E18.02169
G1 X100.641 Y85.634 E18.04644
G1 X101.016 Y85.663 E18.06521
G1 X102.046 Y85.766 E18.11685
G1 X102.913 Y85.95 E18.16107
G1 X103.554 Y86.078 E18.19368
G1 X104.183 Y86.273 E18.22654
G1 X104.848 Y86.459 E18.26099
G1 X105.183 Y86.591 E18.27895
G1 X105.631 Y86.801 E18.30363
G1 X106.248 Y87.059 E18.337
G1 X106.82 Y87.373 E18.36955
G1 X107.438 Y87.687 E18.40414
G1 X107.705 Y87.858 E18.41996
G1 X108.628 Y88.487 E18.47568
G1 X108.91 Y88.716 E18.4938
G1 X109.272 Y89.044 E18.51818
G1 X109.782 Y89.471 E18.55136
G1 X110.24 Y89.942 E18.58414
G1 X110.736 Y90.423 E18.61861
G1 X110.939 Y90.662 E18.63425
G1 X111.259 Y91.096 E18.66115
G1 X111.672 Y91.611 E18.69409
G1 X112.03 Y92.168 E18.72712
G1 X112.418 Y92.733 E18.76132
G1 X112.598 Y93.064 E18.78011
G1 X113.076 Y93.997 E18.83241
G1 X113.21 Y94.306 E18.84922
G1 X113.384 Y94.808 E18.87572
G1 X113.628 Y95.425 E18.90883
G1 X113.803 Y96.059 E18.94164
G1 X114.009 Y96.718 E18.97609
G1 X114.081 Y97.077 E18.99435
G1 X114.268 Y98.127 E19.04756
G1 X114.303 Y98.492 E19.06586
G1 X114.383 Y99.533 E19.11794
G1 X114.348 Y101.009 E19.1916
G1 X114.234 Y101.92 E19.23741
G1 X114.186 Y102.408 E19.26187
G1 X114.111 Y102.779 E19.28075
G1 X113.986 Y103.244 E19.30478
G1 X113.841 Y103.883 E19.33747
G1 X113.629 Y104.516 E19.37077
G1 X113.42 Y105.195 E19.40622
G1 X112.85 Y106.472 E19.47598
G1 X112.669 Y106.804 E19.49485
G1 X112.408 Y107.22 E19.51935
G1 X112.076 Y107.797 E19.55256
G1 X111.693 Y108.327 E19.58519
G1 X111.299 Y108.904 E19.62004
G1 X111.084 Y109.162 E19.6368
G1 X110.731 Y109.533 E19.66235
G1 X110.297 Y110.027 E19.69515
G1 X109.81 Y110.478 E19.72827
G1 X109.317 Y110.961 E19.7627
G1 X109.039 Y111.182 E19.78042
G1 X108.63 Y111.468 E19.80532
G1 X108.106 Y111.868 E19.83821
G1 X107.54 Y112.212 E19.87125
G1 X106.959 Y112.588 E19.90578
G1 X106.636 Y112.754 E19.9239
G1 X105.683 Y113.212 E19.97665
G1 X105.343 Y113.347 E19.9949
G1 X104.867 Y113.5 E20.01984
G1 X104.24 Y113.729 E20.05314
G1 X103.605 Y113.889 E20.08582
G1 X102.938 Y114.081 E20.12044
G1 X102.618 Y114.137 E20.13665
G1 X101.53 Y114.302 E20.19155
G1 X100.091 Y114.383 E20.26346
G1 X98.66 Y114.316 E20.33493
G1 X98.299 Y114.27 E20.35308
G1 X97.25 Y114.113 E20.406
G1 X96.901 Y114.033 E20.42387
G1 X96.418 Y113.89 E20.449
G1 X95.776 Y113.728 E20.48203
G1 X95.156 Y113.501 E20.51497
G1 X94.508 Y113.285 E20.54905
G1 X94.16 Y113.128 E20.56809
G1 X93.215 Y112.674 E20.6204
G1 X92.89 Y112.485 E20.63916
G1 X92.485 Y112.215 E20.66344
G1 X91.909 Y111.865 E20.69707
G1 X91.393 Y111.471 E20.72946
G1 X90.836 Y111.073 E20.76361
G1 X90.576 Y110.847 E20.7808
G1 X90.212 Y110.482 E20.80651
G1 X89.725 Y110.032 E20.8396
G1 X89.291 Y109.537 E20.87244
G1 X88.818 Y109.029 E20.90707
G1 X88.613 Y108.763 E20.92382
G1 X87.973 Y107.872 E20.97855
G1 X87.83 Y107.64 E20.99215
G1 X87.245 Y106.627 E21.05051
G1 X86.661 Y105.347 E21.1207
G1 X86.53 Y104.986 E21.13986
G1 X86.393 Y104.52 E21.1641
G1 X86.177 Y103.88 E21.19779
G1 X86.035 Y103.248 E21.23011
G1 X85.865 Y102.588 E21.26411
G1 X85.808 Y102.205 E21.28343
G1 X85.767 Y101.731 E21.30717
G1 X85.684 Y101.079 E21.33996
G1 X85.668 Y100.415 E21.3731
G1 X85.631 Y99.703 E21.40867
G1 X85.73 Y98.296 E21.47903
G1 X85.784 Y97.945 E21.49675
G1 X85.889 Y97.455 E21.52175
G1 X86.005 Y96.795 E21.55519
G1 X86.183 Y96.169 E21.58765
G1 X86.35 Y95.498 E21.62215
G1 X86.866 Y94.167 E21.69337
G1 X87.01 Y93.862 E21.7102
G1 X87.505 Y92.894 E21.76444
G1 X87.99 Y92.165 E21.80812
G1 X88.346 Y91.611 E21.84098
G1 X88.757 Y91.1 E21.87369
G1 X89.174 Y90.548 E21.90821
G1 X89.425 Y90.278 E21.9266
G1 X89.776 Y89.944 E21.95077
G0 F3600 X89.495 Y89.66
;TYPE:WALL-OUTER
G1 F1200 X89.964 Y89.176 E21.9844
G1 X90.482 Y88.744 E22.01805
G1 X91.008 Y88.278 E22.05311
G1 X91.23 Y88.116 E22.06682
G1 X91.752 Y87.782 E22.09774
G1 X92.306 Y87.402 E22.13125
G1 X93.612 Y86.692 E22.20542
G1 X94.224 Y86.436 E22.23851
G1 X94.867 Y86.144 E22.27374
G1 X95.241 Y86.018 E22.29343
G1 X96.296 Y85.692 E22.34852
G1 X96.616 Y85.619 E22.3649
G1 X97.718 Y85.395 E22.421
G1 X99.203 Y85.246 E22.49546
G1 X100.14 Y85.246 E22.54221
G1 X100.652 Y85.234 E22.56776
G1 X101.046 Y85.264 E22.58747
G1 X102.105 Y85.37 E22.64057
G1 X102.994 Y85.558 E22.6859
G1 X103.654 Y85.69 E22.71948
G1 X104.296 Y85.889 E22.75302
G1 X104.977 Y86.08 E22.7883
G1 X105.34 Y86.223 E22.80777
G1 X105.793 Y86.435 E22.83272
G1 X106.424 Y86.699 E22.86684
G1 X107.007 Y87.019 E22.90002
G1 X107.632 Y87.337 E22.93501
G1 X107.93 Y87.527 E22.95264
G1 X108.867 Y88.165 E23.0092
G1 X109.169 Y88.411 E23.02863
G1 X109.535 Y88.742 E23.05325
G1 X110.054 Y89.176 E23.087
G1 X110.523 Y89.659 E23.12059
G1 X111.027 Y90.148 E23.15562
G1 X111.25 Y90.41 E23.17279
G1 X111.576 Y90.852 E23.20019
G1 X112 Y91.381 E23.23401
G1 X112.363 Y91.947 E23.26756
G1 X112.757 Y92.521 E23.30229
G1 X112.953 Y92.881 E23.32274
G1 X113.436 Y93.822 E23.37551
G1 X113.583 Y94.162 E23.39399
G1 X113.759 Y94.669 E23.42077
G1 X114.006 Y95.294 E23.4543
G1 X114.187 Y95.946 E23.48805
G1 X114.396 Y96.616 E23.52307
G1 X114.475 Y97.007 E23.54297
G1 X114.664 Y98.068 E23.59674
G1 X114.702 Y98.462 E23.61649
G1 X114.783 Y99.522 E23.66952
G1 X114.748 Y101.039 E23.74523
G1 X114.632 Y101.965 E23.79179
G1 X114.582 Y102.469 E23.81705
G1 X114.502 Y102.862 E23.83706
G1 X114.374 Y103.34 E23.86175
G1 X114.227 Y103.99 E23.895
G1 X114.01 Y104.638 E23.92909
G1 X113.795 Y105.335 E23.96548
G1 X113.207 Y106.653 E24.03748
G1 X113.012 Y107.01 E24.05778
G1 X112.751 Y107.426 E24.08228
G1 X112.414 Y108.012 E24.11601
G1 X112.02 Y108.557 E24.14956
G1 X111.622 Y109.141 E24.18482
G1 X111.374 Y109.438 E24.20412
G1 X111.026 Y109.803 E24.22928
G1 X110.583 Y110.308 E24.26279
G1 X110.086 Y110.768 E24.29658
