;FLAVOR:RepRap
;TIME:9339
;Filament used: 7.61022m
;Layer height: 0.2
;Generated with Cura_SteamEngine 2.6.0
M190 S50
M104 S195
M109 S195
G28 ;Home
G1 Z15.0 F6000 ;Move the platform down 15mm
;Prime the extruder
G92 E0
G1 F200 E3
G92 E0
;LAYER_COUNT:44
;LAYER:0
M107
G0 F1200 X67.911 Y67.977 Z0.3
;TYPE:SKIRT
G1 X70.809 Y65.112 E0.20331
G1 X71.021 Y64.921 E0.21754
G1 X74.107 Y62.372 E0.41724
G1 X74.333 Y62.202 E0.43134
G1 X77.667 Y59.911 E0.63316
G1 X77.908 Y59.76 E0.64735
G1 X81.461 Y57.758 E0.85082
G1 X81.684 Y57.644 E0.86331
G1 X84.427 Y56.37 E1.0142
G1 X84.625 Y56.286 E1.02493
G1 X87.473 Y55.189 E1.17719
G1 X87.675 Y55.119 E1.18786
G1 X90.598 Y54.212 E1.34055
G1 X90.805 Y54.155 E1.35126
G1 X93.747 Y53.455 E1.50213
G1 X93.991 Y53.407 E1.51454
G1 X98.003 Y52.776 E1.71716
G1 X98.286 Y52.744 E1.73137
G1 X102.325 Y52.473 E1.93333
G1 X102.61 Y52.467 E1.94755
G1 X106.659 Y52.557 E2.14961
G1 X106.943 Y52.576 E2.16381
G1 X110.969 Y53.025 E2.36591
G1 X111.253 Y53.069 E2.38025
G1 X115.25 Y53.883 E2.58375
G1 X115.525 Y53.952 E2.5979
G1 X119.41 Y55.11 E2.80015
G1 X119.647 Y55.191 E2.81264
G1 X122.484 Y56.285 E2.96434
G1 X122.713 Y56.384 E2.97679
G1 X126.342 Y58.118 E3.17744
G1 X126.59 Y58.25 E3.19146
G1 X130.056 Y60.299 E3.39234
G1 X130.297 Y60.456 E3.40669
G1 X133.599 Y62.831 E3.60961
G1 X133.823 Y63.008 E3.62385
G1 X136.94 Y65.703 E3.82943
G1 X137.149 Y65.901 E3.84379
G1 X139.951 Y68.802 E4.04501
G1 X140.138 Y69.014 E4.05911
G1 X142.66 Y72.135 E4.2593
G1 X142.829 Y72.365 E4.27354
G1 X145.117 Y75.78 E4.47862
G1 X145.248 Y75.992 E4.49106
G1 X146.708 Y78.587 E4.6396
G1 X146.836 Y78.84 E4.65375
G1 X148.931 Y83.485 E4.90797
G1 X149.037 Y83.751 E4.92226
G1 X150.031 Y86.614 E5.07346
G1 X150.104 Y86.853 E5.08592
G1 X151.138 Y90.8 E5.28948
G1 X151.192 Y91.046 E5.30205
G1 X151.733 Y94.064 E5.45502
G1 X151.767 Y94.311 E5.46746
G1 X152.166 Y98.304 E5.66766
G1 X152.182 Y98.587 E5.6818
G1 X152.227 Y102.655 E5.88477
G1 X152.217 Y102.94 E5.899
G1 X151.901 Y106.973 E6.10082
G1 X151.866 Y107.256 E6.11505
G1 X151.196 Y111.224 E6.31581
G1 X151.146 Y111.466 E6.32814
G1 X150.407 Y114.425 E6.4803
G1 X150.336 Y114.666 E6.49283
G1 X149.047 Y118.516 E6.69539
G1 X148.945 Y118.781 E6.70956
G1 X147.328 Y122.483 E6.9111
G1 X147.202 Y122.741 E6.92543
G1 X145.233 Y126.332 E7.12975
G1 X145.124 Y126.515 E7.14037
G1 X144.03 Y128.228 E7.24178
G1 X143.929 Y128.377 E7.25076
G1 X142.174 Y130.813 E7.40055
G1 X142.045 Y130.98 E7.41107
G1 X140.116 Y133.315 E7.56218
G1 X139.949 Y133.501 E7.57465
G1 X137.107 Y136.44 E7.77862
G1 X136.899 Y136.638 E7.79294
G1 X133.824 Y139.294 E7.99566
G1 X133.602 Y139.469 E8.00976
G1 X130.336 Y141.82 E8.21053
G1 X130.097 Y141.976 E8.22477
G1 X126.627 Y144.032 E8.426
G1 X126.376 Y144.166 E8.44019
G1 X122.712 Y145.918 E8.64281
G1 X122.449 Y146.03 E8.65707
G1 X118.627 Y147.454 E8.86056
G1 X118.322 Y147.55 E8.87651
G1 X113.439 Y148.831 E9.12837
G1 X113.158 Y148.892 E9.14271
G1 X110.131 Y149.401 E9.29585
G1 X109.921 Y149.429 E9.30642
G1 X106.962 Y149.727 E9.45479
G1 X106.714 Y149.742 E9.46719
G1 X102.616 Y149.835 E9.67169
G1 X102.33 Y149.829 E9.68596
G1 X98.279 Y149.559 E9.88852
G1 X97.994 Y149.527 E9.90282
G1 X93.987 Y148.896 E10.1052
G1 X93.707 Y148.839 E10.11945
G1 X89.772 Y147.853 E10.32184
G1 X89.501 Y147.772 E10.33595
G1 X85.698 Y146.452 E10.53679
G1 X85.433 Y146.347 E10.55101
G1 X81.741 Y144.685 E10.75301
G1 X81.487 Y144.557 E10.7672
G1 X77.945 Y142.566 E10.96991
G1 X77.701 Y142.414 E10.98425
G1 X74.334 Y140.101 E11.18805
G1 X74.107 Y139.93 E11.20223
G1 X71.005 Y137.366 E11.40301
G1 X70.794 Y137.175 E11.41721
G1 X67.911 Y134.325 E11.61946
G1 X67.717 Y134.115 E11.63373
G1 X65.09 Y131.008 E11.83672
G1 X64.917 Y130.783 E11.85088
G1 X62.601 Y127.49 E12.05173
G1 X62.447 Y127.25 E12.06595
G1 X60.416 Y123.734 E12.26853
G1 X60.27 Y123.448 E12.28455
G1 X58.171 Y118.791 E12.5394
G1 X58.064 Y118.524 E12.55375
G1 X57.082 Y115.69 E12.70339
G1 X57.011 Y115.454 E12.71568
G1 X55.975 Y111.503 E12.91946
G1 X55.92 Y111.257 E12.93204
G1 X55.383 Y108.267 E13.0836
G1 X55.349 Y108.02 E13.09603
G1 X54.946 Y103.999 E13.29765
G1 X54.93 Y103.715 E13.31184
G1 X54.885 Y99.647 E13.51481
G1 X54.895 Y99.361 E13.52908
G1 X55.214 Y95.312 E13.73171
G1 X55.249 Y95.03 E13.74589
G1 X55.916 Y91.078 E13.94585
G1 X55.966 Y90.836 E13.95817
G1 X56.702 Y87.886 E14.10986
G1 X56.772 Y87.646 E14.12233
G1 X58.054 Y83.812 E14.32402
G1 X58.142 Y83.579 E14.33645
G1 X59.335 Y80.762 E14.48907
G1 X59.425 Y80.569 E14.4997
G1 X60.782 Y77.879 E14.65001
G1 X60.904 Y77.659 E14.66256
G1 X63.03 Y74.158 E14.86691
G1 X63.189 Y73.92 E14.88119
G1 X65.622 Y70.62 E15.08574
G1 X65.779 Y70.424 E15.09827
G1 X67.742 Y68.158 E15.24784
G1 X67.911 Y67.977 E15.26019
G1 F1500 E8.76019
G0 F1200 X69.772 Y69.694
G0 X70.714 Y70.566
G0 X71.003 Y70.371
G0 X70.931 Y70.303
;TYPE:WALL-INNER
G1 F1500 E15.26019
G1 F1200 X71.626 Y69.584 E15.31008
G1 X72.344 Y68.875 E15.36042
G1 X73.067 Y68.19 E15.41011
G1 X73.806 Y67.522 E15.45981
G1 X74.573 Y66.859 E15.51039
G1 X75.333 Y66.23 E15.55961
G1 X76.126 Y65.605 E15.60998
G1 X76.921 Y65.004 E15.65971
G1 X77.736 Y64.418 E15.70979
G1 X78.557 Y63.854 E15.75948
G1 X79.39 Y63.309 E15.80914
G1 X80.251 Y62.774 E15.85971
G1 X81.104 Y62.268 E15.9092
G1 X81.98 Y61.775 E15.95934
G1 X82.855 Y61.308 E16.00883
G1 X83.756 Y60.852 E16.05921
G1 X84.65 Y60.425 E16.10864
G1 X85.57 Y60.011 E16.15897
G1 X86.483 Y59.623 E16.20846
G1 X87.425 Y59.249 E16.25902
G1 X88.351 Y58.905 E16.30831
G1 X89.309 Y58.571 E16.35892
G1 X90.255 Y58.267 E16.4085
G1 X91.209 Y57.982 E16.45817
G1 X92.179 Y57.717 E16.50834
G1 X93.154 Y57.473 E16.55848
G1 X94.117 Y57.255 E16.60774
G1 X95.096 Y57.056 E16.65758
G1 X96.09 Y56.877 E16.70797
G1 X97.084 Y56.719 E16.75818
G1 X98.06 Y56.588 E16.80731
G1 X99.068 Y56.477 E16.85791
G1 X100.05 Y56.388 E16.9071
G1 X101.054 Y56.322 E16.9573
G1 X102.063 Y56.277 E17.00769
G1 X103.063 Y56.254 E17.05759
G1 X104.049 Y56.254 E17.10678
G1 X105.049 Y56.277 E17.15669
G1 X106.058 Y56.322 E17.20708
G1 X107.062 Y56.387 E17.25727
G1 X108.044 Y56.477 E17.30647
G1 X109.052 Y56.588 E17.35706
G1 X110.029 Y56.719 E17.40624
G1 X111.022 Y56.877 E17.4564
G1 X112.016 Y57.056 E17.50679
G1 X112.995 Y57.255 E17.55663
G1 X113.958 Y57.473 E17.60589
G1 X114.929 Y57.716 E17.65583
G1 X115.903 Y57.982 E17.7062
G1 X116.857 Y58.266 E17.75586
G1 X117.803 Y58.571 E17.80545
G1 X118.761 Y58.905 E17.85607
G1 X119.687 Y59.249 E17.90535
G1 X120.629 Y59.624 E17.95593
G1 X121.542 Y60.011 E18.00541
G1 X122.45 Y60.419 E18.05507
G1 X123.352 Y60.85 E18.10494
G1 X124.253 Y61.306 E18.15533
G1 X125.129 Y61.773 E18.20485
G1 X126.008 Y62.268 E18.25518
G1 X126.861 Y62.774 E18.30466
G1 X127.714 Y63.305 E18.35479
G1 X128.555 Y63.854 E18.4049
G1 X129.372 Y64.415 E18.45434
G1 X130.191 Y65.005 E18.5047
G1 X130.986 Y65.605 E18.55439
G1 X131.779 Y66.23 E18.60476
G1 X132.54 Y66.859 E18.65402
G1 X133.297 Y67.513 E18.70393
G1 X134.045 Y68.19 E18.75426
G1 X134.765 Y68.872 E18.80374
G1 X135.476 Y69.574 E18.85359
G1 X136.172 Y70.294 E18.90355
G1 X136.854 Y71.031 E18.95364
G1 X137.518 Y71.782 E19.00366
G1 X138.16 Y72.542 E19.05329
G1 X138.792 Y73.321 E19.10334
G1 X139.401 Y74.111 E19.1531
G1 X139.994 Y74.916 E19.20298
G1 X140.572 Y75.739 E19.25316
G1 X141.128 Y76.566 E19.30288
G1 X141.667 Y77.413 E19.35296
G1 X142.189 Y78.272 E19.40311
G1 X142.685 Y79.129 E19.45251
G1 X143.166 Y80.008 E19.5025
G1 X143.632 Y80.903 E19.55284
G1 X144.07 Y81.796 E19.60247
G1 X144.49 Y82.701 E19.65224
G1 X144.891 Y83.616 E19.70208
G1 X145.271 Y84.542 E19.75202
G1 X145.632 Y85.48 E19.80216
G1 X145.97 Y86.416 E19.85181
G1 X146.287 Y87.365 E19.90173
G1 X146.584 Y88.321 E19.95167
G1 X146.861 Y89.291 E20.002
G1 X147.113 Y90.249 E20.05142
G1 X147.344 Y91.223 E20.10136
G1 X147.555 Y92.206 E20.15152
G1 X147.746 Y93.193 E20.20168
G1 X147.91 Y94.17 E20.2511
G1 X148.055 Y95.165 E20.30127
G1 X148.178 Y96.153 E20.35094
G1 X148.277 Y97.148 E20.40082
G1 X148.355 Y98.154 E20.45116
G1 X148.411 Y99.144 E20.50063
G1 X148.445 Y100.143 E20.5505
G1 X148.456 Y101.145 E20.6005
G1 X148.445 Y102.145 E20.65039
G1 X148.411 Y103.154 E20.70076
G1 X148.356 Y104.148 E20.75042
G1 X148.278 Y105.141 E20.80012
G1 X148.178 Y106.141 E20.85026
G1 X148.057 Y107.129 E20.89992
G1 X147.911 Y108.128 E20.95029
G1 X147.747 Y109.104 E20.99966
G1 X147.557 Y110.088 E21.04966
G1 X147.347 Y111.066 E21.09957
G1 X147.114 Y112.044 E21.14972
G1 X146.862 Y113.007 E21.19939
G1 X146.588 Y113.969 E21.24929
G1 X146.288 Y114.933 E21.29966
G1 X145.973 Y115.877 E21.34931
G1 X145.635 Y116.815 E21.39905
G1 X145.276 Y117.748 E21.44892
G1 X144.893 Y118.682 E21.49929
G1 X144.495 Y119.591 E21.54879
G1 X144.075 Y120.497 E21.59862
G1 X143.627 Y121.407 E21.64922
G1 X143.172 Y122.284 E21.69851
G1 X142.687 Y123.169 E21.74886
G1 X142.191 Y124.027 E21.7983
G1 X141.667 Y124.889 E21.84863
G1 X141.132 Y125.729 E21.89832
G1 X140.577 Y126.557 E21.94805
G1 X140.002 Y127.375 E21.99793
G1 X139.406 Y128.184 E22.04806
G1 X138.798 Y128.973 E22.09776
G1 X138.165 Y129.754 E22.14791
G1 X137.523 Y130.515 E22.19758
G1 X136.86 Y131.264 E22.24749
G1 X136.181 Y131.999 E22.29741
G1 X135.479 Y132.725 E22.34779
G1 X134.772 Y133.426 E22.39747
G1 X134.042 Y134.115 E22.44755
G1 X133.306 Y134.78 E22.49703
G1 X132.539 Y135.443 E22.54761
G1 X131.779 Y136.072 E22.59683
G1 X130.986 Y136.697 E22.64721
G1 X130.191 Y137.298 E22.69693
G1 X129.376 Y137.884 E22.74701
G1 X128.558 Y138.446 E22.79652
G1 X127.722 Y138.993 E22.84636
G1 X126.861 Y139.529 E22.89696
G1 X126 Y140.039 E22.94689
G1 X125.141 Y140.523 E22.99608
G1 X124.252 Y140.998 E23.04636
G1 X123.36 Y141.447 E23.09619
G1 X122.454 Y141.881 E23.14631
G1 X121.542 Y142.291 E23.19619
G1 X120.629 Y142.679 E23.24568
G1 X119.695 Y143.05 E23.29582
G1 X118.754 Y143.401 E23.34593
G1 X117.813 Y143.727 E23.39561
G1 X116.857 Y144.037 E23.44575
G1 X115.902 Y144.32 E23.49545
G1 X114.932 Y144.586 E23.54563
G1 X113.956 Y144.83 E23.59582
G1 X112.995 Y145.048 E23.64498
G1 X112.016 Y145.247 E23.69482
G1 X111.022 Y145.425 E23.7452
G1 X110.029 Y145.583 E23.79537
G1 X109.051 Y145.714 E23.84459
G1 X108.043 Y145.826 E23.89519
G1 X107.062 Y145.915 E23.94434
G1 X106.058 Y145.981 E23.99453
G1 X105.049 Y146.026 E24.04492
G1 X104.05 Y146.048 E24.09478
G1 X103.062 Y146.048 E24.14407
G1 X102.063 Y146.026 E24.19392
G1 X101.054 Y145.981 E24.24431
G1 X100.05 Y145.915 E24.29451
G1 X99.069 Y145.826 E24.34365
G1 X98.061 Y145.714 E24.39425
G1 X97.084 Y145.583 E24.44343
G1 X96.09 Y145.425 E24.49364
G1 X95.096 Y145.247 E24.54402
G1 X94.117 Y145.048 E24.59386
G1 X93.156 Y144.83 E24.64303
G1 X92.18 Y144.586 E24.69322
G1 X91.21 Y144.32 E24.7434
G1 X90.256 Y144.037 E24.79304
G1 X89.299 Y143.727 E24.84323
G1 X88.358 Y143.401 E24.89291
G1 X87.417 Y143.05 E24.94302
G1 X86.483 Y142.678 E24.99318
G1 X85.57 Y142.291 E25.04265
G1 X84.659 Y141.881 E25.09249
G1 X83.752 Y141.447 E25.14265
G1 X82.856 Y140.995 E25.19272
G1 X81.98 Y140.527 E25.24227
G1 X81.104 Y140.034 E25.29242
G1 X80.251 Y139.529 E25.34188
G1 X79.39 Y138.993 E25.39248
G1 X78.554 Y138.446 E25.44232
G1 X77.736 Y137.884 E25.49183
G1 X76.921 Y137.297 E25.54194
G1 X76.126 Y136.697 E25.59163
G1 X75.333 Y136.072 E25.64201
G1 X74.573 Y135.443 E25.69122
G1 X73.806 Y134.78 E25.7418
G1 X73.07 Y134.115 E25.79129
G1 X72.341 Y133.425 E25.84137
G1 X71.633 Y132.725 E25.89104
G1 X70.931 Y131.999 E25.94143
G1 X70.252 Y131.264 E25.99135
G1 X69.589 Y130.515 E26.04125
G1 X68.947 Y129.754 E26.09092
G1 X68.314 Y128.973 E26.14108
G1 X67.706 Y128.184 E26.19077
G1 X67.11 Y127.375 E26.24091
G1 X66.535 Y126.557 E26.29079
G1 X65.98 Y125.729 E26.34052
G1 X65.445 Y124.889 E26.39021
G1 X64.921 Y124.027 E26.44053
G1 X64.425 Y123.169 E26.48998
G1 X63.94 Y122.284 E26.54033
G1 X63.485 Y121.407 E26.58962
G1 X63.037 Y120.497 E26.64022
G1 X62.617 Y119.591 E26.69004
G1 X62.219 Y118.682 E26.73955
G1 X61.836 Y117.748 E26.78991
G1 X61.477 Y116.815 E26.83979
G1 X61.14 Y115.877 E26.88951
G1 X60.824 Y114.932 E26.93922
G1 X60.524 Y113.969 E26.98955
G1 X60.25 Y113.007 E27.03945
G1 X59.997 Y112.043 E27.08917
G1 X59.765 Y111.067 E27.13922
G1 X59.555 Y110.088 E27.18918
G1 X59.365 Y109.104 E27.23917
G1 X59.201 Y108.128 E27.28855
G1 X59.056 Y107.13 E27.33886
G1 X58.933 Y106.141 E27.38858
G1 X58.834 Y105.142 E27.43867
G1 X58.756 Y104.148 E27.48841
G1 X58.701 Y103.154 E27.53808
G1 X58.667 Y102.145 E27.58845
G1 X58.656 Y101.157 E27.63774
G1 X58.667 Y100.157 E27.68763
G1 X58.701 Y99.148 E27.738
G1 X58.756 Y98.154 E27.78767
G1 X58.834 Y97.161 E27.83736
G1 X58.934 Y96.162 E27.88745
G1 X59.055 Y95.174 E27.93711
G1 X59.201 Y94.174 E27.98753
G1 X59.365 Y93.198 E28.03691
G1 X59.555 Y92.214 E28.0869
G1 X59.765 Y91.236 E28.13681
G1 X59.998 Y90.258 E28.18697
G1 X60.25 Y89.295 E28.23663
G1 X60.527 Y88.325 E28.28696
G1 X60.824 Y87.37 E28.33685
G1 X61.139 Y86.426 E28.3865
G1 X61.477 Y85.487 E28.43629
G1 X61.836 Y84.554 E28.48617
G1 X62.215 Y83.629 E28.53604
G1 X62.617 Y82.712 E28.58599
G1 X63.037 Y81.805 E28.63586
G1 X63.485 Y80.895 E28.68646
G1 X63.94 Y80.019 E28.73571
G1 X64.425 Y79.133 E28.7861
G1 X64.921 Y78.276 E28.8355
G1 X65.445 Y77.413 E28.88587
G1 X65.98 Y76.574 E28.93552
G1 X66.535 Y75.746 E28.98525
G1 X67.11 Y74.927 E29.03517
G1 X67.706 Y74.118 E29.0853
G1 X68.314 Y73.329 E29.135
G1 X68.947 Y72.548 E29.18515
G1 X69.589 Y71.787 E29.23482
G1 X70.252 Y71.038 E29.28473
G1 X70.931 Y70.303 E29.33465
G0 X70.643 Y70.025
;TYPE:WALL-OUTER
G1 X71.345 Y69.299 E29.38503
G1 X72.063 Y68.59 E29.43538
G1 X72.799 Y67.893 E29.48595
G1 X73.544 Y67.219 E29.53607
G1 X74.311 Y66.556 E29.58665
G1 X75.085 Y65.916 E29.63676
G1 X75.878 Y65.291 E29.68713
G1 X76.687 Y64.679 E29.73774
G1 X77.502 Y64.093 E29.78782
G1 X78.338 Y63.519 E29.83841
G1 X79.179 Y62.969 E29.88855
G1 X80.04 Y62.434 E29.93912
G1 X80.908 Y61.919 E29.98947
G1 X81.784 Y61.426 E30.03962
G1 X82.674 Y60.951 E30.08995
G1 X83.575 Y60.495 E30.14033
G1 X84.486 Y60.06 E30.1907
G1 X85.406 Y59.646 E30.24103
G1 X86.335 Y59.252 E30.29137
G1 X87.277 Y58.877 E30.34196
G1 X88.219 Y58.527 E30.39209
G1 X89.177 Y58.193 E30.44271
G1 X90.133 Y57.886 E30.4928
G1 X91.104 Y57.596 E30.54336
G1 X92.074 Y57.331 E30.59353
G1 X93.057 Y57.085 E30.64408
G1 X94.037 Y56.863 E30.69421
G1 X95.025 Y56.662 E30.74452
G1 X96.019 Y56.483 E30.7949
G1 X97.021 Y56.324 E30.84552
G1 X98.016 Y56.191 E30.8956
G1 X99.024 Y56.079 E30.9462
G1 X100.024 Y55.989 E30.99629
G1 X101.036 Y55.922 E31.04689
G1 X102.045 Y55.877 E31.09728
G1 X103.054 Y55.854 E31.14763
G1 X104.058 Y55.854 E31.19772
G1 X105.067 Y55.877 E31.24808
G1 X106.076 Y55.922 E31.29846
G1 X107.088 Y55.988 E31.34906
G1 X108.088 Y56.079 E31.39916
G1 X109.096 Y56.191 E31.44976
G1 X110.092 Y56.324 E31.49989
G1 X111.093 Y56.483 E31.55045
G1 X112.087 Y56.662 E31.60084
G1 X113.075 Y56.863 E31.65114
G1 X114.055 Y57.085 E31.70127
G1 X115.034 Y57.33 E31.75162
G1 X116.008 Y57.596 E31.802
G1 X116.98 Y57.885 E31.85259
G1 X117.935 Y58.193 E31.90265
G1 X118.893 Y58.527 E31.95327
G1 X119.835 Y58.877 E32.0034
G1 X120.777 Y59.252 E32.05398
G1 X121.706 Y59.646 E32.10433
G1 X122.623 Y60.058 E32.15448
G1 X123.533 Y60.493 E32.2048
G1 X124.434 Y60.949 E32.25518
G1 X125.325 Y61.424 E32.30556
G1 X126.204 Y61.919 E32.35589
G1 X127.072 Y62.434 E32.40624
G1 X127.933 Y62.97 E32.45684
G1 X128.774 Y63.519 E32.50695
G1 X129.606 Y64.09 E32.55729
G1 X130.425 Y64.68 E32.60765
G1 X131.234 Y65.291 E32.65823
G1 X132.027 Y65.916 E32.7086
G1 X132.801 Y66.556 E32.75871
G1 X133.565 Y67.216 E32.80908
G1 X134.313 Y67.893 E32.85941
G1 X135.046 Y68.587 E32.90977
G1 X135.764 Y69.296 E32.96011
G1 X136.466 Y70.022 E33.0105
G1 X137.154 Y70.766 E33.06105
G1 X137.82 Y71.519 E33.1112
G1 X138.471 Y72.29 E33.16155
G1 X139.109 Y73.077 E33.21209
G1 X139.723 Y73.874 E33.26229
G1 X140.321 Y74.686 E33.3126
G1 X140.904 Y75.516 E33.3632
G1 X141.465 Y76.351 E33.41339
G1 X142.009 Y77.205 E33.4639
G1 X142.531 Y78.064 E33.51405
G1 X143.036 Y78.937 E33.56437
G1 X143.521 Y79.823 E33.61476
G1 X143.987 Y80.718 E33.6651
G1 X144.433 Y81.628 E33.71566
G1 X144.856 Y82.54 E33.76582
G1 X145.261 Y83.464 E33.81615
G1 X145.644 Y84.398 E33.86651
G1 X146.008 Y85.344 E33.91708
G1 X146.349 Y86.289 E33.9672
G1 X146.669 Y87.246 E34.01755
G1 X146.969 Y88.211 E34.06796
