;FLAVOR:RepRap
;TIME:2885
;Filament used: 1.65503m
;Layer height: 0.2
;Generated with Cura_SteamEngine 2.6.0
M190 S70
M104 S205
M109 S205
G28 ;Home
G1 Z15.0 F6000 ;Move the platform down 15mm
;Prime the extruder
G92 E0
G1 F200 E3
G92 E0
;LAYER_COUNT:95
;LAYER:0
M107
G0 F2400 X73.209 Y73.724 Z0.3
;TYPE:SKIRT
G1 F1200 X73.763 Y73.176 E0.03888
G1 X74.172 Y72.828 E0.06567
G1 X74.627 Y72.545 E0.0924
G1 X75.307 Y72.273 E0.12894
G1 X77.343 Y71.692 E0.23457
G1 X82.533 Y69.992 E0.50704
G1 X87.619 Y68.003 E0.77949
G1 X92.575 Y65.732 E1.05147
G1 X97.917 Y62.897 E1.35319
G1 X98.408 Y62.682 E1.37993
G1 X98.926 Y62.542 E1.4067
G1 X99.61 Y62.477 E1.44098
G1 X100.4 Y62.478 E1.48039
G1 X100.934 Y62.519 E1.50711
G1 X101.457 Y62.638 E1.53387
G1 X102.144 Y62.931 E1.57114
G1 X104.043 Y63.986 E1.67952
G1 X108.936 Y66.461 E1.95308
G1 X113.931 Y68.645 E2.22506
G1 X119.039 Y70.539 E2.49686
G1 X124.772 Y72.298 E2.79604
G1 X125.271 Y72.493 E2.82276
G1 X125.736 Y72.76 E2.84952
G1 X126.262 Y73.194 E2.88354
G1 X126.809 Y73.741 E2.92213
G1 X127.158 Y74.148 E2.94888
G1 X127.444 Y74.602 E2.97565
G1 X127.71 Y75.248 E3.0105
G1 X129.189 Y80.154 E3.26615
G1 X131.05 Y85.299 E3.53911
G1 X133.185 Y90.302 E3.81048
G1 X135.623 Y95.223 E4.08447
G1 X137.078 Y97.872 E4.23526
G1 X137.301 Y98.36 E4.26202
G1 X137.448 Y98.875 E4.28874
G1 X137.523 Y99.605 E4.32535
G1 X137.523 Y100.393 E4.36467
G1 X137.483 Y100.928 E4.39143
G1 X137.364 Y101.451 E4.41819
G1 X137.071 Y102.139 E4.4555
G1 X135.946 Y104.167 E4.5712
G1 X133.476 Y109.069 E4.84506
G1 X131.304 Y114.057 E5.11648
G1 X129.415 Y119.175 E5.38865
G1 X127.705 Y124.767 E5.68039
G1 X127.51 Y125.266 E5.70712
G1 X127.243 Y125.732 E5.73391
G1 X126.794 Y126.273 E5.76899
G1 X126.237 Y126.824 E5.80808
G1 X125.828 Y127.172 E5.83487
G1 X125.373 Y127.455 E5.8616
G1 X124.693 Y127.727 E5.89814
G1 X122.657 Y128.308 E6.00377
G1 X117.467 Y130.008 E6.27624
G1 X112.381 Y131.997 E6.54869
G1 X107.425 Y134.268 E6.82067
G1 X102.083 Y137.103 E7.12239
G1 X101.592 Y137.318 E7.14913
G1 X101.074 Y137.458 E7.1759
G1 X100.32 Y137.522 E7.21366
G1 X99.55 Y137.506 E7.25208
G1 X99.016 Y137.455 E7.27884
G1 X98.496 Y137.325 E7.30558
G1 X97.974 Y137.106 E7.33383
G1 X91.06 Y133.537 E7.72201
G1 X86.069 Y131.355 E7.99377
G1 X80.961 Y129.461 E8.26557
G1 X75.228 Y127.702 E8.56475
G1 X74.729 Y127.507 E8.59147
G1 X74.264 Y127.24 E8.61823
G1 X73.734 Y126.801 E8.65256
G1 X73.183 Y126.248 E8.69151
G1 X72.834 Y125.841 E8.71825
G1 X72.549 Y125.387 E8.745
G1 X72.286 Y124.745 E8.77961
G1 X70.812 Y119.85 E9.03466
G1 X68.935 Y114.657 E9.31014
G1 X67.935 Y112.22 E9.44156
G1 X65.637 Y107.23 E9.71564
G1 X62.897 Y102.074 E10.00694
G1 X62.681 Y101.583 E10.0337
G1 X62.541 Y101.066 E10.06043
G1 X62.476 Y100.34 E10.09679
G1 X62.486 Y99.543 E10.13656
G1 X62.533 Y99.009 E10.1633
G1 X62.658 Y98.487 E10.19008
G1 X62.938 Y97.841 E10.22521
G1 X64.053 Y95.832 E10.33984
G1 X66.531 Y90.918 E10.61441
G1 X68.706 Y85.918 E10.88644
G1 X69.699 Y83.343 E11.02413
G1 X70.581 Y80.84 E11.15653
G1 X72.299 Y75.229 E11.44929
G1 X72.493 Y74.73 E11.476
G1 X72.76 Y74.264 E11.50279
G1 X73.209 Y73.724 E11.53783
G0 F2400 X73.491 Y74.008
G1 F1200 X74.045 Y73.46 E11.57671
G1 X74.431 Y73.134 E11.60191
G1 X74.864 Y72.873 E11.62714
G1 X75.417 Y72.658 E11.65674
G1 X77.443 Y72.08 E11.76185
G1 X82.676 Y70.366 E12.03657
G1 X87.78 Y68.37 E12.30999
G1 X92.744 Y66.095 E12.58241
G1 X98.105 Y63.25 E12.88521
G1 X98.569 Y63.049 E12.91043
G1 X99.059 Y62.924 E12.93566
G1 X99.609 Y62.877 E12.9632
G1 X100.399 Y62.878 E13.00261
G1 X100.903 Y62.919 E13.02784
G1 X101.394 Y63.038 E13.05305
G1 X101.949 Y63.281 E13.08327
G1 X103.847 Y64.336 E13.19161
G1 X108.766 Y66.824 E13.46663
G1 X113.774 Y69.013 E13.7393
G1 X118.924 Y70.923 E14.01334
G1 X124.654 Y72.681 E14.31236
G1 X125.125 Y72.867 E14.33762
G1 X125.56 Y73.124 E14.36283
G1 X125.979 Y73.477 E14.39017
G1 X126.526 Y74.024 E14.42876
G1 X126.854 Y74.409 E14.45399
G1 X127.117 Y74.84 E14.47918
G1 X127.327 Y75.363 E14.5073
G1 X128.814 Y80.295 E14.7643
G1 X130.672 Y85.435 E15.03697
G1 X132.822 Y90.472 E15.31021
G1 X135.257 Y95.386 E15.58381
G1 X136.728 Y98.064 E15.73625
G1 X136.935 Y98.525 E15.76146
G1 X137.068 Y99.013 E15.7867
G1 X137.123 Y99.605 E15.81636
G1 X137.123 Y100.393 E15.85567
G1 X137.083 Y100.897 E15.8809
G1 X136.964 Y101.388 E15.9061
G1 X136.721 Y101.945 E15.93642
G1 X135.597 Y103.972 E16.05205
G1 X133.109 Y108.908 E16.32783
G1 X130.936 Y113.901 E16.5995
G1 X129.032 Y119.056 E16.87366
G1 X127.322 Y124.65 E17.1655
G1 X127.137 Y125.12 E17.1907
G1 X126.879 Y125.555 E17.21593
G1 X126.512 Y125.989 E17.24428
G1 X125.955 Y126.54 E17.28337
G1 X125.569 Y126.866 E17.30858
G1 X125.136 Y127.127 E17.3338
G1 X124.583 Y127.342 E17.3634
G1 X122.557 Y127.92 E17.46851
G1 X117.324 Y129.634 E17.74324
G1 X112.22 Y131.63 E18.01665
G1 X107.256 Y133.905 E18.28908
G1 X101.895 Y136.75 E18.59187
G1 X101.431 Y136.951 E18.6171
G1 X100.941 Y137.076 E18.64233
G1 X100.329 Y137.122 E18.67295
G1 X99.559 Y137.106 E18.71137
G1 X99.055 Y137.056 E18.73664
G1 X98.567 Y136.927 E18.76182
G1 X98.157 Y136.751 E18.78408
G1 X91.219 Y133.17 E19.17361
G1 X86.226 Y130.987 E19.44548
G1 X81.076 Y129.077 E19.71951
G1 X75.346 Y127.319 E20.01853
G1 X74.875 Y127.133 E20.0438
G1 X74.44 Y126.876 E20.069
G1 X74.017 Y126.519 E20.09662
G1 X73.466 Y125.966 E20.13557
G1 X73.139 Y125.58 E20.16081
G1 X72.876 Y125.148 E20.18604
G1 X72.669 Y124.63 E20.21387
G1 X71.187 Y119.709 E20.47027
G1 X69.315 Y114.53 E20.74501
G1 X68.306 Y112.07 E20.87766
G1 X65.992 Y107.047 E21.15358
G1 X63.25 Y101.886 E21.44514
G1 X63.049 Y101.423 E21.47033
G1 X62.923 Y100.933 E21.49557
G1 X62.876 Y100.345 E21.525
G1 X62.886 Y99.548 E21.56476
G1 X62.933 Y99.044 E21.59002
G1 X63.057 Y98.555 E21.61518
G1 X63.288 Y98.035 E21.64357
G1 X64.413 Y96.008 E21.75923
G1 X66.888 Y91.1 E22.03346
G1 X69.083 Y86.052 E22.30809
G1 X70.063 Y83.513 E22.44387
G1 X70.959 Y80.97 E22.57838
G1 X72.681 Y75.346 E22.87182
G1 X72.867 Y74.876 E22.89704
G1 X73.124 Y74.441 E22.92225
G1 X73.491 Y74.008 E22.95057
G1 F1500 E18.95057
G0 F2400 X75.407 Y75.665
G0 X76.028 Y76.287
G0 X76.108 Y76.287
G0 X76.008 Y76.287
;TYPE:WALL-OUTER
G1 F1500 E22.95057
G1 F1200 X76.287 Y76.008 E22.97025
G1 X94.964 Y94.685 E24.28801
G1 X94.685 Y94.964 E24.3077
G1 X76.008 Y76.287 E25.6057
G0 F2400 X76.149 Y76.146
G1 F1500 E21.6057
G0 F2400 X76.218 Y76.217
G0 X82.981 Y83.232
G0 X82.357 Y83.858
G0 X82.981 Y98.938
G0 X82.981 Y99.823
G0 X66.337 Y99.873
G0 X66.267 Y99.803
G1 F1500 E25.6057
G1 F1200 X92.68 Y99.803 E26.92345
G1 X92.68 Y100.197 E26.9431
G1 X66.267 Y100.197 E28.24109
G1 X66.267 Y99.803 E28.26074
G0 F2400 X66.467 Y99.803
G1 F1500 E24.26074
G0 F2400 X66.467 Y99.903
G0 X76.107 Y100.177
G0 X76.107 Y101.062
G0 X87.214 Y111.285
G0 X87.839 Y111.91
G0 X76.107 Y123.714
G0 X76.007 Y123.714
G1 F1500 E28.26074
G1 F1200 X94.685 Y105.036 E29.57858
G1 X94.964 Y105.315 E29.59826
G1 X76.286 Y123.993 E30.89633
G1 X76.007 Y123.714 E30.91601
G0 F2400 X76.148 Y123.573
G1 F1500 E26.91601
G0 F2400 X76.217 Y123.644
G0 X83.231 Y117.02
G0 X83.856 Y117.645
G0 X98.938 Y117.02
G0 X99.823 Y117.02
G0 X99.873 Y133.662
G0 X99.803 Y133.732
G1 F1500 E30.91601
G1 F1200 X99.803 Y107.32 E32.23371
G1 X100.197 Y107.32 E32.25337
G1 X100.197 Y133.733 E33.55135
G1 X99.803 Y133.732 E33.57101
G0 F2400 X99.803 Y133.532
G1 F1500 E29.57101
G0 F2400 X99.903 Y133.532
G0 X100.177 Y123.892
G0 X101.062 Y123.892
G0 X111.286 Y112.787
G0 X111.911 Y112.162
G0 X123.713 Y123.892
G0 X123.713 Y123.992
G1 F1500 E33.57101
G1 F1200 X105.036 Y105.315 E34.88877
G1 X105.315 Y105.036 E34.90846
G1 X123.992 Y123.713 E36.20646
G1 X123.713 Y123.992 E36.22614
G0 F2400 X123.572 Y123.851
G1 F1500 E32.22614
G0 F2400 X123.643 Y123.782
G0 X117.019 Y116.768
G0 X117.643 Y116.142
G0 X117.019 Y101.062
G0 X117.019 Y100.177
G0 X133.663 Y100.127
G0 X133.733 Y100.197
G1 F1500 E36.22614
G1 F1200 X107.326 Y100.197 E37.54359
G1 X107.331 Y100 E37.55342
G1 X107.326 Y99.803 E37.56325
G1 X133.733 Y99.803 E38.86094
G1 X133.733 Y100.197 E38.8806
G0 F2400 X133.533 Y100.197
G1 F1500 E34.8806
G0 F2400 X133.533 Y100.097
G0 X123.893 Y99.823
G0 X123.893 Y98.938
G0 X112.786 Y88.715
G0 X112.161 Y88.09
G0 X123.893 Y76.286
G0 X123.993 Y76.286
G1 F1500 E38.8806
G1 F1200 X105.315 Y94.964 E40.19843
G1 X105.036 Y94.685 E40.21812
G1 X123.714 Y76.007 E41.51618
G1 X123.993 Y76.286 E41.53587
G0 F2400 X123.852 Y76.427
G1 F1500 E37.53587
G0 F2400 X123.783 Y76.356
G0 X116.769 Y82.98
G0 X116.144 Y82.355
G0 X101.062 Y82.98
G0 X100.177 Y82.98
G0 X100.127 Y66.338
G0 X100.197 Y66.268
G1 F1500 E41.53587
G1 F1200 X100.197 Y92.68 E42.85357
G1 X99.803 Y92.68 E42.87323
G1 X99.803 Y66.267 E44.17121
G1 X100.197 Y66.268 E44.19087
G0 F2400 X100.197 Y66.468
G1 F1500 E40.19087
G0 F2400 X100.097 Y66.468
G0 X99.823 Y76.287
G0 X98.938 Y76.287
G0 X88.805 Y87.304
G0 X88.18 Y87.929
G0 X76.108 Y76.287
G0 X75.866 Y76.145
;TIME_ELAPSED:57.990507
;LAYER:1
M140 S70
M106 S255
G0 F3600 X75.866 Y76.145 Z0.5
;TYPE:WALL-OUTER
G1 F1500 E44.19087
G1 F1200 X76.145 Y75.866 E44.20399
G1 X95.106 Y94.827 E45.09586
G1 X94.827 Y95.106 E45.10898
G1 X75.866 Y76.145 E45.98747
G0 F3600 X76.007 Y76.004
G1 F1500 E41.98747
G0 F3600 X76.076 Y76.075
G0 X82.88 Y83.131
G0 X82.255 Y83.756
G0 X82.88 Y98.938
G0 X82.88 Y99.823
G0 X66.137 Y99.873
G0 X66.067 Y99.803
G1 F1500 E45.98747
G1 F1200 X92.881 Y99.803 E46.87931
G1 X92.881 Y100.197 E46.89241
G1 X66.067 Y100.197 E47.77087
G1 X66.067 Y99.803 E47.78398
G0 F3600 X66.267 Y99.803
G1 F1500 E43.78398
G0 F3600 X66.267 Y99.903
G0 X75.965 Y100.177
G0 X75.965 Y101.062
G0 X87.141 Y111.358
G0 X87.767 Y111.982
G0 X75.965 Y123.856
G0 X75.865 Y123.856
G1 F1500 E47.78398
G1 F1200 X94.827 Y104.894 E48.67589
G1 X95.106 Y105.173 E48.68901
G1 X76.144 Y124.135 E49.56755
G1 X75.865 Y123.856 E49.58067
G0 F3600 X76.006 Y123.715
G1 F1500 E45.58067
G0 F3600 X76.075 Y123.786
G0 X83.132 Y117.119
G0 X83.758 Y117.743
G0 X98.938 Y117.119
G0 X99.823 Y117.119
G0 X99.873 Y133.862
G0 X99.803 Y133.932
G1 F1500 E49.58067
G1 F1200 X99.803 Y107.119 E50.47248
G1 X100.197 Y107.119 E50.48558
G1 X100.197 Y133.933 E51.36404
G1 X99.803 Y133.932 E51.37715
G0 F3600 X99.803 Y133.732
G1 F1500 E47.37715
G0 F3600 X99.903 Y133.732
G0 X100.177 Y124.034
G0 X101.062 Y124.034
G0 X111.356 Y112.857
G0 X111.98 Y112.231
G0 X123.855 Y124.034
G0 X123.855 Y124.134
G1 F1500 E51.37715
G1 F1200 X104.894 Y105.173 E52.26901
G1 X105.173 Y104.894 E52.28214
G1 X124.134 Y123.855 E53.16062
G1 X123.855 Y124.134 E53.17375
G0 F3600 X123.714 Y123.993
G1 F1500 E49.17375
G0 F3600 X123.785 Y123.924
G0 X117.12 Y116.869
G0 X117.745 Y116.244
G0 X117.12 Y101.062
G0 X117.12 Y100.177
G0 X133.863 Y100.127
G0 X133.933 Y100.197
G1 F1500 E53.17375
G1 F1200 X107.125 Y100.197 E54.06539
G1 X107.131 Y100 E54.07194
G1 X107.125 Y99.803 E54.0785
G1 X133.933 Y99.803 E54.95676
G1 X133.933 Y100.197 E54.96986
G0 F3600 X133.733 Y100.197
G1 F1500 E50.96986
G0 F3600 X133.733 Y100.097
G0 X124.035 Y99.823
G0 X124.035 Y98.938
G0 X112.859 Y88.642
G0 X112.233 Y88.018
G0 X124.035 Y76.144
G0 X124.135 Y76.144
G1 F1500 E54.96986
G1 F1200 X105.173 Y95.106 E55.86178
G1 X104.894 Y94.827 E55.8749
G1 X123.856 Y75.865 E56.75344
G1 X124.135 Y76.144 E56.76656
G0 F3600 X123.994 Y76.285
G1 F1500 E52.76656
G0 F3600 X123.925 Y76.214
G0 X116.868 Y82.881
G0 X116.242 Y82.257
G0 X101.062 Y82.881
G0 X100.177 Y82.881
G0 X100.127 Y66.138
G0 X100.197 Y66.068
G1 F1500 E56.76656
G1 F1200 X100.197 Y92.881 E57.65836
G1 X99.803 Y92.881 E57.67147
G1 X99.803 Y66.067 E58.54993
G1 X100.197 Y66.068 E58.56303
G0 F3600 X100.197 Y66.268
G1 F1500 E54.56303
G0 F3600 X100.097 Y66.268
G0 X99.823 Y76.145
G0 X98.938 Y76.145
G0 X88.733 Y87.232
G0 X88.109 Y87.858
G0 X75.966 Y76.145
G0 X75.725 Y76.004
;TIME_ELAPSED:87.876004
;LAYER:2
G0 F4800 X75.725 Y76.004 Z0.7
;TYPE:WALL-OUTER
G1 F1500 E58.56303
G1 F1200 X76.004 Y75.725 E58.57616
G1 X95.248 Y94.968 E59.48131
G1 X94.969 Y95.248 E59.49446
G1 X75.725 Y76.004 E60.38719
G0 F4800 X75.866 Y75.863
G1 F1500 E56.38719
G0 F4800 X75.935 Y75.934
G0 X82.781 Y83.032
G0 X82.157 Y83.657
G0 X82.781 Y98.938
G0 X82.781 Y99.823
G0 X65.937 Y99.873
G0 X65.867 Y99.803
G1 F1500 E60.38719
G1 F1200 X93.081 Y99.803 E61.29233
G1 X93.081 Y100.197 E61.30544
G1 X65.867 Y100.197 E62.197
G1 X65.867 Y99.803 E62.21011
G0 F4800 X66.067 Y99.803
G1 F1500 E58.21011
G0 F4800 X66.067 Y99.903
G0 X75.824 Y100.177
G0 X75.824 Y101.062
G0 X87.072 Y111.427
G0 X87.698 Y112.051
G0 X75.824 Y123.997
G0 X75.724 Y123.997
G1 F1500 E62.21011
G1 F1200 X94.969 Y104.752 E63.11533
G1 X95.248 Y105.031 E63.12846
G1 X76.003 Y124.276 E64.0201
G1 X75.724 Y123.997 E64.03323
G0 F4800 X75.865 Y123.856
G1 F1500 E60.03323
G0 F4800 X75.934 Y123.927
G0 X83.032 Y117.219
G0 X83.657 Y117.844
G0 X98.938 Y117.219
G0 X99.823 Y117.219
G0 X99.873 Y134.062
G0 X99.803 Y134.132
G1 F1500 E64.03323
G1 F1200 X99.803 Y106.919 E64.93833
G1 X100.197 Y106.919 E64.95144
G1 X100.197 Y134.133 E65.843
G1 X99.803 Y134.132 E65.85611
G0 F4800 X99.803 Y133.932
G1 F1500 E61.85611
G0 F4800 X99.903 Y133.932
G0 X100.177 Y124.175
G0 X101.062 Y124.175
G0 X111.427 Y112.928
G0 X112.052 Y112.303
G0 X123.996 Y124.175
G0 X123.996 Y124.275
G1 F1500 E65.85611
G1 F1200 X104.752 Y105.031 E66.76129
G1 X105.031 Y104.752 E66.77441
G1 X124.275 Y123.996 E67.66601
G1 X123.996 Y124.275 E67.67913
G0 F4800 X123.855 Y124.134
G1 F1500 E63.67913
G0 F4800 X123.926 Y124.065
G0 X117.219 Y116.968
G0 X117.844 Y116.343
G0 X117.219 Y101.062
G0 X117.219 Y100.177
G0 X134.063 Y100.127
G0 X134.133 Y100.197
G1 F1500 E67.67913
G1 F1200 X106.925 Y100.197 E68.58408
G1 X106.931 Y100 E68.59063
G1 X106.925 Y99.803 E68.59719
G1 X134.133 Y99.803 E69.48855
G1 X134.133 Y100.197 E69.50166
G0 F4800 X133.933 Y100.197
G1 F1500 E65.50166
G0 F4800 X133.933 Y100.097
G0 X124.176 Y99.823
G0 X124.176 Y98.938
G0 X112.928 Y88.573
G0 X112.302 Y87.949
G0 X124.176 Y76.003
G0 X124.276 Y76.003
G1 F1500 E69.50166
G1 F1200 X105.031 Y95.248 E70.40688
G1 X104.752 Y94.969 E70.42001
G1 X123.997 Y75.724 E71.31165
G1 X124.276 Y76.003 E71.32478
G0 F4800 X124.135 Y76.144
G1 F1500 E67.32478
G0 F4800 X124.066 Y76.073
G0 X116.968 Y82.781
G0 X116.343 Y82.156
G0 X101.062 Y82.781
G0 X100.177 Y82.781
G0 X100.127 Y65.938
G0 X100.197 Y65.868
G1 F1500 E71.32478
G1 F1200 X100.197 Y93.081 E72.22989
G1 X99.803 Y93.082 E72.24299
G1 X99.803 Y65.867 E73.13459
G1 X100.197 Y65.868 E73.14769
G0 F4800 X100.197 Y66.068
G1 F1500 E69.14769
G0 F4800 X100.097 Y66.068
G0 X99.823 Y76.004
G0 X98.938 Y76.004
G0 X88.663 Y87.161
G0 X88.038 Y87.787
G0 X75.825 Y76.004
G0 X75.584 Y75.863
;TIME_ELAPSED:116.798020
;LAYER:3
G0 X75.584 Y75.863 Z0.9
;TYPE:WALL-OUTER
G1 F1500 E73.14769
G1 F1200 X75.863 Y75.584 E73.16082
G1 X95.387 Y95.108 E74.07916
G1 X95.11 Y95.389 E74.09229
G1 X75.584 Y75.863 E74.99696
G0 F4800 X75.725 Y75.722
G1 F1500 E70.99696
G0 F4800 X75.794 Y75.793
G0 X82.68 Y82.931
G0 X82.056 Y83.557
G0 X82.68 Y98.938
G0 X82.68 Y99.823
G0 X65.737 Y99.873
G0 X65.667 Y99.803
G1 F1500 E74.99696
G1 F1200 X93.278 Y99.803 E75.9153
G1 X93.281 Y100.197 E75.92841
G1 X65.667 Y100.197 E76.83307
G1 X65.667 Y99.803 E76.84618
G0 F4800 X65.867 Y99.803
G1 F1500 E72.84618
G0 F4800 X65.867 Y99.903
G0 X75.683 Y100.177
G0 X75.683 Y101.062
G0 X87.001 Y111.498
G0 X87.627 Y112.122
G0 X75.683 Y124.138
G0 X75.583 Y124.138
G1 F1500 E76.84618
G1 F1200 X95.108 Y104.613 E77.76458
G1 X95.389 Y104.89 E77.7777
G1 X75.862 Y124.417 E78.68241
G1 X75.583 Y124.138 E78.69554
G0 F4800 X75.724 Y123.997
G1 F1500 E74.69554
G0 F4800 X75.793 Y124.068
G0 X82.932 Y117.319
G0 X83.557 Y117.944
G0 X98.938 Y117.319
G0 X99.823 Y117.319
G0 X99.873 Y134.262
G0 X99.803 Y134.332
G1 F1500 E78.69554
G1 F1200 X99.803 Y106.722 E79.61385
G1 X100.197 Y106.719 E79.62695
G1 X100.197 Y134.333 E80.53162
G1 X99.803 Y134.332 E80.54473
G0 F4800 X99.803 Y134.132
G1 F1500 E76.54473
G0 F4800 X99.903 Y134.132
G0 X100.177 Y124.316
G0 X101.062 Y124.316
G0 X111.496 Y112.997
G0 X112.121 Y112.372
G0 X124.137 Y124.316
G0 X124.137 Y124.416
G1 F1500 E80.54473
G1 F1200 X104.613 Y104.892 E81.46308
G1 X104.89 Y104.611 E81.4762
G1 X124.416 Y124.137 E82.38087
G1 X124.137 Y124.416 E82.39399
G0 F4800 X123.996 Y124.275
G1 F1500 E78.39399
G0 F4800 X124.067 Y124.206
G0 X117.32 Y117.069
