;FLAVOR:RepRap
;TIME:3316
;Filament used: 2.35848m
;Layer height: 0.2
;Generated with Cura_SteamEngine 2.6.0
M190 S70
M104 S205
M109 S205
G28 ;Home
G1 Z15.0 F6000 ;Move the platform down 15mm
;Prime the extruder
G92 E0
G1 F200 E3
G92 E0
;LAYER_COUNT:150
;LAYER:0
M107
G0 F600 X19.481 Y150.621 Z0.3
;TYPE:SKIRT
G1 F300 X20.042 Y150.558 E0.02816
G1 X20.772 Y150.593 E0.06463
G1 X24.007 Y151.05 E0.22762
G1 X24.559 Y151.169 E0.2558
G1 X25.09 Y151.364 E0.28402
G1 X25.359 Y151.498 E0.29901
G1 X25.686 Y151.676 E0.31758
G1 X26.163 Y151.98 E0.3458
G1 X26.585 Y152.344 E0.37361
G1 X29.59 Y155.313 E0.58436
G1 X29.787 Y155.521 E0.59865
G1 X30.519 Y156.356 E0.65405
G1 X30.861 Y156.807 E0.68229
G1 X31.235 Y157.533 E0.72304
G1 X33.642 Y163.673 E1.05206
G1 X33.811 Y164.213 E1.08029
G1 X33.902 Y164.771 E1.10849
G1 X33.917 Y165.198 E1.12981
G1 X33.805 Y172.088 E1.4736
G1 X33.846 Y175.299 E1.63381
G1 X33.822 Y175.789 E1.65829
G1 X33.315 Y180.385 E1.88897
G1 X33.213 Y180.941 E1.91717
G1 X32.95 Y181.667 E1.9557
G1 X30.826 Y186.124 E2.20202
G1 X30.547 Y186.616 E2.23023
G1 X30.202 Y187.063 E2.25841
G1 X29.797 Y187.458 E2.28663
G1 X29.341 Y187.791 E2.3148
G1 X29.051 Y187.957 E2.33147
G1 X24.989 Y190.056 E2.55958
G1 X24.47 Y190.279 E2.58776
G1 X24.012 Y190.409 E2.61152
G1 X23.771 Y190.462 E2.62383
G1 X23.212 Y190.544 E2.65201
G1 X22.589 Y190.542 E2.6831
G1 X16.685 Y190.063 E2.97862
G1 X16.126 Y189.977 E3.00683
G1 X15.584 Y189.814 E3.03507
G1 X14.949 Y189.506 E3.07028
G1 X14.196 Y189.054 E3.1141
G1 X13.89 Y188.85 E3.13244
G1 X11.244 Y186.91 E3.29613
G1 X10.813 Y186.544 E3.32434
G1 X10.437 Y186.121 E3.35258
G1 X10.125 Y185.65 E3.38076
G1 X9.841 Y185.027 E3.41492
G1 X8.083 Y180.095 E3.67615
G1 X7.931 Y179.55 E3.70437
G1 X7.856 Y178.944 E3.73484
G1 X7.681 Y175.308 E3.91645
G1 X7.677 Y175.052 E3.92922
G1 X7.758 Y169.981 E4.18225
G1 X7.713 Y164.971 E4.43221
G1 X7.716 Y164.779 E4.44179
G1 X7.791 Y162.863 E4.53745
G1 X7.853 Y162.301 E4.56566
G1 X8.012 Y161.7 E4.59667
G1 X8.129 Y161.365 E4.61438
G1 X8.352 Y160.846 E4.64256
G1 X8.591 Y160.443 E4.66593
G1 X13.199 Y153.628 E5.07636
G1 X13.548 Y153.184 E5.10454
G1 X13.957 Y152.793 E5.13277
G1 X14.416 Y152.463 E5.16097
G1 X15.118 Y152.12 E5.19995
G1 X18.489 Y150.866 E5.37939
G1 X19.153 Y150.682 E5.41377
G1 X19.481 Y150.621 E5.43041
G0 F600 X19.554 Y151.015
G1 F300 X20.087 Y150.956 E5.45717
G1 X20.716 Y150.989 E5.48859
G1 X23.951 Y151.446 E5.65159
G1 X24.475 Y151.561 E5.67835
G1 X25.168 Y151.849 E5.71579
G1 X25.495 Y152.027 E5.73437
G1 X25.946 Y152.318 E5.76114
G1 X26.304 Y152.628 E5.78477
G1 X29.309 Y155.597 E5.99552
G1 X29.486 Y155.785 E6.00841
G1 X30.218 Y156.62 E6.06381
G1 X30.541 Y157.048 E6.09056
G1 X30.863 Y157.679 E6.1259
G1 X33.27 Y163.819 E6.45492
G1 X33.428 Y164.332 E6.4817
G1 X33.508 Y164.862 E6.50844
G1 X33.518 Y165.191 E6.52487
G1 X33.406 Y172.109 E6.87005
G1 X33.446 Y175.304 E7.02946
G1 X33.424 Y175.745 E7.05149
G1 X32.917 Y180.341 E7.28218
G1 X32.819 Y180.868 E7.30892
G1 X32.589 Y181.495 E7.34224
G1 X30.465 Y185.952 E7.58856
G1 X30.199 Y186.417 E7.61529
G1 X29.866 Y186.838 E7.64207
G1 X29.475 Y187.205 E7.66882
G1 X28.868 Y187.601 E7.70498
G1 X24.806 Y189.7 E7.93309
G1 X24.312 Y189.91 E7.95987
G1 X23.926 Y190.018 E7.97987
G1 X23.685 Y190.071 E7.99218
G1 X23.154 Y190.147 E8.01894
G1 X22.621 Y190.143 E8.04553
G1 X16.717 Y189.664 E8.34105
G1 X16.187 Y189.581 E8.36782
G1 X15.675 Y189.42 E8.39459
G1 X15.155 Y189.163 E8.42353
G1 X14.402 Y188.711 E8.46735
G1 X14.126 Y188.527 E8.4839
G1 X11.48 Y186.587 E8.64758
G1 X11.073 Y186.239 E8.6743
G1 X10.721 Y185.834 E8.70107
G1 X10.434 Y185.381 E8.72783
G1 X10.218 Y184.893 E8.75445
G1 X8.46 Y179.961 E9.01567
G1 X8.318 Y179.444 E9.04242
G1 X8.255 Y178.925 E9.0685
G1 X8.08 Y175.289 E9.25012
G1 X8.076 Y175.059 E9.26159
G1 X8.157 Y169.956 E9.51621
G1 X8.113 Y164.967 E9.76513
G1 X8.116 Y164.794 E9.77376
G1 X8.191 Y162.878 E9.86942
G1 X8.252 Y162.345 E9.89619
G1 X8.389 Y161.832 E9.92268
G1 X8.506 Y161.497 E9.94038
G1 X8.72 Y161.005 E9.96715
G1 X8.923 Y160.668 E9.98677
G1 X13.531 Y153.853 E10.3972
G1 X13.863 Y153.432 E10.42395
G1 X14.255 Y153.065 E10.45074
G1 X14.696 Y152.761 E10.47747
G1 X15.258 Y152.495 E10.50849
G1 X18.629 Y151.241 E10.68793
G1 X19.226 Y151.076 E10.71883
G1 X19.554 Y151.015 E10.73547
G0 F600 X19.627 Y151.408
G1 F300 X20.13 Y151.355 E10.76071
G1 X20.66 Y151.385 E10.78719
G1 X23.895 Y151.842 E10.95019
G1 X24.388 Y151.953 E10.9754
G1 X24.977 Y152.2 E11.00726
G1 X25.304 Y152.378 E11.02584
G1 X25.727 Y152.654 E11.05104
G1 X26.023 Y152.913 E11.07066
G1 X29.028 Y155.882 E11.28141
G1 X29.185 Y156.049 E11.29285
G1 X29.917 Y156.884 E11.34825
G1 X30.219 Y157.289 E11.37345
G1 X30.49 Y157.825 E11.40342
G1 X32.897 Y163.965 E11.73244
G1 X33.044 Y164.449 E11.75767
G1 X33.118 Y165.185 E11.79458
G1 X33.006 Y172.109 E12.14006
G1 X33.046 Y175.31 E12.29977
G1 X33.027 Y175.701 E12.3193
G1 X32.52 Y180.297 E12.54999
G1 X32.425 Y180.793 E12.57519
G1 X32.228 Y181.323 E12.6034
G1 X30.104 Y185.78 E12.84971
G1 X29.851 Y186.217 E12.87491
G1 X29.532 Y186.61 E12.90016
G1 X29.156 Y186.947 E12.92535
G1 X28.684 Y187.246 E12.95323
G1 X24.622 Y189.345 E13.18134
G1 X24.156 Y189.541 E13.20656
G1 X23.84 Y189.627 E13.2229
G1 X23.599 Y189.68 E13.23521
G1 X23.099 Y189.75 E13.2604
G1 X22.653 Y189.745 E13.28265
G1 X16.749 Y189.266 E13.57817
G1 X16.25 Y189.185 E13.60339
G1 X15.77 Y189.027 E13.6286
G1 X15.361 Y188.82 E13.65147
G1 X14.608 Y188.368 E13.69529
G1 X14.363 Y188.205 E13.70997
G1 X11.717 Y186.265 E13.87366
G1 X11.334 Y185.934 E13.89891
G1 X11.008 Y185.548 E13.92412
G1 X10.747 Y185.115 E13.94934
G1 X10.595 Y184.758 E13.9687
G1 X8.837 Y179.826 E14.22992
G1 X8.705 Y179.338 E14.25514
G1 X8.655 Y178.906 E14.27684
G1 X8.48 Y175.27 E14.45845
G1 X8.476 Y175.065 E14.46868
G1 X8.558 Y169.959 E14.72345
G1 X8.513 Y164.964 E14.97267
G1 X8.515 Y164.81 E14.98035
G1 X8.59 Y162.894 E15.07601
G1 X8.65 Y162.392 E15.10123
G1 X8.767 Y161.964 E15.12337
G1 X8.884 Y161.629 E15.14107
G1 X9.088 Y161.166 E15.16632
G1 X9.254 Y160.892 E15.1823
G1 X13.862 Y154.077 E15.59273
G1 X14.177 Y153.681 E15.61797
G1 X14.551 Y153.341 E15.64319
G1 X14.974 Y153.063 E15.66844
G1 X15.397 Y152.87 E15.69164
G1 X18.768 Y151.616 E15.87108
G1 X19.299 Y151.469 E15.89857
G1 X19.627 Y151.408 E15.91521
G1 F1500 E14.16521
G0 F600 X19.991 Y153.911
G0 X20.243 Y155.169
G0 X19.928 Y155.314
G0 X19.901 Y155.218
;TYPE:WALL-INNER
G1 F1500 E15.91521
G1 F300 X20.243 Y155.15 E15.93261
G1 X23.262 Y155.581 E16.08475
G1 X23.416 Y155.666 E16.09353
G1 X26.79 Y159.015 E16.3307
G1 X27.036 Y159.345 E16.35124
G1 X27.098 Y159.482 E16.35874
G1 X29.353 Y165.305 E16.67027
G1 X29.357 Y165.334 E16.67174
G1 X27.327 Y169.792 E16.91612
G1 X27.482 Y170.246 E16.94005
G1 X28.97 Y173.084 E17.09992
G1 X29.255 Y174.568 E17.17531
G1 X29.273 Y175.069 E17.20032
G1 X28.844 Y179.489 E17.42187
G1 X28.756 Y179.843 E17.44007
G1 X26.897 Y183.789 E17.65769
G1 X26.788 Y183.969 E17.66819
G1 X22.913 Y185.96 E17.88554
G1 X17.112 Y185.487 E18.17592
G1 X17.083 Y185.474 E18.1775
G1 X14.124 Y183.384 E18.35824
G1 X12.458 Y178.762 E18.60335
G1 X12.4 Y178.487 E18.61737
G1 X12.251 Y174.407 E18.82106
G1 X12.258 Y174.019 E18.84042
G1 X13.975 Y170.216 E19.0486
G1 X14.277 Y169.26 E19.09861
G1 X14.278 Y169.259 E19.09868
G1 X14.349 Y169.032 E19.11055
G1 X14.112 Y169.002 E19.1179
G1 X13.882 Y168.973 E19.12946
G1 X12.288 Y165.716 E19.31037
G1 X12.375 Y163.118 E19.44006
G1 X12.439 Y162.942 E19.4494
G1 X12.808 Y162.413 E19.48158
G1 X16.898 Y156.352 E19.84637
G1 X19.901 Y155.218 E20.00652
G0 F600 X19.791 Y154.832
;TYPE:WALL-OUTER
G1 F300 X20.233 Y154.744 E20.02901
G1 X23.392 Y155.195 E20.18821
G1 X23.659 Y155.343 E20.20344
G1 X27.091 Y158.749 E20.44467
G1 X27.383 Y159.143 E20.46913
G1 X27.462 Y159.316 E20.47862
G1 X29.743 Y165.204 E20.79365
G1 X29.769 Y165.395 E20.80327
G1 X27.757 Y169.813 E21.04546
G1 X27.851 Y170.088 E21.05996
G1 X29.352 Y172.951 E21.22124
G1 X29.654 Y174.524 E21.30115
G1 X29.674 Y175.079 E21.32885
G1 X29.239 Y179.555 E21.55321
G1 X29.134 Y179.979 E21.57501
G1 X27.248 Y183.982 E21.79577
G1 X27.071 Y184.273 E21.81277
G1 X23.115 Y186.31 E22.03476
G1 X22.969 Y186.366 E22.04256
G1 X17.122 Y185.888 E22.33524
G1 X17.02 Y185.884 E22.34033
G1 X16.881 Y185.822 E22.34793
G1 X13.84 Y183.673 E22.5337
G1 X13.778 Y183.602 E22.53841
G1 X12.073 Y178.874 E22.78916
G1 X12.001 Y178.531 E22.80664
G1 X11.851 Y174.422 E23.01178
G1 X11.86 Y173.928 E23.03643
G1 X13.601 Y170.073 E23.24746
G1 X13.811 Y169.405 E23.28239
G1 X13.823 Y169.369 E23.28428
G1 X13.618 Y169.343 E23.29054
G1 X11.885 Y165.801 E23.48726
G1 X11.977 Y163.041 E23.62504
G1 X12.08 Y162.759 E23.64002
G1 X12.478 Y162.187 E23.67478
G1 X16.637 Y156.024 E24.04572
G1 X19.791 Y154.832 E24.21393
G0 F600 X19.987 Y154.793
G0 X20.152 Y155.351
;TYPE:SKIN
G1 F300 X28.562 Y163.76 E24.80727
G1 X28.632 Y163.83
G0 F600 X28.919 Y164.683
G1 F300 X19.716 Y155.48 E25.45659
G1 X19.646 Y155.41
G0 F600 X19.305 Y155.635
G1 F300 X29.111 Y165.441 E26.14846
G1 X29.181 Y165.511
G0 F600 X28.934 Y165.829
G1 F300 X18.894 Y155.79 E26.8568
G1 X18.824 Y155.72
G0 F600 X18.484 Y155.946
G1 F300 X28.757 Y166.218 E27.58158
G1 X28.827 Y166.288
G0 F600 X28.579 Y166.607
G1 F300 X18.073 Y156.1 E28.32287
G1 X18.003 Y156.03
G0 F600 X17.662 Y156.255
G1 F300 X28.403 Y166.995 E29.08067
G1 X28.473 Y167.065
G0 F600 X28.225 Y167.384
G1 F300 X17.251 Y156.41 E29.85494
G1 X17.181 Y156.34
G0 F600 X16.918 Y156.643
G1 F300 X28.048 Y167.773 E30.64022
G1 X28.118 Y167.843
G0 F600 X27.871 Y168.161
G1 F300 X16.69 Y156.98 E31.4291
G1 X16.62 Y156.91
G0 F600 X16.462 Y157.318
G1 F300 X27.694 Y168.55 E32.22158
G1 X27.764 Y168.62
G0 F600 X27.517 Y168.938
G1 F300 X16.234 Y157.655 E33.01766
G1 X16.164 Y157.585
G0 F600 X16.006 Y157.993
G1 F300 X27.34 Y169.327 E33.81733
G1 X27.41 Y169.397
G0 F600 X27.162 Y169.715
G1 F300 X15.779 Y158.331 E34.6205
G1 X15.709 Y158.261
G0 F600 X15.55 Y158.669
G1 F300 X27.447 Y170.565 E35.45986
G1 X27.517 Y170.635
G0 F600 X28.07 Y171.754
G1 F300 X15.323 Y159.007 E36.35923
G1 X15.253 Y158.937
G0 F600 X15.095 Y159.345
G1 F300 X28.692 Y172.942 E37.31858
G1 X28.762 Y173.012
G0 F600 X28.91 Y173.726
G1 F300 X14.866 Y159.682 E38.30946
G1 X14.796 Y159.612
G0 F600 X14.639 Y160.02
G1 F300 X29.045 Y174.426 E39.32588
G1 X29.115 Y174.496
G0 F600 X29.092 Y175.039
G1 F300 X14.411 Y160.358 E40.3617
G1 X14.341 Y160.288
G0 F600 X14.183 Y160.695
G1 F300 X29.045 Y175.558 E41.41033
G1 X29.115 Y175.628
G0 F600 X28.995 Y176.073
G1 F300 X13.955 Y161.033 E42.47148
G1 X13.885 Y160.963
G0 F600 X13.727 Y161.371
G1 F300 X28.945 Y176.589 E43.5452
G1 X29.015 Y176.659
G0 F600 X28.895 Y177.104
G1 F300 X13.499 Y161.708 E44.63147
G1 X13.429 Y161.638
G0 F600 X13.271 Y162.046
G1 F300 X28.845 Y177.62 E45.7303
G1 X28.915 Y177.69
G0 F600 X28.794 Y178.135
G1 F300 X13.043 Y162.384 E46.84161
G1 X12.973 Y162.314
G0 F600 X12.812 Y162.719
G1 F300 X28.744 Y178.651 E47.9657
G1 X28.814 Y178.721
G0 F600 X28.694 Y179.166
G1 F300 X12.586 Y163.058 E49.10221
G1 X12.516 Y162.988
G0 F600 X12.539 Y163.577
G1 F300 X28.617 Y179.655 E50.2366
G1 X28.687 Y179.725
G0 F600 X28.455 Y180.059
G1 F300 X12.521 Y164.125 E51.36083
G1 X12.451 Y164.055
G0 F600 X12.503 Y164.672
G1 F300 X28.274 Y180.443 E52.47356
G1 X28.344 Y180.513
G0 F600 X28.093 Y180.828
G1 F300 X12.484 Y165.219 E53.57486
G1 X12.414 Y165.149
G0 F600 X12.56 Y165.861
G1 F300 X27.912 Y181.213 E54.65802
G1 X27.982 Y181.283
G0 F600 X27.731 Y181.597
G1 F300 X13.102 Y166.969 E55.69014
G1 X13.032 Y166.899
G0 F600 X13.645 Y168.077
G1 F300 X14.427 Y168.859 E55.74532
G1 X14.497 Y168.929
G0 F600 X14.552 Y168.984
G1 F300 X27.549 Y181.981 E56.66233
G1 X27.619 Y182.051
G0 F600 X27.368 Y182.366
G1 F300 X14.416 Y169.414 E57.57616
G1 X14.346 Y169.344
G0 F600 X14.28 Y169.844
G1 F300 X27.187 Y182.751 E58.48682
G1 X27.257 Y182.821
G0 F600 X27.006 Y183.135
G1 F300 X14.144 Y170.274 E59.39427
G1 X14.074 Y170.204
G0 F600 X13.969 Y170.664
G1 F300 X26.825 Y183.52 E60.30133
G1 X26.895 Y183.59
G0 F600 X26.6 Y183.861
G1 F300 X13.793 Y171.054 E61.20493
G1 X13.723 Y170.984
G0 F600 X13.617 Y171.443
G1 F300 X26.227 Y184.053 E62.09463
G1 X26.297 Y184.123
G0 F600 X25.853 Y184.245
G1 F300 X13.441 Y171.833 E62.97037
G1 X13.371 Y171.763
G0 F600 X13.265 Y172.222
G1 F300 X25.479 Y184.437 E63.83217
G1 X25.549 Y184.507
G0 F600 X25.105 Y184.629
G1 F300 X13.089 Y172.612 E64.68
G1 X13.019 Y172.542
G0 F600 X12.913 Y173.002
G1 F300 X24.732 Y184.821 E65.51389
G1 X24.802 Y184.891
G0 F600 X24.358 Y185.013
G1 F300 X12.737 Y173.391 E66.33385
G1 X12.667 Y173.321
G0 F600 X12.561 Y173.781
G1 F300 X23.985 Y185.205 E67.13987
G1 X24.055 Y185.275
G0 F600 X23.611 Y185.397
G1 F300 X12.433 Y174.219 E67.92854
G1 X12.363 Y174.149
G0 F600 X12.444 Y174.796
G1 F300 X23.237 Y185.589 E68.69005
G1 X23.307 Y185.659
G0 F600 X22.855 Y185.773
G1 F300 X12.466 Y175.383 E69.42308
G1 X12.396 Y175.313
G0 F600 X12.487 Y175.97
G1 F300 X22.239 Y185.723 E70.11117
G1 X22.309 Y185.793
G0 F600 X21.624 Y185.672
G1 F300 X12.508 Y176.557 E70.75432
G1 X12.438 Y176.487
G0 F600 X12.53 Y177.145
G1 F300 X21.008 Y185.622 E71.35246
G1 X21.078 Y185.692
G0 F600 X20.392 Y185.572
G1 F300 X12.551 Y177.731 E71.90568
G1 X12.481 Y177.661
G0 F600 X12.573 Y178.318
G1 F300 X19.776 Y185.522 E72.41393
G1 X19.846 Y185.592
G0 F600 X19.16 Y185.471
G1 F300 X12.762 Y179.074 E72.8653
G1 X12.692 Y179.004
G0 F600 X13.081 Y179.958
G1 F300 X18.544 Y185.421 E73.25075
G1 X18.614 Y185.491
G0 F600 X17.928 Y185.371
G1 F300 X13.399 Y180.842 E73.57029
G1 X13.329 Y180.772
G0 F600 X13.717 Y181.726
G1 F300 X17.312 Y185.321 E73.82394
G1 X17.382 Y185.391
G0 F600 X15.706 Y184.281
G1 F300 X14.036 Y182.611 E73.94177
G1 X13.966 Y182.541
G0 F600 X28.204 Y162.837
G1 F300 X20.774 Y155.407 E74.46599
G1 X20.704 Y155.337
G0 F600 X21.434 Y155.501
G1 F300 X27.846 Y161.914 E74.91843
G1 X27.916 Y161.984
G0 F600 X27.488 Y160.99
G1 F300 X22.094 Y155.596 E75.29901
G1 X22.024 Y155.526
G0 F600 X22.754 Y155.69
G1 F300 X27.13 Y160.067 E75.60779
G1 X27.2 Y160.137
G0 F600 X26.958 Y160.229
G0 X20.335 Y155.264
G0 X20.349 Y155.176
;TIME_ELAPSED:327.310554
;LAYER:1
M140 S70
M106 S255
G0 F2700 X20.349 Y155.176 Z0.5
;TYPE:WALL-INNER
G1 F1350 X23.162 Y155.578 E75.7023
G1 X23.502 Y155.766 E75.71523
G1 X26.63 Y158.87 E75.86179
G1 X27.064 Y159.453 E75.88597
G1 X27.175 Y159.697 E75.89488
G1 X29.344 Y165.301 E76.09475
G1 X29.366 Y165.464 E76.10022
G1 X27.405 Y169.77 E76.25759
G1 X27.612 Y170.376 E76.27889
G1 X29.029 Y173.078 E76.38036
G1 X29.3 Y174.488 E76.42812
G1 X29.326 Y175.245 E76.45331
G1 X28.919 Y179.438 E76.59343
G1 X28.762 Y180.067 E76.61499
G1 X27.012 Y183.782 E76.75157
G1 X26.809 Y184.116 E76.76457
G1 X23.056 Y186.047 E76.90495
G1 X22.915 Y186.102 E76.90999
G1 X17.418 Y185.65 E77.09343
G1 X17.119 Y185.635 E77.10339
G1 X17.009 Y185.585 E77.10741
G1 X14.091 Y183.525 E77.22621
G1 X14.061 Y183.491 E77.22772
G1 X12.436 Y178.985 E77.38704
G1 X12.34 Y178.524 E77.4027
G1 X12.198 Y174.667 E77.53107
G1 X12.211 Y173.978 E77.55399
G1 X13.839 Y170.371 E77.68561
G1 X14.219 Y169.162 E77.72777
G1 X14.292 Y168.93 E77.73586
G1 X14.05 Y168.905 E77.74082
G1 X14.049 Y168.904 E77.74086
G1 X13.78 Y168.875 E77.74986
G1 X12.264 Y165.777 E77.86458
G1 X12.347 Y163.298 E77.94708
G1 X12.487 Y162.916 E77.96061
G1 X13.109 Y162.022 E77.99683
G1 X16.933 Y156.356 E78.22419
G1 X19.731 Y155.3 E78.32366
G1 X20.349 Y155.176 E78.34462
G0 F2700 X19.621 Y154.914
;TYPE:WALL-OUTER
G1 F750 X20.338 Y154.77 E78.36894
G1 X23.292 Y155.192 E78.46819
G1 X23.745 Y155.443 E78.48542
G1 X26.933 Y158.607 E78.63481
G1 X27.41 Y159.248 E78.66138
G1 X27.539 Y159.531 E78.67173
G1 X29.734 Y165.2 E78.87392
G1 X29.778 Y165.525 E78.88483
G1 X27.835 Y169.791 E79.04074
G1 X27.981 Y170.218 E79.05575
G1 X29.411 Y172.946 E79.15819
G1 X29.699 Y174.443 E79.2089
G1 X29.727 Y175.255 E79.23592
G1 X29.314 Y179.504 E79.37791
G1 X29.14 Y180.205 E79.40193
G1 X27.365 Y183.971 E79.5404
G1 X27.092 Y184.42 E79.55788
G1 X23.219 Y186.414 E79.70277
G1 X22.973 Y186.508 E79.71153
G1 X17.392 Y186.049 E79.89778
G1 X17.025 Y186.031 E79.91
G1 X16.806 Y185.932 E79.91799
G1 X13.819 Y183.823 E80.03961
G1 X13.711 Y183.698 E80.0451
G1 X12.049 Y179.09 E80.20803
G1 X11.941 Y178.574 E80.22556
