;FLAVOR:RepRap
;TIME:10028
;Filament used: 6.48893m
;Layer height: 0.2
;Generated with Cura_SteamEngine 2.6.0
M190 S50
M104 S195
M109 S195
G28 ;Home
G1 Z15.0 F6000 ;Move the platform down 15mm
;Prime the extruder
G92 E0
G1 F200 E3
G92 E0
;LAYER_COUNT:240
;LAYER:0
M107
G0 F1200 X75.987 Y90.646 Z0.3
;TYPE:SKIRT
G1 F600 X76.401 Y90.33 E0.02598
G1 X76.874 Y90.02 E0.0542
G1 X77.628 Y89.694 E0.09518
G1 X78.162 Y89.526 E0.12311
G1 X78.711 Y89.395 E0.15127
G1 X79.112 Y89.35 E0.1714
G1 X102.77 Y87.867 E1.35402
G1 X103.097 Y87.86 E1.37034
G1 X105.333 Y87.903 E1.48191
G1 X105.844 Y87.945 E1.50749
G1 X107.561 Y88.2 E1.59409
G1 X107.982 Y88.286 E1.61553
G1 X109.393 Y88.654 E1.68828
G1 X109.864 Y88.809 E1.71302
G1 X111.97 Y89.648 E1.82612
G1 X112.501 Y89.906 E1.85557
G1 X114.386 Y91.002 E1.96436
G1 X114.868 Y91.332 E1.9935
G1 X116.528 Y92.655 E2.0994
G1 X116.951 Y93.045 E2.12811
G1 X118.512 Y94.708 E2.2419
G1 X118.884 Y95.167 E2.27137
G1 X120.09 Y96.907 E2.377
G1 X120.378 Y97.394 E2.40522
G1 X120.527 Y97.728 E2.42347
G1 X120.788 Y98.395 E2.4592
G1 X120.956 Y98.935 E2.48742
G1 X121.047 Y99.493 E2.51562
G1 X121.058 Y100.058 E2.54382
G1 X121 Y100.559 E2.56898
G1 X120.868 Y101.295 E2.60628
G1 X120.729 Y101.843 E2.63449
G1 X120.515 Y102.366 E2.66268
G1 X120.241 Y102.835 E2.68978
G1 X118.89 Y104.826 E2.80982
G1 X118.458 Y105.358 E2.84401
G1 X116.63 Y107.252 E2.97534
G1 X116.212 Y107.628 E3.00339
G1 X114.941 Y108.619 E3.08379
G1 X114.611 Y108.851 E3.10392
G1 X113.438 Y109.589 E3.17306
G1 X113.014 Y109.821 E3.19717
G1 X110.906 Y110.815 E3.31344
G1 X110.297 Y111.044 E3.3459
G1 X107.936 Y111.717 E3.46839
G1 X107.397 Y111.831 E3.49587
G1 X105.685 Y112.072 E3.58213
G1 X105.313 Y112.107 E3.60077
G1 X104.173 Y112.16 E3.6577
G1 X103.741 Y112.156 E3.67926
G1 X78.979 Y110.633 E4.91697
G1 X78.419 Y110.559 E4.94516
G1 X77.822 Y110.387 E4.97615
G1 X77.427 Y110.239 E4.9972
G1 X76.912 Y110.003 E5.02546
G1 X76.253 Y109.553 E5.06527
G1 X75.721 Y109.105 E5.09997
G1 X75.316 Y108.711 E5.12816
G1 X74.97 Y108.264 E5.15636
G1 X74.779 Y107.946 E5.17487
G1 X74.523 Y107.472 E5.20174
G1 X74.29 Y106.957 E5.22994
G1 X74.132 Y106.414 E5.25816
G1 X74.055 Y105.897 E5.28424
G1 X73.936 Y104.442 E5.35707
G1 X73.923 Y104.113 E5.3735
G1 X73.93 Y95.067 E5.8248
G1 X73.981 Y94.432 E5.85658
G1 X74.072 Y93.869 E5.88504
G1 X74.202 Y93.318 E5.91328
G1 X74.407 Y92.792 E5.94145
G1 X74.557 Y92.508 E5.95747
G1 X74.95 Y91.827 E5.9967
G1 X75.266 Y91.358 E6.02491
G1 X75.645 Y90.939 E6.0531
G1 X75.987 Y90.646 E6.07557
G0 F1200 X76.23 Y90.964
G1 F600 X76.644 Y90.648 E6.10155
G1 X77.093 Y90.356 E6.12827
G1 X77.748 Y90.076 E6.16381
G1 X78.282 Y89.908 E6.19174
G1 X78.804 Y89.786 E6.21848
G1 X79.137 Y89.749 E6.2352
G1 X102.795 Y88.266 E7.41782
G1 X103.089 Y88.26 E7.43249
G1 X105.325 Y88.303 E7.54406
G1 X105.785 Y88.341 E7.56709
G1 X107.502 Y88.596 E7.65369
G1 X107.882 Y88.674 E7.67305
G1 X109.293 Y89.042 E7.7458
G1 X109.716 Y89.181 E7.76801
G1 X111.822 Y90.02 E7.88111
G1 X112.3 Y90.252 E7.90762
G1 X114.185 Y91.348 E8.0164
G1 X114.619 Y91.645 E8.04264
G1 X116.279 Y92.968 E8.14854
G1 X116.66 Y93.319 E8.17439
G1 X118.221 Y94.982 E8.28818
G1 X118.555 Y95.395 E8.31468
G1 X119.761 Y97.135 E8.4203
G1 X120.033 Y97.598 E8.44709
G1 X120.154 Y97.874 E8.46212
G1 X120.415 Y98.541 E8.49786
G1 X120.573 Y99.054 E8.52464
G1 X120.653 Y99.584 E8.55138
G1 X120.653 Y100.12 E8.57812
G1 X120.606 Y100.489 E8.59668
G1 X120.474 Y101.225 E8.63398
G1 X120.341 Y101.744 E8.66071
G1 X120.131 Y102.238 E8.68749
G1 X119.91 Y102.61 E8.70908
G1 X118.559 Y104.601 E8.82912
G1 X118.17 Y105.08 E8.85991
G1 X116.342 Y106.974 E8.99123
G1 X115.966 Y107.313 E9.01649
G1 X114.695 Y108.304 E9.09689
G1 X114.398 Y108.512 E9.11498
G1 X113.225 Y109.25 E9.18412
G1 X112.843 Y109.459 E9.20585
G1 X110.735 Y110.453 E9.32212
G1 X110.187 Y110.659 E9.35133
G1 X107.826 Y111.332 E9.47381
G1 X107.341 Y111.435 E9.49855
G1 X105.629 Y111.676 E9.5848
G1 X105.294 Y111.707 E9.60159
G1 X104.154 Y111.76 E9.65852
G1 X103.766 Y111.757 E9.67788
G1 X79.004 Y110.234 E10.9156
G1 X78.473 Y110.162 E10.94233
G1 X77.962 Y110.012 E10.9689
G1 X77.567 Y109.864 E10.98995
G1 X77.08 Y109.639 E11.01671
G1 X76.511 Y109.247 E11.05118
G1 X75.979 Y108.799 E11.08588
G1 X75.596 Y108.424 E11.11262
G1 X75.272 Y107.996 E11.13941
G1 X75.13 Y107.756 E11.15332
G1 X74.874 Y107.282 E11.18019
G1 X74.655 Y106.792 E11.20697
G1 X74.512 Y106.276 E11.23368
G1 X74.454 Y105.864 E11.25444
G1 X74.335 Y104.409 E11.32727
G1 X74.323 Y104.113 E11.34205
G1 X74.33 Y95.067 E11.79336
G1 X74.376 Y94.496 E11.82194
G1 X74.467 Y93.933 E11.85039
G1 X74.592 Y93.411 E11.87717
G1 X74.903 Y92.708 E11.91552
G1 X75.296 Y92.027 E11.95475
G1 X75.598 Y91.583 E11.98154
G1 X75.962 Y91.19 E12.00827
G1 X76.23 Y90.964 E12.02576
G0 F1200 X76.472 Y91.282
G1 F600 X76.886 Y90.966 E12.05174
G1 X77.311 Y90.692 E12.07697
G1 X77.868 Y90.458 E12.10711
G1 X78.402 Y90.29 E12.13504
G1 X78.894 Y90.176 E12.16023
G1 X79.162 Y90.148 E12.17368
G1 X102.82 Y88.665 E13.3563
G1 X103.082 Y88.66 E13.36937
G1 X105.318 Y88.703 E13.48094
G1 X105.726 Y88.737 E13.50137
G1 X107.443 Y88.992 E13.58797
G1 X107.781 Y89.061 E13.60518
G1 X109.192 Y89.429 E13.67793
G1 X109.568 Y89.552 E13.69767
G1 X111.674 Y90.391 E13.81077
G1 X112.098 Y90.598 E13.83431
G1 X113.983 Y91.694 E13.94309
G1 X114.369 Y91.958 E13.96642
G1 X116.029 Y93.281 E14.07233
G1 X116.368 Y93.593 E14.09531
G1 X117.929 Y95.256 E14.2091
G1 X118.226 Y95.623 E14.23266
G1 X119.432 Y97.363 E14.33828
G1 X119.782 Y98.02 E14.37542
G1 X120.043 Y98.687 E14.41115
G1 X120.189 Y99.171 E14.43637
G1 X120.258 Y99.672 E14.4616
G1 X120.213 Y100.418 E14.49889
G1 X120.081 Y101.154 E14.5362
G1 X119.952 Y101.643 E14.56143
G1 X119.749 Y102.106 E14.58665
G1 X119.579 Y102.386 E14.60299
G1 X118.228 Y104.377 E14.72303
G1 X117.883 Y104.802 E14.75034
G1 X116.055 Y106.696 E14.88167
G1 X115.72 Y106.998 E14.90417
G1 X114.449 Y107.989 E14.98457
G1 X114.185 Y108.174 E15.00066
G1 X113.012 Y108.912 E15.0698
G1 X112.673 Y109.097 E15.08907
G1 X110.565 Y110.091 E15.20534
G1 X110.077 Y110.274 E15.23134
G1 X107.716 Y110.947 E15.35382
G1 X107.285 Y111.039 E15.37581
G1 X105.573 Y111.28 E15.46207
G1 X105.276 Y111.308 E15.47695
G1 X104.136 Y111.361 E15.53388
G1 X103.791 Y111.358 E15.5511
G1 X79.029 Y109.835 E16.78881
G1 X78.528 Y109.764 E16.81406
G1 X78.102 Y109.638 E16.83622
G1 X77.707 Y109.49 E16.85727
G1 X77.249 Y109.275 E16.88251
G1 X76.769 Y108.941 E16.91168
G1 X76.237 Y108.493 E16.94638
G1 X75.877 Y108.138 E16.97161
G1 X75.482 Y107.566 E17.00629
G1 X75.226 Y107.092 E17.03316
G1 X75.022 Y106.629 E17.0584
G1 X74.893 Y106.14 E17.08363
G1 X74.853 Y105.832 E17.09913
G1 X74.734 Y104.377 E17.17196
G1 X74.723 Y104.114 E17.1851
G1 X74.73 Y95.068 E17.6364
G1 X74.771 Y94.559 E17.66188
G1 X74.862 Y93.996 E17.69033
G1 X74.982 Y93.505 E17.71555
G1 X75.249 Y92.908 E17.74818
G1 X75.642 Y92.227 E17.7874
G1 X75.929 Y91.81 E17.81266
G1 X76.277 Y91.444 E17.83785
G1 X76.472 Y91.282 E17.8505
G1 F1500 E13.8505
G0 F1200 X78.128 Y93.173
G0 X78.959 Y94.15
G0 X78.944 Y94.268
G0 X78.875 Y94.197
;TYPE:WALL-INNER
G1 F1500 E17.8505
G1 F600 X78.947 Y94.135 E17.85524
G1 X79.118 Y94.023 E17.86544
G1 X79.271 Y93.959 E17.87371
G1 X79.464 Y93.912 E17.88363
G1 X79.616 Y93.894 E17.89126
G1 X103.026 Y92.454 E19.0614
G1 X103.565 Y92.432 E19.08831
G1 X104.027 Y92.429 E19.11136
G1 X104.473 Y92.44 E19.13362
G1 X104.943 Y92.467 E19.15711
G1 X105.443 Y92.512 E19.18215
G1 X105.881 Y92.567 E19.20418
G1 X106.275 Y92.627 E19.22406
G1 X107.117 Y92.794 E19.26688
G1 X107.591 Y92.911 E19.29124
G1 X108.006 Y93.029 E19.31277
G1 X108.463 Y93.173 E19.33667
G1 X109.243 Y93.459 E19.37812
G1 X109.662 Y93.632 E19.40074
G1 X110.128 Y93.845 E19.4263
G1 X110.777 Y94.178 E19.46269
G1 X111.141 Y94.383 E19.48353
G1 X111.519 Y94.611 E19.50556
G1 X111.828 Y94.807 E19.52381
G1 X112.521 Y95.292 E19.56601
G1 X112.818 Y95.521 E19.58472
G1 X113.173 Y95.81 E19.60756
G1 X113.466 Y96.064 E19.62691
G1 X113.794 Y96.364 E19.64908
G1 X114.132 Y96.694 E19.67265
G1 X114.477 Y97.056 E19.6976
G1 X114.777 Y97.385 E19.71981
G1 X115.101 Y97.774 E19.74507
G1 X115.384 Y98.132 E19.76784
G1 X115.67 Y98.523 E19.792
G1 X115.957 Y98.942 E19.81734
G1 X116.098 Y99.162 E19.83038
G1 X116.393 Y99.656 E19.85908
G1 X116.457 Y99.819 E19.86782
G1 X116.473 Y99.9 E19.87194
G1 X116.476 Y100.081 E19.88097
G1 X116.443 Y100.221 E19.88815
G1 X116.404 Y100.319 E19.89341
G1 X116.253 Y100.585 E19.90867
G1 X115.966 Y101.04 E19.93551
G1 X115.71 Y101.421 E19.95841
G1 X115.203 Y102.102 E20.00077
G1 X115.202 Y102.104 E20.00088
G1 X115.098 Y102.229 E20.00899
G1 X115.038 Y102.302 E20.0137
G1 X114.963 Y102.393 E20.01959
G1 X114.918 Y102.205
G1 X114.821 Y102 E20.0262
G1 X114.82 Y101.998 E20.02631
G1 X114.676 Y101.826 E20.0375
G1 X114.505 Y101.696 E20.04822
G1 X114.314 Y101.603 E20.05882
G1 X114.112 Y101.544 E20.06932
G1 X113.951 Y101.515 E20.07748
G1 X113.888 Y101.505 E20.08066
G1 X113.591 Y101.484 E20.09552
G1 X113.512 Y101.485 E20.09946
G1 X113.538 Y101.448
G1 X113.627 Y101.322
G1 X113.663 Y101.27 E20.10234
G1 X114.433 Y100.18 E20.16892
G1 X114.636 Y99.876 E20.18716
G1 X114.743 Y99.681 E20.19825
G1 X114.823 Y99.486 E20.20877
G1 X114.868 Y99.322 E20.21725
G1 X114.896 Y99.104 E20.22822
G1 X114.894 Y98.875 E20.23965
G1 X114.853 Y98.656 E20.25076
G1 X114.782 Y98.459 E20.26121
G1 X114.683 Y98.287 E20.27111
G1 X114.532 Y98.121 E20.2823
G1 X114.338 Y97.995 E20.29385
G1 X114.135 Y97.923 E20.30459
G1 X113.923 Y97.886 E20.31533
G1 X113.7 Y97.88 E20.32646
G1 X113.309 Y97.886 E20.34597
G1 X111.733 Y97.881 E20.42459
G1 X111.478 Y97.899 E20.43735
G1 X111.272 Y97.937 E20.4478
G1 X111.076 Y98.001 E20.45809
G1 X110.885 Y98.109 E20.46903
G1 X110.716 Y98.265 E20.48051
G1 X110.663 Y98.347 E20.48538
G1 X110.631 Y98.397 E20.48834
G1 X110.602 Y98.441 E20.49097
G1 X110.555 Y98.363
G1 X110.539 Y98.337
G1 X110.398 Y98.177 E20.49623
G1 X110.23 Y98.041 E20.50701
G1 X110.03 Y97.937 E20.51826
G1 X109.815 Y97.886 E20.52928
G1 X109.579 Y97.886 E20.54106
G1 X109.354 Y97.96 E20.55288
G1 X109.167 Y98.069 E20.56367
G1 X109.004 Y98.219 E20.57473
G1 X108.867 Y98.392 E20.58574
G1 X108.746 Y98.59 E20.59731
G1 X108.639 Y98.814 E20.6097
G1 X108.582 Y98.965 E20.61775
G1 X108.542 Y99.071 E20.6234
G1 X108.482 Y99.252 E20.63291
G1 X108.428 Y99.411 E20.64129
G1 X108.376 Y99.565 E20.6494
G1 X108.294 Y99.367
G1 X108.228 Y99.167
G1 X108.225 Y99.155
G1 X108.197 Y99.045 E20.65457
G1 X108.116 Y98.738 E20.67041
G1 X108.035 Y98.543 E20.68095
G1 X107.927 Y98.358 E20.69163
G1 X107.777 Y98.193 E20.70276
G1 X107.594 Y98.059 E20.71407
G1 X107.422 Y97.976 E20.7236
G1 X107.211 Y97.91 E20.73463
G1 X106.985 Y97.881 E20.746
G1 X106.762 Y97.893 E20.75714
G1 X106.546 Y97.949 E20.76827
G1 X106.339 Y98.06 E20.77999
G1 X106.166 Y98.228 E20.79202
G1 X106.063 Y98.403 E20.80215
G1 X106.046 Y98.431 E20.80379
G1 X106.026 Y98.496 E20.80718
G1 X106.005 Y98.561 E20.81059
G1 X105.977 Y98.481
G1 X105.918 Y98.389
G1 X105.842 Y98.272 E20.81086
G1 X105.665 Y98.095 E20.82335
G1 X105.473 Y97.973 E20.8347
G1 X105.255 Y97.896 E20.84623
G1 X105.02 Y97.878 E20.85799
G1 X104.8 Y97.917 E20.86914
G1 X104.599 Y98.002 E20.88002
G1 X104.422 Y98.118 E20.89058
G1 X104.265 Y98.258 E20.90108
G1 X104.263 Y98.259 E20.90119
G1 X104.106 Y98.438 E20.91307
G1 X104.058 Y98.509 E20.91734
G1 X104.015 Y98.571 E20.92111
G1 X103.983 Y98.524
G1 X103.95 Y98.477
G1 X103.895 Y98.398
G1 X103.894 Y98.396 E20.92122
G1 X103.757 Y98.237 E20.93169
G1 X103.601 Y98.097 E20.94215
G1 X103.416 Y97.98 E20.95307
G1 X103.211 Y97.906 E20.96394
G1 X102.992 Y97.876 E20.97497
G1 X102.759 Y97.899 E20.98665
G1 X102.54 Y97.966 E20.99808
G1 X102.337 Y98.075 E21.00957
G1 X102.167 Y98.221 E21.02075
G1 X102.029 Y98.401 E21.03207
G1 X101.938 Y98.621 E21.04394
G1 X101.905 Y98.834 E21.0547
G1 X101.916 Y99.046 E21.06529
G1 X101.964 Y99.255 E21.07599
G1 X102.041 Y99.465 E21.08715
G1 X102.151 Y99.687 E21.09951
G1 X102.337 Y100.004 E21.11784
G1 X102.623 Y100.517 E21.14715
G1 X102.784 Y100.761 E21.16173
G1 X102.589 Y101.028 E21.17823
G1 X102.327 Y101.484 E21.20446
G1 X102.296 Y101.538 E21.20757
G1 X102.212 Y101.676 E21.21563
G1 X102.132 Y101.808 E21.22333
G1 X102.115 Y101.836 E21.22496
G1 X102.101 Y101.789
G1 X102.04 Y101.662
G1 X101.978 Y101.535 E21.22811
G1 X101.941 Y101.485 E21.23122
G1 X101.809 Y101.304 E21.24239
G1 X101.603 Y101.11 E21.25651
G1 X101.368 Y100.955 E21.27055
G1 X101.107 Y100.842 E21.28474
G1 X100.831 Y100.778 E21.29888
G1 X100.549 Y100.764 E21.31296
G1 X100.348 Y100.79 E21.32308
G1 X100.269 Y100.8 E21.32705
G1 X100.05 Y100.866 E21.33846
G1 X99.998 Y100.882 E21.34117
G1 X99.974 Y100.895 E21.34254
G1 X99.977 Y100.879
G1 X100 Y100.75
G1 X100.006 Y100.722
G1 X100.014 Y100.643 E21.3465
G1 X100.046 Y100.36 E21.36071
G1 X100.06 Y99.984 E21.37948
G1 X100.052 Y99.615 E21.39789
G1 X100.021 Y99.272 E21.41507
G1 X99.967 Y98.931 E21.4323
G1 X99.896 Y98.63 E21.44773
G1 X99.803 Y98.346 E21.46264
G1 X99.69 Y98.075 E21.47729
G1 X99.557 Y97.822 E21.49155
G1 X99.404 Y97.587 E21.50554
G1 X99.238 Y97.376 E21.51893
G1 X99.123 Y97.254 E21.52729
G1 X98.961 Y97.103 E21.53834
G1 X98.756 Y96.945 E21.55126
G1 X98.537 Y96.813 E21.56401
G1 X98.31 Y96.706 E21.57653
G1 X98.065 Y96.623 E21.58944
G1 X97.795 Y96.556 E21.60332
G1 X97.491 Y96.505 E21.6187
G1 X97.146 Y96.468 E21.63601
G1 X96.752 Y96.45 E21.65568
G1 X95.951 Y96.446 E21.69565
G1 X95.645 Y96.434 E21.71092
G1 X95.423 Y96.439 E21.722
G1 X95.254 Y96.46 E21.7305
G1 X95.048 Y96.513 E21.74111
G1 X94.852 Y96.595 E21.75171
G1 X94.667 Y96.717 E21.76277
G1 X94.509 Y96.886 E21.77431
G1 X94.394 Y97.099 E21.78639
G1 X94.34 Y97.329 E21.79817
G1 X94.331 Y97.546 E21.80901
G1 X94.37 Y97.958 E21.82965
G1 X94.374 Y98.142 E21.83884
G1 X94.364 Y98.514 E21.8574
G1 X94.364 Y100.259 E21.94446
G1 X94.364 Y100.449 E21.95394
G1 X94.364 Y100.726 E21.96776
G1 X94.364 Y100.979 E21.98038
G1 X94.364 Y101.228 E21.9928
G1 X94.364 Y101.475 E22.00513
G1 X94.365 Y101.721 E22.0174
G1 X94.366 Y101.826 E22.02264
G1 X94.36 Y101.987 E22.03068
G1 X94.353 Y102.156 E22.03912
G1 X94.355 Y102.385 E22.05054
G1 X94.382 Y102.611 E22.0619
G1 X94.437 Y102.823 E22.07282
G1 X94.521 Y103.016 E22.08332
G1 X94.644 Y103.198 E22.09428
G1 X94.809 Y103.348 E22.10541
G1 X95.014 Y103.458 E22.11702
G1 X95.231 Y103.509 E22.12814
G1 X95.441 Y103.518 E22.13862
G1 X95.889 Y103.476 E22.16107
G1 X96.076 Y103.473 E22.1704
G1 X96.485 Y103.484 E22.19082
G1 X96.894 Y103.479 E22.21122
G1 X97.247 Y103.455 E22.22887
G1 X97.559 Y103.415 E22.24457
G1 X97.838 Y103.36 E22.25875
G1 X98.096 Y103.287 E22.27213
G1 X98.341 Y103.189 E22.2853
G1 X98.58 Y103.062 E22.2988
G1 X98.782 Y102.927 E22.31092
G1 X98.803 Y102.913 E22.31218
G1 X98.933 Y102.808 E22.32052
G1 X98.944 Y102.798 E22.32126
G1 X99.031 Y102.717 E22.32719
G1 X99.046 Y102.704 E22.32818
G1 X99.051 Y102.739
G1 X99.059 Y102.765
G1 X99.078 Y102.82
G1 X99.141 Y103.008 E22.33012
G1 X99.153 Y103.03 E22.33137
G1 X99.276 Y103.254 E22.34412
G1 X99.447 Y103.468 E22.35779
G1 X99.599 Y103.608 E22.3681
G1 X99.823 Y103.762 E22.38166
G1 X100.036 Y103.859 E22.39334
G1 X100.19 Y103.909 E22.40142
G1 X100.455 Y103.959 E22.41487
G1 X100.74 Y103.96 E22.42909
G1 X101.016 Y103.912 E22.44306
G1 X101.271 Y103.82 E22.45659
G1 X101.454 Y103.725 E22.46688
G1 X101.673 Y103.56 E22.48056
G1 X101.844 Y103.381 E22.49291
G1 X101.944 Y103.234 E22.50178
G1 X101.981 Y103.181 E22.505
G1 X102.027 Y103.242
G1 X102.102 Y103.342
G1 X102.279 Y103.493 E22.51661
G1 X102.478 Y103.602 E22.52793
G1 X102.688 Y103.666 E22.53888
G1 X102.917 Y103.688 E22.55036
G1 X103.164 Y103.645 E22.56287
G1 X103.368 Y103.549 E22.57412
G1 X103.535 Y103.421 E22.58461
G1 X103.686 Y103.26 E22.59562
G1 X103.839 Y103.037 E22.60912
G1 X103.876 Y102.983 E22.61238
G1 X103.958 Y102.863 E22.61963
G1 X104.129 Y103.156 E22.62636
G1 X104.168 Y103.209 E22.62933
G1 X104.25 Y103.32 E22.63621
G1 X104.396 Y103.468 E22.64658
G1 X104.58 Y103.591 E22.65763
G1 X104.796 Y103.672 E22.66914
G1 X105.019 Y103.703 E22.68037
G1 X105.257 Y103.686 E22.69227
G1 X105.478 Y103.628 E22.70367
G1 X105.679 Y103.525 E22.71494
G1 X105.854 Y103.384 E22.72615
G1 X105.996 Y103.198 E22.73783
G1 X106.092 Y102.975 E22.74994
G1 X106.132 Y102.739 E22.76188
