;FLAVOR:RepRap
;TIME:9783
;Filament used: 5.95292m
;Layer height: 0.2
;Generated with Cura_SteamEngine 2.6.0
M190 S70
M104 S205
M109 S205
G28 ;Home
G1 Z15.0 F6000 ;Move the platform down 15mm
;Prime the extruder
G92 E0
G1 F200 E3
G92 E0
;LAYER_COUNT:111
;LAYER:0
M107
G0 F600 X46.862 Y68.077 Z0.3
;TYPE:SKIRT
G1 F300 X47.295 Y67.816 E0.02522
G1 X47.763 Y67.626 E0.05042
G1 X48.256 Y67.513 E0.07566
G1 X48.726 Y67.478 E0.09917
G1 X111.237 Y67.484 E3.21786
G1 X111.803 Y67.535 E3.24621
G1 X112.487 Y67.658 E3.28088
G1 X113.073 Y67.822 E3.31124
G1 X119.156 Y70.169 E3.63653
G1 X119.463 Y70.306 E3.6533
G1 X125.002 Y73.144 E3.9638
G1 X125.289 Y73.311 E3.98037
G1 X130.618 Y76.782 E4.29766
G1 X130.906 Y76.993 E4.31547
G1 X136.215 Y81.364 E4.65856
G1 X136.456 Y81.584 E4.67484
G1 X140.698 Y85.874 E4.97583
G1 X140.921 Y86.124 E4.99254
G1 X144.908 Y91.104 E5.31081
G1 X145.104 Y91.377 E5.32758
G1 X148.545 Y96.744 E5.64565
G1 X148.708 Y97.029 E5.66203
G1 X151.476 Y102.513 E5.9685
G1 X151.725 Y103.183 E6.00416
G1 X151.939 Y104.044 E6.04842
G1 X152.021 Y104.543 E6.07365
G1 X152.026 Y105.034 E6.09815
G1 X151.977 Y105.752 E6.13405
G1 X151.902 Y106.252 E6.15928
G1 X151.832 Y106.509 E6.17257
G1 X151.675 Y107 E6.19829
G1 X151.478 Y107.479 E6.22413
G1 X148.436 Y113.444 E6.55818
G1 X148.258 Y113.75 E6.57585
G1 X144.631 Y119.259 E6.90491
G1 X144.444 Y119.514 E6.92069
G1 X140.754 Y124.066 E7.21303
G1 X140.534 Y124.31 E7.22942
G1 X136.06 Y128.798 E7.54558
G1 X135.811 Y129.023 E7.56232
G1 X130.865 Y133.038 E7.88015
G1 X130.577 Y133.247 E7.8979
G1 X124.807 Y136.952 E8.24
G1 X124.522 Y137.115 E8.25638
G1 X119.119 Y139.847 E8.55844
G1 X118.82 Y139.979 E8.57475
G1 X113.061 Y142.185 E8.88242
G1 X112.363 Y142.366 E8.9184
G1 X111.448 Y142.495 E8.9645
G1 X111 Y142.526 E8.9869
G1 X48.724 Y142.512 E12.09387
G1 X48.22 Y142.472 E12.11909
G1 X47.729 Y142.353 E12.1443
G1 X47.262 Y142.158 E12.16954
G1 X46.832 Y141.892 E12.19477
G1 X46.45 Y141.562 E12.21995
G1 X46.124 Y141.176 E12.24516
G1 X45.863 Y140.743 E12.27038
G1 X45.673 Y140.274 E12.29563
G1 X45.56 Y139.781 E12.32086
G1 X45.525 Y139.312 E12.34433
G1 X45.526 Y70.678 E15.76849
G1 X45.566 Y70.174 E15.79371
G1 X45.685 Y69.683 E15.81892
G1 X45.88 Y69.216 E15.84417
G1 X46.145 Y68.786 E15.86937
G1 X46.475 Y68.403 E15.89459
G1 X46.862 Y68.077 E15.91984
G1 F1500 E11.91984
G0 F600 X49.33 Y70.004
G0 X49.33 Y71.283
G0 X49.386 Y71.339
G0 X49.316 Y71.269
;TYPE:WALL-INNER
G1 F1500 E15.91984
G1 F300 X92.351 Y71.269 E18.06686
G1 X92.667 Y71.269 E18.08263
G1 X92.995 Y71.27 E18.09899
G1 X93.337 Y71.271 E18.11605
G1 X93.684 Y71.272 E18.13336
G1 X93.337 Y71.324
G1 X92.995 Y71.41
G1 X92.667 Y71.529 E18.14045
G1 X92.381 Y71.662 E18.1535
G1 X92.351 Y71.676 E18.15515
G1 X92.048 Y71.857 E18.17276
G1 X91.766 Y72.067 E18.1903
G1 X91.504 Y72.304 E18.20792
G1 X91.272 Y72.564 E18.22531
G1 X91.062 Y72.842 E18.24269
G1 X90.879 Y73.146 E18.26039
G1 X90.731 Y73.463 E18.27785
G1 X90.612 Y73.793 E18.29535
G1 X90.528 Y74.135 E18.31292
G1 X90.477 Y74.479 E18.33027
G1 X90.458 Y74.831 E18.34785
G1 X90.476 Y75.181 E18.36534
G1 X90.527 Y75.528 E18.38284
G1 X90.613 Y75.869 E18.40038
G1 X90.731 Y76.197 E18.41777
G1 X90.879 Y76.516 E18.43532
G1 X91.062 Y76.82 E18.45302
G1 X91.272 Y77.1 E18.47048
G1 X91.505 Y77.357 E18.48779
G1 X91.765 Y77.595 E18.50537
G1 X92.048 Y77.805 E18.52295
G1 X92.35 Y77.986 E18.54052
G1 X92.668 Y78.134 E18.55802
G1 X92.997 Y78.252 E18.57546
G1 X93.335 Y78.338 E18.59286
G1 X93.684 Y78.39 E18.61046
G1 X94.034 Y78.406 E18.62794
G1 X94.386 Y78.39 E18.64552
G1 X94.731 Y78.337 E18.66293
G1 X95.072 Y78.254 E18.68044
G1 X95.403 Y78.134 E18.69801
G1 X95.72 Y77.985 E18.71548
G1 X96.023 Y77.803 E18.73312
G1 X96.301 Y77.595 E18.75044
G1 X96.562 Y77.361 E18.76793
G1 X96.799 Y77.099 E18.78555
G1 X97.007 Y76.818 E18.803
G1 X97.189 Y76.516 E18.82059
G1 X97.337 Y76.199 E18.83804
G1 X97.457 Y75.871 E18.85547
G1 X97.541 Y75.527 E18.87313
G1 X97.593 Y75.18 E18.89064
G1 X97.608 Y74.83 E18.90812
G1 X97.592 Y74.483 E18.92545
G1 X97.542 Y74.136 E18.94294
G1 X97.457 Y73.793 E18.96057
G1 X97.337 Y73.462 E18.97813
G1 X97.187 Y73.146 E18.99558
G1 X97.008 Y72.845 E19.01305
G1 X96.799 Y72.563 E19.03057
G1 X96.563 Y72.302 E19.04812
G1 X96.301 Y72.065 E19.06575
G1 X96.02 Y71.859 E19.08313
G1 X95.722 Y71.677 E19.10055
G1 X95.698 Y71.665 E19.10189
G1 X95.403 Y71.528 E19.11812
G1 X95.072 Y71.409 E19.13567
G1 X94.731 Y71.324 E19.1532
G1 X94.384 Y71.273 E19.1707
G1 X94.731 Y71.273
G1 X95.072 Y71.273
G1 X95.402 Y71.273 E19.17423
G1 X95.728 Y71.273 E19.18763
G1 X111.103 Y71.269 E19.95469
G1 X111.435 Y71.296 E19.97131
G1 X111.745 Y71.37 E19.98721
G1 X117.623 Y73.628 E20.30136
G1 X123.233 Y76.495 E20.61567
G1 X128.523 Y79.939 E20.93059
G1 X133.407 Y83.907 E21.24454
G1 X137.854 Y88.37 E21.55886
G1 X141.814 Y93.281 E21.87361
G1 X145.238 Y98.583 E22.18849
G1 X148.08 Y104.195 E22.50233
G1 X148.153 Y104.389 E22.51267
G1 X148.205 Y104.586 E22.52283
G1 X148.238 Y104.792 E22.53324
G1 X148.248 Y105 E22.54363
G1 X148.238 Y105.206 E22.55392
G1 X148.204 Y105.415 E22.56448
G1 X148.154 Y105.606 E22.57433
G1 X148.081 Y105.8 E22.58468
G1 X145.927 Y110.063 E22.82296
G1 X145.208 Y111.471 E22.90184
G1 X141.786 Y116.757 E23.216
G1 X137.827 Y121.659 E23.53036
G1 X133.389 Y126.11 E23.84394
G1 X128.497 Y130.079 E24.15823
G1 X123.22 Y133.513 E24.47233
G1 X117.618 Y136.372 E24.78611
G1 X111.747 Y138.63 E25.09993
G1 X111.432 Y138.705 E25.11609
G1 X111.104 Y138.731 E25.1325
G1 X95.723 Y138.731 E25.89987
G1 X95.403 Y138.731 E25.91583
G1 X95.072 Y138.731 E25.93234
G1 X94.731 Y138.731 E25.94936
G1 X94.364 Y138.731 E25.96767
G1 X94.731 Y138.677
G1 X95.072 Y138.594
G1 X95.403 Y138.474 E25.97469
G1 X95.692 Y138.338 E25.98784
G1 X95.72 Y138.325 E25.98938
G1 X96.023 Y138.143 E26.00702
G1 X96.301 Y137.935 E26.02434
G1 X96.562 Y137.701 E26.04183
G1 X96.799 Y137.439 E26.05945
G1 X97.007 Y137.158 E26.07689
G1 X97.189 Y136.856 E26.09448
G1 X97.337 Y136.539 E26.11194
G1 X97.457 Y136.211 E26.12936
G1 X97.541 Y135.868 E26.14698
G1 X97.593 Y135.521 E26.16449
G1 X97.608 Y135.17 E26.18201
G1 X97.592 Y134.824 E26.19929
G1 X97.542 Y134.477 E26.21679
G1 X97.457 Y134.134 E26.23442
G1 X97.338 Y133.802 E26.25201
G1 X97.187 Y133.486 E26.26948
G1 X97.008 Y133.185 E26.28696
G1 X96.799 Y132.903 E26.30447
G1 X96.563 Y132.642 E26.32202
G1 X96.301 Y132.405 E26.33965
G1 X96.02 Y132.199 E26.35703
G1 X95.722 Y132.017 E26.37445
G1 X95.403 Y131.868 E26.39202
G1 X95.072 Y131.749 E26.40957
G1 X94.731 Y131.664 E26.4271
G1 X94.384 Y131.613 E26.4446
G1 X94.035 Y131.596 E26.46203
G1 X93.684 Y131.612 E26.47956
G1 X93.337 Y131.664 E26.49706
G1 X92.995 Y131.75 E26.51466
G1 X92.667 Y131.869 E26.53206
G1 X92.351 Y132.016 E26.54945
G1 X92.048 Y132.197 E26.56706
G1 X91.766 Y132.407 E26.5846
G1 X91.504 Y132.644 E26.60223
G1 X91.272 Y132.904 E26.61961
G1 X91.062 Y133.182 E26.63699
G1 X90.879 Y133.486 E26.6547
G1 X90.731 Y133.804 E26.6722
G1 X90.612 Y134.134 E26.6897
G1 X90.528 Y134.476 E26.70727
G1 X90.477 Y134.82 E26.72462
G1 X90.458 Y135.171 E26.74215
G1 X90.476 Y135.522 E26.75969
G1 X90.527 Y135.87 E26.77724
G1 X90.614 Y136.209 E26.7947
G1 X90.73 Y136.537 E26.81205
G1 X90.879 Y136.856 E26.82962
G1 X91.062 Y137.16 E26.84732
G1 X91.272 Y137.44 E26.86478
G1 X91.505 Y137.697 E26.88209
G1 X91.765 Y137.935 E26.89968
G1 X92.048 Y138.145 E26.91726
G1 X92.35 Y138.326 E26.93482
G1 X92.375 Y138.338 E26.93621
G1 X92.668 Y138.474 E26.95232
G1 X92.997 Y138.592 E26.96976
G1 X93.335 Y138.678 E26.98716
G1 X93.706 Y138.731 E27.00586
G1 X93.335 Y138.731
G1 X92.997 Y138.731
G1 X92.668 Y138.731 E27.00861
G1 X92.345 Y138.731 E27.02191
G1 X49.316 Y138.731 E29.16864
G1 X49.316 Y71.269 E32.53433
G0 F600 X49.386 Y71.339
G0 X56.351 Y91.198
G0 X56.379 Y91.293
G1 F300 X55.974 Y91.438 E32.55579
G1 X55.585 Y91.622 E32.57726
G1 X55.22 Y91.843 E32.59855
G1 X54.876 Y92.097 E32.61988
G1 X54.557 Y92.385 E32.64132
G1 X54.269 Y92.703 E32.66273
G1 X54.013 Y93.048 E32.68416
G1 X53.793 Y93.417 E32.70559
G1 X53.611 Y93.802 E32.72684
G1 X53.465 Y94.207 E32.74832
G1 X53.362 Y94.624 E32.76975
G1 X53.299 Y95.047 E32.79108
G1 X53.279 Y95.46 E32.81171
G1 X53.278 Y114.541 E33.76367
G1 X53.301 Y114.952 E33.7842
G1 X53.361 Y115.375 E33.80552
G1 X53.465 Y115.794 E33.82706
G1 X53.611 Y116.197 E33.84844
G1 X53.793 Y116.585 E33.86982
G1 X54.015 Y116.952 E33.89122
G1 X54.269 Y117.296 E33.91256
G1 X54.557 Y117.615 E33.934
G1 X54.875 Y117.903 E33.9554
G1 X55.22 Y118.159 E33.97684
G1 X55.589 Y118.378 E33.99824
G1 X55.974 Y118.562 E34.01953
G1 X56.379 Y118.707 E34.04099
G1 X56.795 Y118.81 E34.06237
G1 X57.219 Y118.874 E34.08377
G1 X57.633 Y118.893 E34.10444
G1 X131.638 Y118.894 E37.79657
G1 X132.051 Y118.872 E37.8172
G1 X132.474 Y118.81 E37.83853
G1 X132.891 Y118.707 E37.85996
G1 X133.296 Y118.562 E37.88142
G1 X133.685 Y118.378 E37.90289
G1 X134.05 Y118.157 E37.92418
G1 X134.394 Y117.903 E37.94551
G1 X134.713 Y117.615 E37.96695
G1 X135.001 Y117.297 E37.98836
G1 X135.257 Y116.952 E38.00979
G1 X135.477 Y116.583 E38.03122
G1 X135.659 Y116.198 E38.05247
G1 X135.805 Y115.793 E38.07395
G1 X135.908 Y115.376 E38.09538
G1 X135.971 Y114.953 E38.11671
G1 X135.991 Y114.54 E38.13734
G1 X135.992 Y95.459 E39.0893
G1 X135.969 Y95.048 E39.10983
G1 X135.909 Y94.625 E39.13115
G1 X135.805 Y94.206 E39.15269
G1 X135.659 Y93.803 E39.17407
G1 X135.477 Y93.415 E39.19545
G1 X135.255 Y93.048 E39.21685
G1 X135.001 Y92.704 E39.23819
G1 X134.713 Y92.385 E39.25963
G1 X134.395 Y92.097 E39.28103
G1 X134.05 Y91.841 E39.30247
G1 X133.681 Y91.622 E39.32387
G1 X133.296 Y91.438 E39.34516
G1 X132.891 Y91.293 E39.36662
G1 X132.475 Y91.19 E39.388
G1 X132.051 Y91.126 E39.4094
G1 X131.637 Y91.107 E39.43007
G1 X57.554 Y91.11 E43.12609
G1 X57.219 Y91.128 E43.14283
G1 X56.796 Y91.19 E43.16416
G1 X56.379 Y91.293 E43.18559
G0 F600 X56.495 Y91.676
;TYPE:WALL-OUTER
G1 F300 X56.128 Y91.808 E43.20504
G1 X55.775 Y91.975 E43.22453
G1 X55.443 Y92.176 E43.24389
G1 X55.129 Y92.407 E43.26334
G1 X54.84 Y92.668 E43.28276
G1 X54.579 Y92.957 E43.30219
G1 X54.346 Y93.27 E43.32166
G1 X54.147 Y93.605 E43.3411
G1 X53.981 Y93.956 E43.36047
G1 X53.848 Y94.323 E43.37995
G1 X53.755 Y94.701 E43.39937
G1 X53.698 Y95.086 E43.41878
G1 X53.679 Y95.47 E43.43796
G1 X53.678 Y114.53 E44.38887
G1 X53.699 Y114.913 E44.40801
G1 X53.754 Y115.298 E44.42741
G1 X53.848 Y115.677 E44.44689
G1 X53.981 Y116.044 E44.46637
G1 X54.146 Y116.396 E44.48576
G1 X54.348 Y116.729 E44.50519
G1 X54.579 Y117.043 E44.52464
G1 X54.84 Y117.332 E44.54407
G1 X55.129 Y117.593 E44.5635
G1 X55.442 Y117.826 E44.58296
G1 X55.777 Y118.025 E44.6024
G1 X56.128 Y118.192 E44.6218
G1 X56.495 Y118.324 E44.64125
G1 X56.873 Y118.417 E44.66068
G1 X57.258 Y118.475 E44.6801
G1 X57.642 Y118.493 E44.69928
G1 X131.628 Y118.494 E48.39046
G1 X132.011 Y118.474 E48.40959
G1 X132.397 Y118.417 E48.42906
G1 X132.775 Y118.324 E48.44848
G1 X133.142 Y118.192 E48.46793
G1 X133.495 Y118.025 E48.48742
G1 X133.827 Y117.824 E48.50678
G1 X134.141 Y117.593 E48.52623
G1 X134.43 Y117.332 E48.54566
G1 X134.691 Y117.043 E48.56508
G1 X134.924 Y116.73 E48.58455
G1 X135.123 Y116.395 E48.60399
G1 X135.289 Y116.044 E48.62336
G1 X135.422 Y115.677 E48.64284
G1 X135.515 Y115.299 E48.66226
G1 X135.572 Y114.914 E48.68167
G1 X135.591 Y114.53 E48.70086
G1 X135.592 Y95.47 E49.65176
G1 X135.571 Y95.087 E49.6709
G1 X135.516 Y94.702 E49.6903
G1 X135.422 Y94.323 E49.70978
G1 X135.289 Y93.956 E49.72926
G1 X135.124 Y93.604 E49.74865
G1 X134.922 Y93.271 E49.76808
G1 X134.691 Y92.957 E49.78753
G1 X134.43 Y92.668 E49.80696
G1 X134.141 Y92.407 E49.82639
G1 X133.828 Y92.174 E49.84586
G1 X133.493 Y91.975 E49.8653
G1 X133.142 Y91.808 E49.88469
G1 X132.775 Y91.676 E49.90415
G1 X132.397 Y91.583 E49.92357
G1 X132.012 Y91.525 E49.94299
G1 X131.628 Y91.507 E49.96217
G1 X57.564 Y91.51 E53.65724
G1 X57.259 Y91.526 E53.67248
G1 X56.873 Y91.583 E53.69194
G1 X56.495 Y91.676 E53.71136
G0 F600 X56.307 Y91.743
G0 X56.14 Y91.272
G0 X49.386 Y71.339
G0 X48.916 Y70.869
G1 F300 X111.122 Y70.869 E56.81483
G1 X111.498 Y70.899 E56.83365
G1 X111.859 Y70.986 E56.85218
G1 X117.789 Y73.264 E57.1691
G1 X123.432 Y76.148 E57.48527
G1 X128.757 Y79.615 E57.80228
G1 X133.675 Y83.61 E58.11839
G1 X138.153 Y88.104 E58.43491
G1 X142.14 Y93.049 E58.75181
G1 X145.587 Y98.386 E59.06879
G1 X148.447 Y104.034 E59.38463
G1 X148.535 Y104.269 E59.39715
G1 X148.596 Y104.498 E59.40898
G1 X148.637 Y104.755 E59.42196
G1 X148.649 Y105 E59.4342
G1 X148.637 Y105.245 E59.44643
G1 X148.596 Y105.499 E59.45927
G1 X148.536 Y105.727 E59.47103
G1 X148.448 Y105.959 E59.48341
G1 X146.283 Y110.245 E59.72297
G1 X145.554 Y111.672 E59.80292
G1 X142.112 Y116.989 E60.11892
G1 X138.126 Y121.925 E60.43544
G1 X133.652 Y126.412 E60.75157
G1 X128.737 Y130.399 E61.06731
G1 X123.419 Y133.86 E61.38387
G1 X117.781 Y136.738 E61.69968
G1 X111.865 Y139.013 E62.0159
G1 X111.493 Y139.102 E62.03498
G1 X111.122 Y139.131 E62.05355
G1 X48.916 Y139.131 E65.15702
G1 X48.916 Y70.869 E68.56262
G0 F600 X49.116 Y70.869
G0 X49.386 Y71.339
G0 X90.377 Y74.492
G0 X90.875 Y74.519
G1 F300 X90.859 Y74.831 E68.57821
G1 X90.875 Y75.142 E68.59374
G1 X90.92 Y75.45 E68.60927
G1 X90.996 Y75.752 E68.62481
G1 X91.101 Y76.045 E68.64034
G1 X91.233 Y76.328 E68.65592
G1 X91.394 Y76.596 E68.67151
G1 X91.581 Y76.845 E68.68705
G1 X91.789 Y77.075 E68.70252
G1 X92.02 Y77.286 E68.71813
G1 X92.27 Y77.472 E68.73368
G1 X92.538 Y77.632 E68.74925
G1 X92.82 Y77.764 E68.76478
G1 X93.114 Y77.869 E68.78036
G1 X93.414 Y77.945 E68.7958
G1 X93.723 Y77.991 E68.81138
G1 X94.034 Y78.006 E68.82692
G1 X94.346 Y77.991 E68.8425
G1 X94.653 Y77.944 E68.858
G1 X94.956 Y77.87 E68.87356
G1 X95.25 Y77.764 E68.88915
G1 X95.531 Y77.632 E68.90464
G1 X95.799 Y77.471 E68.92024
G1 X96.047 Y77.285 E68.9357
G1 X96.279 Y77.077 E68.95125
G1 X96.489 Y76.845 E68.96686
G1 X96.674 Y76.595 E68.98237
G1 X96.835 Y76.328 E68.99793
G1 X96.967 Y76.045 E69.01351
G1 X97.074 Y75.754 E69.02898
G1 X97.148 Y75.45 E69.04459
G1 X97.194 Y75.141 E69.06017
G1 X97.208 Y74.831 E69.07565
G1 X97.193 Y74.521 E69.09114
G1 X97.149 Y74.212 E69.10671
G1 X97.074 Y73.909 E69.12228
G1 X96.968 Y73.616 E69.13783
G1 X96.834 Y73.335 E69.15336
G1 X96.675 Y73.067 E69.16891
G1 X96.489 Y72.817 E69.18445
G1 X96.28 Y72.585 E69.20003
G1 X96.048 Y72.376 E69.21561
G1 X95.797 Y72.192 E69.23114
G1 X95.532 Y72.03 E69.24663
G1 X95.25 Y71.898 E69.26217
G1 X94.956 Y71.792 E69.27776
G1 X94.654 Y71.717 E69.29328
G1 X94.345 Y71.672 E69.30886
G1 X94.034 Y71.656 E69.3244
G1 X93.723 Y71.671 E69.33993
G1 X93.415 Y71.717 E69.35547
G1 X93.112 Y71.793 E69.37105
G1 X92.82 Y71.899 E69.38655
G1 X92.538 Y72.03 E69.40206
G1 X92.27 Y72.19 E69.41764
G1 X92.02 Y72.376 E69.43318
G1 X91.788 Y72.586 E69.44879
G1 X91.581 Y72.818 E69.46431
G1 X91.394 Y73.066 E69.4798
G1 X91.233 Y73.334 E69.4954
G1 X91.101 Y73.616 E69.51093
G1 X90.995 Y73.909 E69.52648
G1 X90.921 Y74.212 E69.54204
G1 X90.875 Y74.519 E69.55753
G0 F600 X90.865 Y74.719
G0 X90.366 Y74.693
G0 X91.327 Y91.068
G0 X132.054 Y91.087
G0 X132.902 Y91.255
G0 X133.699 Y91.587
G0 X134.42 Y92.067
G0 X135.031 Y92.679
G0 X135.512 Y93.397
G0 X135.843 Y94.195
G0 X136.008 Y95.045
G0 X136.01 Y114.956
G0 X135.843 Y115.804
G0 X135.512 Y116.601
G0 X135.031 Y117.322
G0 X134.419 Y117.933
G0 X133.703 Y118.413
G0 X132.902 Y118.745
G0 X93.701 Y131.511
G0 X93.723 Y132.011
G1 F300 X93.415 Y132.057 E69.57306
G1 X93.112 Y132.133 E69.58865
G1 X92.82 Y132.239 E69.60415
G1 X92.538 Y132.37 E69.61966
G1 X92.27 Y132.53 E69.63523
G1 X92.02 Y132.716 E69.65078
G1 X91.788 Y132.926 E69.66639
G1 X91.581 Y133.158 E69.6819
G1 X91.394 Y133.406 E69.6974
G1 X91.233 Y133.674 E69.713
G1 X91.101 Y133.957 E69.72858
G1 X90.995 Y134.25 E69.74412
G1 X90.921 Y134.553 E69.75968
G1 X90.875 Y134.86 E69.77517
G1 X90.859 Y135.171 E69.7907
G1 X90.875 Y135.483 E69.80629
G1 X90.92 Y135.791 E69.82182
G1 X90.997 Y136.092 E69.83732
G1 X91.101 Y136.385 E69.85283
G1 X91.233 Y136.668 E69.86841
G1 X91.394 Y136.936 E69.88401
G1 X91.581 Y137.185 E69.89955
G1 X91.789 Y137.415 E69.91502
G1 X92.02 Y137.626 E69.93062
G1 X92.27 Y137.812 E69.94617
G1 X92.538 Y137.972 E69.96174
G1 X92.82 Y138.104 E69.97728
G1 X93.114 Y138.209 E69.99285
G1 X93.414 Y138.285 E70.00829
