;FLAVOR:RepRap
;TIME:2750
;Filament used: 1.58892m
;Layer height: 0.2
;Generated with Cura_SteamEngine 2.6.0
M190 S50
M104 S195
M109 S195
G28 ;Home
G1 Z15.0 F6000 ;Move the platform down 15mm
;Prime the extruder
G92 E0
G1 F200 E3
G92 E0
;LAYER_COUNT:255
;LAYER:0
M107
G0 F3600 X51.624 Y85.319 Z0.3
;TYPE:SKIRT
G1 F1200 X52.063 Y85.071 E0.02516
G1 X53.737 Y84.26 E0.11796
G1 X54.235 Y84.059 E0.14475
G1 X56.014 Y83.476 E0.23815
G1 X56.661 Y83.322 E0.27133
G1 X58.746 Y83.006 E0.37654
G1 X59.245 Y82.962 E0.40153
G1 X61.012 Y82.918 E0.48971
G1 X61.54 Y82.94 E0.51608
G1 X62.562 Y83.05 E0.56736
G1 X62.666 Y83.056 E0.57256
G1 X63.039 Y83.122 E0.59146
G1 X65.084 Y83.582 E0.69603
G1 X65.51 Y83.703 E0.71812
G1 X66.516 Y84.05 E0.77122
G1 X66.928 Y84.218 E0.79341
G1 X68.552 Y84.989 E0.8831
G1 X69.026 Y85.255 E0.91022
G1 X70.212 Y86.031 E0.98093
G1 X70.498 Y86.236 E0.99848
G1 X71.612 Y87.114 E1.06925
G1 X72.077 Y87.544 E1.10085
G1 X73.664 Y89.265 E1.21764
G1 X73.996 Y89.677 E1.24404
G1 X74.741 Y90.737 E1.30868
G1 X74.98 Y91.122 E1.33129
G1 X75.767 Y92.565 E1.41329
G1 X75.944 Y92.934 E1.43371
G1 X76.327 Y93.848 E1.48315
G1 X76.487 Y94.307 E1.5074
G1 X77.047 Y96.29 E1.6102
G1 X77.166 Y96.873 E1.63989
G1 X77.427 Y98.928 E1.74323
G1 X77.455 Y99.602 E1.77689
G1 X77.361 Y101.816 E1.88744
G1 X77.264 Y102.539 E1.92384
G1 X76.737 Y104.839 E2.04156
G1 X76.597 Y105.313 E2.06622
G1 X76.11 Y106.652 E2.1373
G1 X75.937 Y107.057 E2.15927
G1 X75.478 Y107.986 E2.21097
G1 X75.261 Y108.371 E2.23302
G1 X74.341 Y109.808 E2.31815
G1 X74.039 Y110.218 E2.34355
G1 X72.914 Y111.562 E2.43099
G1 X72.6 Y111.897 E2.4539
G1 X71.642 Y112.806 E2.51979
G1 X71.35 Y113.057 E2.539
G1 X70.384 Y113.811 E2.60013
G1 X69.98 Y114.088 E2.62457
G1 X68.336 Y115.074 E2.72021
G1 X68.018 Y115.246 E2.73825
G1 X67.127 Y115.676 E2.78761
G1 X66.549 Y115.902 E2.81857
G1 X63.991 Y116.678 E2.95193
G1 X63.352 Y116.816 E2.98455
G1 X61.953 Y117 E3.05494
G1 X61.431 Y117.034 E3.08104
G1 X59.605 Y117.034 E3.17214
G1 X59.072 Y116.998 E3.19879
G1 X56.976 Y116.716 E3.30431
G1 X56.419 Y116.601 E3.33268
G1 X55.194 Y116.254 E3.3962
G1 X54.86 Y116.143 E3.41376
G1 X53.526 Y115.635 E3.48498
G1 X53.092 Y115.439 E3.50873
G1 X51.996 Y114.864 E3.57048
G1 X51.69 Y114.686 E3.58814
G1 X50.692 Y114.044 E3.64735
G1 X50.314 Y113.769 E3.67067
G1 X48.784 Y112.51 E3.76952
G1 X48.439 Y112.19 E3.793
G1 X47.501 Y111.212 E3.8606
G1 X47.213 Y110.876 E3.88268
G1 X46.433 Y109.858 E3.94666
G1 X46.183 Y109.491 E3.96882
G1 X45.327 Y108.072 E4.0515
G1 X45.078 Y107.587 E4.0787
G1 X44.348 Y105.891 E4.17081
G1 X44.172 Y105.395 E4.19707
G1 X43.73 Y103.827 E4.27835
G1 X43.618 Y103.29 E4.30572
G1 X43.365 Y101.459 E4.39793
G1 X43.328 Y100.991 E4.42135
G1 X43.301 Y99.643 E4.48862
G1 X43.331 Y99.063 E4.51759
G1 X43.614 Y96.818 E4.63048
G1 X43.736 Y96.221 E4.66088
G1 X44.258 Y94.391 E4.75582
G1 X44.411 Y93.953 E4.77897
G1 X44.945 Y92.668 E4.8484
G1 X45.186 Y92.184 E4.87537
G1 X46.013 Y90.77 E4.95709
G1 X46.198 Y90.483 E4.97413
G1 X46.824 Y89.596 E5.02829
G1 X47.098 Y89.25 E5.05031
G1 X47.991 Y88.242 E5.1175
G1 X48.343 Y87.891 E5.1423
G1 X50.03 Y86.407 E5.25439
G1 X50.489 Y86.058 E5.28316
G1 X51.624 Y85.319 E5.35073
G0 F3600 X51.843 Y85.654
G1 F1200 X52.237 Y85.431 E5.37332
G1 X53.911 Y84.62 E5.46612
G1 X54.36 Y84.439 E5.49027
G1 X56.139 Y83.856 E5.58367
G1 X56.721 Y83.718 E5.61351
G1 X58.806 Y83.402 E5.71872
G1 X59.255 Y83.362 E5.74121
G1 X61.022 Y83.318 E5.82939
G1 X61.498 Y83.338 E5.85316
G1 X62.381 Y83.433 E5.89747
G1 X62.411 Y83.433 E5.89897
G1 X62.498 Y83.446 E5.90335
G1 X62.547 Y83.451 E5.90581
G1 X62.547 Y83.453 E5.90591
G1 X62.951 Y83.512 E5.92628
G1 X64.996 Y83.972 E6.03086
G1 X65.38 Y84.081 E6.05077
G1 X66.386 Y84.428 E6.10386
G1 X66.756 Y84.579 E6.1238
G1 X68.38 Y85.35 E6.21349
G1 X68.807 Y85.59 E6.23793
G1 X69.993 Y86.366 E6.30864
G1 X70.25 Y86.551 E6.32443
G1 X71.364 Y87.429 E6.3952
G1 X71.783 Y87.816 E6.42365
G1 X73.37 Y89.537 E6.54045
G1 X73.668 Y89.907 E6.56415
G1 X74.413 Y90.967 E6.62879
G1 X74.629 Y91.313 E6.64914
G1 X75.416 Y92.756 E6.73114
G1 X75.575 Y93.089 E6.74955
G1 X75.958 Y94.003 E6.79899
G1 X76.103 Y94.416 E6.82083
G1 X76.663 Y96.399 E6.92363
G1 X76.769 Y96.923 E6.9503
G1 X77.03 Y98.978 E7.05365
G1 X77.056 Y99.585 E7.08396
G1 X76.962 Y101.799 E7.19452
G1 X76.874 Y102.45 E7.22729
G1 X76.347 Y104.75 E7.34501
G1 X76.221 Y105.176 E7.36718
G1 X75.734 Y106.515 E7.43826
G1 X75.579 Y106.88 E7.45805
G1 X75.12 Y107.809 E7.50974
G1 X74.924 Y108.155 E7.52958
G1 X74.004 Y109.592 E7.61471
G1 X73.733 Y109.962 E7.63759
G1 X72.608 Y111.306 E7.72503
G1 X72.325 Y111.606 E7.74561
G1 X71.367 Y112.515 E7.81149
G1 X71.104 Y112.742 E7.82883
G1 X70.138 Y113.496 E7.88996
G1 X69.775 Y113.745 E7.91192
G1 X68.131 Y114.731 E8.00756
G1 X67.844 Y114.886 E8.02384
G1 X66.953 Y115.316 E8.0732
G1 X66.433 Y115.519 E8.10105
G1 X63.875 Y116.295 E8.23441
G1 X63.299 Y116.419 E8.2638
G1 X61.9 Y116.603 E8.3342
G1 X61.431 Y116.634 E8.35765
G1 X59.605 Y116.634 E8.44875
G1 X59.125 Y116.602 E8.47275
G1 X57.029 Y116.32 E8.57826
G1 X56.528 Y116.216 E8.60379
G1 X55.303 Y115.869 E8.66731
G1 X55.003 Y115.769 E8.68309
G1 X53.669 Y115.261 E8.7543
G1 X53.278 Y115.085 E8.77569
G1 X52.182 Y114.51 E8.83744
G1 X51.906 Y114.35 E8.85336
G1 X50.908 Y113.708 E8.91256
G1 X50.569 Y113.46 E8.93352
G1 X49.039 Y112.201 E9.03237
G1 X48.728 Y111.913 E9.05352
G1 X47.79 Y110.935 E9.12112
G1 X47.53 Y110.633 E9.141
G1 X46.75 Y109.615 E9.20499
G1 X46.525 Y109.285 E9.22491
G1 X45.669 Y107.866 E9.30759
G1 X45.445 Y107.429 E9.33209
G1 X44.715 Y105.733 E9.42421
G1 X44.557 Y105.287 E9.44782
G1 X44.115 Y103.719 E9.52909
G1 X44.014 Y103.235 E9.55376
G1 X43.761 Y101.404 E9.64598
G1 X43.728 Y100.983 E9.66704
G1 X43.701 Y99.635 E9.73431
G1 X43.728 Y99.113 E9.76039
G1 X44.011 Y96.868 E9.87328
G1 X44.121 Y96.331 E9.90062
G1 X44.643 Y94.501 E9.99557
G1 X44.781 Y94.107 E10.01639
G1 X45.315 Y92.822 E10.08582
G1 X45.531 Y92.386 E10.11009
G1 X46.358 Y90.972 E10.19182
G1 X46.525 Y90.713 E10.20719
G1 X47.151 Y89.826 E10.26136
G1 X47.397 Y89.515 E10.28114
G1 X48.29 Y88.507 E10.34832
G1 X48.607 Y88.191 E10.37065
G1 X50.294 Y86.707 E10.48275
G1 X50.708 Y86.393 E10.50867
G1 X51.843 Y85.654 E10.57624
G0 F3600 X52.061 Y85.989
G1 F1200 X52.412 Y85.791 E10.59635
G1 X54.086 Y84.98 E10.68915
G1 X54.484 Y84.819 E10.71057
G1 X56.263 Y84.236 E10.80397
G1 X56.78 Y84.113 E10.83048
G1 X58.865 Y83.797 E10.93569
G1 X59.265 Y83.762 E10.95572
G1 X61.032 Y83.718 E11.04391
G1 X61.455 Y83.735 E11.06503
G1 X62.504 Y83.848 E11.11766
G1 X62.503 Y83.86 E11.11826
G1 X62.863 Y83.902 E11.13635
G1 X64.908 Y84.362 E11.24092
G1 X65.249 Y84.459 E11.25861
G1 X66.255 Y84.806 E11.3117
G1 X66.584 Y84.94 E11.32942
G1 X68.208 Y85.711 E11.41911
G1 X68.588 Y85.924 E11.44085
G1 X69.774 Y86.7 E11.51156
G1 X70.003 Y86.865 E11.52564
G1 X71.117 Y87.743 E11.5964
G1 X71.488 Y88.087 E11.62164
G1 X73.075 Y89.808 E11.73844
G1 X73.341 Y90.137 E11.75955
G1 X74.086 Y91.197 E11.82418
G1 X74.277 Y91.505 E11.84227
G1 X75.064 Y92.948 E11.92427
G1 X75.206 Y93.243 E11.9406
G1 X75.589 Y94.157 E11.99004
G1 X75.718 Y94.524 E12.00945
G1 X76.278 Y96.507 E12.11225
G1 X76.372 Y96.974 E12.13602
G1 X76.633 Y99.029 E12.23937
G1 X76.656 Y99.568 E12.26628
G1 X76.562 Y101.782 E12.37684
G1 X76.484 Y102.361 E12.40599
G1 X75.957 Y104.661 E12.52371
G1 X75.845 Y105.04 E12.54342
G1 X75.358 Y106.379 E12.61451
G1 X75.22 Y106.702 E12.63203
G1 X74.761 Y107.631 E12.68373
G1 X74.587 Y107.939 E12.70138
G1 X73.667 Y109.376 E12.7865
G1 X73.426 Y109.705 E12.80685
G1 X72.301 Y111.049 E12.89429
G1 X72.05 Y111.316 E12.91257
G1 X71.092 Y112.225 E12.97846
G1 X70.858 Y112.427 E12.99388
G1 X69.892 Y113.181 E13.05502
G1 X69.569 Y113.402 E13.07455
G1 X67.925 Y114.388 E13.17019
G1 X67.67 Y114.526 E13.18465
G1 X66.779 Y114.956 E13.23401
G1 X66.317 Y115.136 E13.25875
G1 X63.759 Y115.912 E13.39211
G1 X63.247 Y116.023 E13.41824
G1 X61.848 Y116.207 E13.48864
G1 X61.431 Y116.234 E13.50949
G1 X59.605 Y116.234 E13.60059
G1 X59.178 Y116.205 E13.62194
G1 X57.082 Y115.923 E13.72745
G1 X56.637 Y115.831 E13.75012
G1 X55.412 Y115.484 E13.81364
G1 X55.145 Y115.396 E13.82767
G1 X53.811 Y114.888 E13.89889
G1 X53.463 Y114.731 E13.91793
G1 X52.367 Y114.156 E13.97968
G1 X52.123 Y114.013 E13.99379
G1 X51.125 Y113.371 E14.05299
G1 X50.823 Y113.151 E14.07163
G1 X49.293 Y111.892 E14.17049
G1 X49.017 Y111.636 E14.18927
G1 X48.079 Y110.658 E14.25688
G1 X47.848 Y110.389 E14.27456
G1 X47.068 Y109.371 E14.33855
G1 X46.868 Y109.078 E14.35625
G1 X46.012 Y107.659 E14.43892
G1 X45.813 Y107.271 E14.46068
G1 X45.083 Y105.575 E14.5528
G1 X44.942 Y105.178 E14.57382
G1 X44.5 Y103.61 E14.65509
G1 X44.41 Y103.18 E14.67701
G1 X44.157 Y101.349 E14.76923
G1 X44.128 Y100.975 E14.78794
G1 X44.101 Y99.627 E14.85521
G1 X44.125 Y99.163 E14.87839
G1 X44.408 Y96.918 E14.99128
G1 X44.506 Y96.44 E15.01562
G1 X45.028 Y94.61 E15.11056
G1 X45.15 Y94.26 E15.12905
G1 X45.684 Y92.975 E15.19848
G1 X45.877 Y92.587 E15.2201
G1 X46.704 Y91.173 E15.30182
G1 X46.852 Y90.944 E15.31543
G1 X47.478 Y90.057 E15.36959
G1 X47.697 Y89.78 E15.38721
G1 X48.59 Y88.772 E15.45439
G1 X48.871 Y88.491 E15.47422
G1 X50.558 Y87.007 E15.58631
G1 X50.926 Y86.728 E15.60935
G1 X52.061 Y85.989 E15.67692
G1 F1500 E9.17692
G0 F3600 X53.37 Y88.146
G0 X54.035 Y89.244
G0 X53.922 Y89.406
G0 X53.869 Y89.322
;TYPE:WALL-INNER
G1 F1500 E15.67692
G1 F1200 X54.08 Y89.194 E15.68923
G1 X54.654 Y88.91 E15.72118
G1 X55.124 Y88.662 E15.7477
G1 X55.607 Y88.469 E15.77365
G1 X55.972 Y88.302 E15.79367
G1 X56.293 Y88.173 E15.81093
G1 X57.45 Y87.835 E15.87107
G1 X58.059 Y87.737 E15.90184
G1 X58.572 Y87.634 E15.92795
G1 X59.774 Y87.518 E15.98819
G1 X61.062 Y87.506 E16.05245
G1 X61.961 Y87.593 E16.09751
G1 X62.224 Y87.632 E16.11078
G1 X62.855 Y87.767 E16.14297
G1 X63.364 Y87.865 E16.16883
G1 X63.871 Y88.016 E16.19523
G1 X64.254 Y88.116 E16.21497
G1 X64.581 Y88.22 E16.23209
G1 X65.709 Y88.68 E16.29287
G1 X66.769 Y89.243 E16.35275
G1 X67.277 Y89.6 E16.38373
G1 X67.71 Y89.882 E16.40951
G1 X68.129 Y90.218 E16.4363
G1 X68.512 Y90.501 E16.46006
G1 X68.719 Y90.675 E16.47355
G1 X69.388 Y91.33 E16.52026
G1 X69.557 Y91.506 E16.53243
G1 X70.327 Y92.425 E16.59225
G1 X71.041 Y93.463 E16.6551
G1 X71.486 Y94.262 E16.70073
G1 X71.617 Y94.512 E16.71481
G1 X72.09 Y95.617 E16.77478
G1 X72.192 Y95.963 E16.79278
G1 X72.462 Y96.791 E16.83623
G1 X72.641 Y97.607 E16.8779
G1 X72.748 Y98.487 E16.92213
G1 X72.825 Y98.939 E16.94501
G1 X72.853 Y99.155 E16.95587
G1 X72.876 Y100.078 E17.00194
G1 X72.875 Y100.363 E17.01615
G1 X72.809 Y101.284 E17.06222
G1 X72.782 Y101.551 E17.07561
G1 X72.657 Y102.164 E17.10682
G1 X72.571 Y102.675 E17.13267
G1 X72.255 Y103.837 E17.19275
G1 X72.066 Y104.341 E17.21961
G1 X71.909 Y104.807 E17.24414
G1 X71.816 Y105.036 E17.25647
G1 X71.399 Y105.88 E17.30344
G1 X71.284 Y106.087 E17.31525
G1 X71.12 Y106.351 E17.33076
G1 X70.932 Y106.632 E17.34762
G1 X70.658 Y107.075 E17.37361
G1 X69.917 Y108.043 E17.43443
G1 X69.099 Y108.924 E17.49441
G1 X68.201 Y109.718 E17.55421
G1 X67.213 Y110.437 E17.61517
G1 X66.187 Y111.04 E17.67455
G1 X65.701 Y111.265 E17.70127
G1 X65.269 Y111.489 E17.72554
G1 X65.062 Y111.572 E17.73667
G1 X64.442 Y111.778 E17.76926
G1 X63.943 Y111.954 E17.79566
G1 X62.889 Y112.217 E17.84986
G1 X62.697 Y112.273 E17.85984
G1 X61.792 Y112.405 E17.90547
G1 X61.511 Y112.434 E17.91956
G1 X60.312 Y112.49 E17.97944
G1 X59.701 Y112.44 E18.01003
G1 X59.167 Y112.414 E18.0367
G1 X58.651 Y112.34 E18.06271
G1 X58.151 Y112.286 E18.0878
G1 X57.926 Y112.248 E18.09918
G1 X57.32 Y112.078 E18.13058
G1 X56.81 Y111.953 E18.15678
G1 X56.318 Y111.78 E18.1828
G1 X55.588 Y111.536 E18.2212
G1 X54.75 Y111.147 E18.26729
G1 X54.522 Y111.033 E18.28001
G1 X53.991 Y110.698 E18.31133
G1 X53.541 Y110.435 E18.33734
G1 X52.555 Y109.719 E18.39813
G1 X51.659 Y108.925 E18.45786
G1 X51.299 Y108.537 E18.48426
G1 X51.028 Y108.268 E18.50331
G1 X50.777 Y107.992 E18.52193
G1 X50.054 Y107.036 E18.58172
G1 X49.554 Y106.233 E18.62892
G1 X49.424 Y106.011 E18.64175
G1 X48.892 Y104.922 E18.70222
G1 X48.467 Y103.785 E18.76278
G1 X48.221 Y102.878 E18.80966
G1 X48.158 Y102.623 E18.82277
G1 X47.997 Y101.69 E18.87
G1 X47.96 Y101.426 E18.8833
G1 X47.89 Y100.492 E18.93003
G1 X47.879 Y100.215 E18.94386
G1 X47.902 Y99.281 E18.99047
G1 X47.919 Y99.05 E19.00203
G1 X48.01 Y98.405 E19.03453
G1 X48.073 Y97.873 E19.06125
G1 X48.331 Y96.708 E19.12078
G1 X48.702 Y95.564 E19.18079
G1 X48.915 Y95.08 E19.20717
G1 X49.056 Y94.723 E19.22632
G1 X49.202 Y94.393 E19.24432
G1 X49.518 Y93.861 E19.27519
G1 X49.779 Y93.392 E19.30197
G1 X50.468 Y92.375 E19.36325
G1 X50.9 Y91.888 E19.39573
G1 X51.231 Y91.49 E19.42156
G1 X52.099 Y90.644 E19.48203
G1 X52.511 Y90.314 E19.50836
G1 X52.807 Y90.057 E19.52792
G1 X53.088 Y89.833 E19.54585
G1 X53.869 Y89.322 E19.59241
G0 F3600 X53.65 Y88.987
;TYPE:WALL-OUTER
G1 F1200 X53.893 Y88.84 E19.60658
G1 X54.472 Y88.554 E19.6388
G1 X54.951 Y88.301 E19.66583
G1 X55.449 Y88.101 E19.6926
G1 X55.805 Y87.938 E19.71213
G1 X56.168 Y87.793 E19.73164
G1 X57.363 Y87.444 E19.79375
G1 X57.988 Y87.343 E19.82533
G1 X58.516 Y87.238 E19.85219
G1 X59.754 Y87.118 E19.91424
G1 X61.078 Y87.106 E19.9803
G1 X62.019 Y87.197 E20.02747
G1 X62.288 Y87.237 E20.04103
G1 X62.934 Y87.375 E20.07399
G1 X63.457 Y87.475 E20.10056
G1 X63.979 Y87.631 E20.12774
G1 X64.367 Y87.732 E20.14774
G1 X64.712 Y87.842 E20.1658
G1 X65.88 Y88.318 E20.22873
G1 X66.726 Y88.762 E20.2764
G1 X66.978 Y88.902 E20.29078
G1 X67.501 Y89.269 E20.32265
G1 X67.951 Y89.562 E20.34944
G1 X68.373 Y89.901 E20.37645
G1 X68.77 Y90.195 E20.4011
G1 X68.988 Y90.379 E20.41533
G1 X69.668 Y91.044 E20.46278
G1 X69.856 Y91.241 E20.47637
G1 X70.652 Y92.19 E20.53816
G1 X71.377 Y93.245 E20.60203
G1 X71.84 Y94.076 E20.64948
G1 X71.98 Y94.343 E20.66453
G1 X72.465 Y95.477 E20.72606
G1 X72.574 Y95.844 E20.74516
G1 X72.85 Y96.692 E20.78965
G1 X73.035 Y97.535 E20.83271
G1 X73.144 Y98.429 E20.87764
G1 X73.222 Y98.889 E20.90092
G1 X73.252 Y99.125 E20.91279
G1 X73.276 Y100.079 E20.9604
G1 X73.275 Y100.379 E20.97536
G1 X73.207 Y101.324 E21.02263
G1 X73.178 Y101.612 E21.03707
G1 X73.05 Y102.237 E21.0689
G1 X72.961 Y102.766 E21.09566
G1 X72.634 Y103.966 E21.15772
G1 X72.443 Y104.475 E21.18484
G1 X72.283 Y104.948 E21.20975
G1 X72.181 Y105.201 E21.22336
G1 X71.758 Y106.058 E21.27104
G1 X71.624 Y106.298 E21.28475
G1 X71.46 Y106.562 E21.30026
G1 X71.268 Y106.849 E21.31749
G1 X70.987 Y107.303 E21.34412
G1 X70.226 Y108.298 E21.40662
G1 X69.38 Y109.208 E21.46861
G1 X68.446 Y110.035 E21.53085
G1 X67.432 Y110.772 E21.59339
G1 X66.376 Y111.393 E21.6545
G1 X65.877 Y111.624 E21.68194
G1 X65.433 Y111.854 E21.70688
G1 X65.198 Y111.949 E21.71953
G1 X64.571 Y112.157 E21.75249
G1 X64.057 Y112.338 E21.77968
G1 X62.993 Y112.603 E21.83438
G1 X62.78 Y112.665 E21.84545
G1 X61.842 Y112.802 E21.89274
G1 X61.538 Y112.834 E21.90799
G1 X60.305 Y112.891 E21.96957
G1 X59.675 Y112.839 E22.00111
G1 X59.133 Y112.813 E22.02818
G1 X58.601 Y112.737 E22.05499
G1 X58.108 Y112.684 E22.07973
G1 X57.837 Y112.638 E22.09344
G1 X57.219 Y112.465 E22.12546
G1 X56.702 Y112.339 E22.15201
G1 X56.188 Y112.158 E22.1792
G1 X55.438 Y111.907 E22.21865
G1 X54.582 Y111.51 E22.26573
G1 X54.323 Y111.381 E22.28016
G1 X53.783 Y111.04 E22.31203
G1 X53.318 Y110.768 E22.3389
G1 X52.31 Y110.036 E22.40105
G1 X51.377 Y109.209 E22.46326
G1 X51.011 Y108.815 E22.49009
G1 X50.733 Y108.538 E22.50966
G1 X50.47 Y108.249 E22.52916
G1 X49.722 Y107.26 E22.59102
G1 X49.214 Y106.444 E22.63898
G1 X49.071 Y106.2 E22.65309
G1 X48.522 Y105.076 E22.7155
G1 X48.087 Y103.91 E22.77758
G1 X47.835 Y102.983 E22.82551
G1 X47.766 Y102.703 E22.8399
G1 X47.603 Y101.758 E22.88774
G1 X47.562 Y101.466 E22.90245
G1 X47.491 Y100.522 E22.94968
G1 X47.479 Y100.221 E22.96471
G1 X47.502 Y99.271 E23.01212
G1 X47.521 Y99.009 E23.02523
G1 X47.613 Y98.354 E23.05822
G1 X47.678 Y97.808 E23.08566
G1 X47.945 Y96.605 E23.14713
G1 X48.33 Y95.418 E23.20939
G1 X48.546 Y94.926 E23.2362
G1 X48.69 Y94.561 E23.25577
G1 X48.845 Y94.212 E23.27483
G1 X49.171 Y93.662 E23.30672
G1 X49.435 Y93.187 E23.33384
G1 X50.151 Y92.13 E23.39753
G1 X50.597 Y91.627 E23.43107
G1 X50.936 Y91.22 E23.45749
G1 X51.836 Y90.343 E23.52019
