;FLAVOR:RepRap
;TIME:2465
;Filament used: 1.65924m
;Layer height: 0.2
;Generated with Cura_SteamEngine 2.6.0
M190 S50
M104 S195
M109 S195
G28 ;Home
G1 Z15.0 F6000 ;Move the platform down 15mm
;Prime the extruder
G92 E0
G1 F200 E3
G92 E0
;LAYER_COUNT:219
;LAYER:0
M107
G0 F2400 X88.51 Y88.38 Z0.3
;TYPE:SKIRT
G1 F1200 X88.965 Y87.931 E0.03189
G1 X90.504 Y86.638 E0.13217
G1 X90.945 Y86.316 E0.15942
G1 X92.263 Y85.486 E0.23712
G1 X92.655 Y85.269 E0.25948
G1 X93.926 Y84.655 E0.3299
G1 X94.384 Y84.468 E0.35458
G1 X95.882 Y83.961 E0.43348
G1 X96.49 Y83.807 E0.46477
G1 X98.718 Y83.426 E0.57754
G1 X99.278 Y83.371 E0.60561
G1 X100.791 Y83.328 E0.68113
G1 X101.272 Y83.343 E0.70514
G1 X102.792 Y83.483 E0.78129
G1 X103.219 Y83.546 E0.80282
G1 X104.463 Y83.798 E0.86615
G1 X105.039 Y83.96 E0.896
G1 X107.204 Y84.749 E1.01096
G1 X107.836 Y85.044 E1.04576
G1 X109.714 Y86.13 E1.15399
G1 X110.255 Y86.505 E1.18683
G1 X111.95 Y87.901 E1.29638
G1 X112.41 Y88.347 E1.32835
G1 X113.567 Y89.662 E1.41573
G1 X113.86 Y90.038 E1.43951
G1 X114.375 Y90.787 E1.48486
G1 X114.6 Y91.155 E1.50638
G1 X115.702 Y93.2 E1.62228
G1 X115.964 Y93.799 E1.6549
G1 X116.521 Y95.421 E1.74046
G1 X116.661 Y95.937 E1.76713
G1 X116.971 Y97.491 E1.84619
G1 X117.047 Y98.168 E1.88018
G1 X117.117 Y100.807 E2.01188
G1 X117.068 Y101.542 E2.04863
G1 X116.699 Y103.859 E2.16568
G1 X116.541 Y104.504 E2.19882
G1 X116.03 Y106.025 E2.27887
G1 X115.819 Y106.534 E2.30636
G1 X114.95 Y108.279 E2.40361
G1 X114.655 Y108.777 E2.43249
G1 X113.644 Y110.233 E2.52092
G1 X113.221 Y110.745 E2.55406
G1 X111.623 Y112.383 E2.66823
G1 X111.26 Y112.713 E2.6927
G1 X110.353 Y113.439 E2.75066
G1 X110.035 Y113.668 E2.77021
G1 X109.087 Y114.285 E2.82664
G1 X108.67 Y114.522 E2.85057
G1 X106.962 Y115.362 E2.94553
G1 X106.47 Y115.565 E2.97209
G1 X104.981 Y116.065 E3.05045
G1 X104.483 Y116.197 E3.07615
G1 X103.096 Y116.471 E3.14669
G1 X102.613 Y116.536 E3.171
G1 X100.676 Y116.678 E3.2679
G1 X99.943 Y116.665 E3.30447
G1 X97.481 Y116.392 E3.42806
G1 X96.93 Y116.291 E3.456
G1 X95.665 Y115.967 E3.52115
G1 X95.158 Y115.8 E3.54778
G1 X93.372 Y115.078 E3.64389
G1 X92.834 Y114.812 E3.67383
G1 X91.31 Y113.91 E3.76219
G1 X90.833 Y113.579 E3.79115
G1 X89.057 Y112.144 E3.90507
G1 X88.589 Y111.699 E3.93729
G1 X87.516 Y110.499 E4.0176
G1 X87.183 Y110.072 E4.04461
G1 X86.144 Y108.534 E4.13721
G1 X85.87 Y108.061 E4.16448
G1 X85.17 Y106.638 E4.2436
G1 X84.995 Y106.225 E4.26598
G1 X84.715 Y105.446 E4.30728
G1 X84.606 Y105.094 E4.32566
G1 X84.127 Y103.24 E4.4212
G1 X84.026 Y102.698 E4.4487
G1 X83.844 Y101.123 E4.5278
G1 X83.818 Y100.638 E4.55203
G1 X83.827 Y99.278 E4.61989
G1 X83.851 Y98.867 E4.64042
G1 X84.021 Y97.32 E4.71807
G1 X84.084 Y96.926 E4.73798
G1 X84.309 Y95.866 E4.79204
G1 X84.433 Y95.414 E4.81542
G1 X84.935 Y93.932 E4.89349
G1 X85.133 Y93.454 E4.9193
G1 X85.877 Y91.937 E5.00359
G1 X86.123 Y91.505 E5.0284
G1 X86.957 Y90.233 E5.10428
G1 X87.274 Y89.812 E5.13057
G1 X88.51 Y88.38 E5.22495
G0 F2400 X88.813 Y88.642
G1 F1200 X89.222 Y88.238 E5.25363
G1 X90.761 Y86.945 E5.35391
G1 X91.159 Y86.655 E5.37848
G1 X92.477 Y85.825 E5.45619
G1 X92.829 Y85.629 E5.47629
G1 X94.1 Y85.015 E5.54671
G1 X94.512 Y84.847 E5.56891
G1 X96.01 Y84.34 E5.64781
G1 X96.557 Y84.202 E5.67595
G1 X98.785 Y83.821 E5.78872
G1 X99.29 Y83.77 E5.81404
G1 X100.803 Y83.727 E5.88956
G1 X101.235 Y83.741 E5.91112
G1 X102.755 Y83.881 E5.98728
G1 X103.14 Y83.938 E6.00669
G1 X104.384 Y84.19 E6.07002
G1 X104.902 Y84.336 E6.09687
G1 X107.067 Y85.125 E6.21183
G1 X107.636 Y85.391 E6.24316
G1 X109.514 Y86.477 E6.3514
G1 X110.001 Y86.814 E6.38094
G1 X111.696 Y88.21 E6.49049
G1 X112.11 Y88.611 E6.51925
G1 X113.267 Y89.926 E6.60663
G1 X113.53 Y90.264 E6.628
G1 X114.045 Y91.013 E6.67335
G1 X114.248 Y91.345 E6.69276
G1 X115.35 Y93.39 E6.80866
G1 X115.586 Y93.929 E6.83802
G1 X116.143 Y95.551 E6.92358
G1 X116.268 Y96.016 E6.9476
G1 X116.578 Y97.57 E7.02666
G1 X116.647 Y98.179 E7.05723
G1 X116.717 Y100.818 E7.18894
G1 X116.673 Y101.479 E7.22199
G1 X116.304 Y103.796 E7.33904
G1 X116.162 Y104.376 E7.36883
G1 X115.651 Y105.897 E7.44888
G1 X115.461 Y106.356 E7.47367
G1 X114.592 Y108.101 E7.57092
G1 X114.326 Y108.549 E7.59692
G1 X113.315 Y110.005 E7.68535
G1 X112.935 Y110.466 E7.71516
G1 X111.337 Y112.104 E7.82933
G1 X111.01 Y112.401 E7.85136
G1 X110.103 Y113.127 E7.90933
G1 X109.817 Y113.333 E7.92691
G1 X108.869 Y113.95 E7.98334
G1 X108.494 Y114.163 E8.00486
G1 X106.786 Y115.003 E8.09982
G1 X106.343 Y115.186 E8.12373
G1 X104.854 Y115.686 E8.20209
G1 X104.406 Y115.805 E8.22522
G1 X103.019 Y116.079 E8.29575
G1 X102.584 Y116.137 E8.31765
G1 X100.647 Y116.279 E8.41455
G1 X99.987 Y116.267 E8.44748
G1 X97.525 Y115.994 E8.57106
G1 X97.029 Y115.903 E8.59622
G1 X95.764 Y115.579 E8.66137
G1 X95.308 Y115.43 E8.6853
G1 X93.522 Y114.708 E8.78141
G1 X93.037 Y114.468 E8.80841
G1 X91.513 Y113.566 E8.89676
G1 X91.084 Y113.268 E8.92282
G1 X89.308 Y111.833 E9.03673
G1 X88.887 Y111.433 E9.06571
G1 X87.814 Y110.233 E9.14602
G1 X87.515 Y109.848 E9.17034
G1 X86.476 Y108.31 E9.26294
G1 X86.229 Y107.884 E9.2875
G1 X85.529 Y106.461 E9.36662
G1 X85.371 Y106.09 E9.38674
G1 X85.091 Y105.311 E9.42804
G1 X84.993 Y104.994 E9.44459
G1 X84.514 Y103.14 E9.54013
G1 X84.424 Y102.652 E9.56488
G1 X84.242 Y101.077 E9.64398
G1 X84.218 Y100.64 E9.66582
G1 X84.227 Y99.28 E9.73367
G1 X84.249 Y98.911 E9.75211
G1 X84.419 Y97.364 E9.82976
G1 X84.475 Y97.01 E9.84764
G1 X84.7 Y95.95 E9.9017
G1 X84.812 Y95.542 E9.92281
G1 X85.314 Y94.06 E10.00087
G1 X85.492 Y93.63 E10.02409
G1 X86.236 Y92.113 E10.10839
G1 X86.457 Y91.724 E10.13071
G1 X87.291 Y90.452 E10.20659
G1 X87.577 Y90.074 E10.23024
G1 X88.813 Y88.642 E10.32461
G0 F2400 X89.116 Y88.903
G1 F1200 X89.48 Y88.544 E10.35012
G1 X91.019 Y87.251 E10.4504
G1 X91.372 Y86.993 E10.47222
G1 X92.69 Y86.163 E10.54992
G1 X93.003 Y85.99 E10.56777
G1 X94.274 Y85.376 E10.63819
G1 X94.64 Y85.226 E10.65792
G1 X96.138 Y84.719 E10.73682
G1 X96.625 Y84.596 E10.76188
G1 X98.853 Y84.215 E10.87465
G1 X99.301 Y84.17 E10.89711
G1 X100.814 Y84.127 E10.97263
G1 X101.198 Y84.139 E10.99179
G1 X102.718 Y84.279 E11.06795
G1 X103.06 Y84.33 E11.0852
G1 X104.304 Y84.582 E11.14852
G1 X104.765 Y84.711 E11.17241
G1 X106.93 Y85.5 E11.28737
G1 X107.436 Y85.737 E11.31524
G1 X109.314 Y86.823 E11.42348
G1 X109.746 Y87.123 E11.44972
G1 X111.441 Y88.519 E11.55927
G1 X111.809 Y88.875 E11.58481
G1 X112.966 Y90.19 E11.6722
G1 X113.201 Y90.491 E11.69125
G1 X113.716 Y91.24 E11.7366
G1 X113.896 Y91.535 E11.75384
G1 X114.998 Y93.58 E11.86973
G1 X115.208 Y94.059 E11.89583
G1 X115.765 Y95.681 E11.98139
G1 X115.876 Y96.094 E12.00272
G1 X116.186 Y97.648 E12.08178
G1 X116.247 Y98.189 E12.10894
G1 X116.317 Y100.828 E12.24065
G1 X116.278 Y101.416 E12.27005
G1 X115.909 Y103.733 E12.3871
G1 X115.782 Y104.249 E12.41361
G1 X115.271 Y105.77 E12.49366
G1 X115.102 Y106.177 E12.51565
G1 X114.233 Y107.922 E12.61291
G1 X113.997 Y108.321 E12.63603
G1 X112.986 Y109.777 E12.72447
G1 X112.649 Y110.187 E12.75095
G1 X111.051 Y111.825 E12.86511
G1 X110.76 Y112.088 E12.88468
G1 X109.853 Y112.814 E12.94264
G1 X109.599 Y112.998 E12.95829
G1 X108.651 Y113.615 E13.01472
G1 X108.317 Y113.805 E13.03389
G1 X106.609 Y114.645 E13.12885
G1 X106.216 Y114.807 E13.15006
G1 X104.727 Y115.307 E13.22842
G1 X104.328 Y115.412 E13.24901
G1 X102.941 Y115.686 E13.31954
G1 X102.555 Y115.738 E13.33897
G1 X100.618 Y115.88 E13.43587
G1 X100.031 Y115.87 E13.46516
G1 X97.569 Y115.597 E13.58874
G1 X97.128 Y115.516 E13.61111
G1 X95.863 Y115.192 E13.67626
G1 X95.458 Y115.059 E13.69753
G1 X93.672 Y114.337 E13.79364
G1 X93.241 Y114.124 E13.81762
G1 X91.717 Y113.222 E13.90597
G1 X91.336 Y112.957 E13.92913
G1 X89.56 Y111.522 E14.04304
G1 X89.186 Y111.166 E14.0688
G1 X88.113 Y109.966 E14.14911
G1 X87.846 Y109.624 E14.17076
G1 X86.807 Y108.086 E14.26336
G1 X86.588 Y107.707 E14.2852
G1 X85.888 Y106.284 E14.36432
G1 X85.748 Y105.954 E14.3822
G1 X85.468 Y105.175 E14.4235
G1 X85.381 Y104.893 E14.43822
G1 X84.902 Y103.039 E14.53376
G1 X84.821 Y102.606 E14.55573
G1 X84.639 Y101.031 E14.63483
G1 X84.618 Y100.643 E14.65422
G1 X84.627 Y99.283 E14.72207
G1 X84.646 Y98.954 E14.73851
G1 X84.816 Y97.407 E14.81616
G1 X84.867 Y97.093 E14.83203
G1 X85.092 Y96.033 E14.88609
G1 X85.191 Y95.67 E14.90486
G1 X85.693 Y94.188 E14.98293
G1 X85.851 Y93.806 E15.00355
G1 X86.595 Y92.289 E15.08784
G1 X86.792 Y91.943 E15.10771
G1 X87.626 Y90.671 E15.18359
G1 X87.88 Y90.335 E15.20461
G1 X89.116 Y88.903 E15.29898
G1 F2400 E13.29898
G0 F2400 X90.954 Y90.629
G0 X91.876 Y91.521
G0 X91.935 Y91.575
G0 X91.862 Y91.508
;TYPE:WALL-INNER
G1 F2400 E15.29898
G1 F1200 X91.96 Y91.406 E15.30604
G1 X93.106 Y90.404 E15.38199
G1 X94.366 Y89.558 E15.4577
G1 X94.501 Y89.481 E15.46546
G1 X95.876 Y88.81 E15.54179
G1 X97.311 Y88.323 E15.61739
G1 X98.953 Y87.999 E15.70089
G1 X100.476 Y87.901 E15.77703
G1 X101.996 Y87.998 E15.85302
G1 X102.14 Y88.018 E15.86027
G1 X103.499 Y88.285 E15.92937
G1 X103.626 Y88.316 E15.93589
G1 X105.082 Y88.813 E16.01264
G1 X105.222 Y88.875 E16.02028
G1 X106.444 Y89.477 E16.08825
G1 X106.583 Y89.557 E16.09625
G1 X107.844 Y90.403 E16.17201
G1 X108.98 Y91.396 E16.24728
G1 X110.1 Y92.667 E16.3318
G1 X110.949 Y93.938 E16.40805
G1 X111.615 Y95.283 E16.48293
G1 X111.683 Y95.441 E16.49151
G1 X112.167 Y96.874 E16.56697
G1 X112.463 Y98.361 E16.64262
G1 X112.481 Y98.51 E16.6501
G1 X112.571 Y99.885 E16.71885
G1 X112.575 Y100.031 E16.72614
G1 X112.474 Y101.558 E16.80249
G1 X112.188 Y103.039 E16.87774
G1 X112.142 Y103.204 E16.88628
G1 X111.65 Y104.638 E16.96192
G1 X110.983 Y105.997 E17.03745
G1 X110.042 Y107.406 E17.12198
G1 X109.054 Y108.531 E17.19668
G1 X107.893 Y109.558 E17.27401
G1 X107.787 Y109.64 E17.28069
G1 X106.521 Y110.479 E17.35647
G1 X105.16 Y111.155 E17.43228
G1 X103.558 Y111.701 E17.51672
G1 X102.061 Y111.995 E17.59283
G1 X100.545 Y112.098 E17.66864
G1 X100.404 Y112.099 E17.67567
G1 X99.033 Y112.009 E17.74422
G1 X98.88 Y111.993 E17.7519
G1 X97.389 Y111.7 E17.8277
G1 X97.248 Y111.659 E17.83503
G1 X95.94 Y111.215 E17.90394
G1 X95.804 Y111.163 E17.91121
G1 X94.45 Y110.492 E17.9866
G1 X94.181 Y110.304 E18.00297
G1 X93.04 Y109.542 E18.07142
G1 X91.897 Y108.531 E18.14756
G1 X90.91 Y107.408 E18.22215
G1 X90.082 Y106.179 E18.29608
G1 X89.974 Y106.006 E18.30625
G1 X89.299 Y104.632 E18.38263
G1 X89.249 Y104.499 E18.38972
G1 X88.807 Y103.193 E18.4585
G1 X88.77 Y103.058 E18.46549
G1 X88.48 Y101.575 E18.54088
G1 X88.465 Y101.399 E18.54969
G1 X88.378 Y99.997 E18.61977
G1 X88.49 Y98.346 E18.70233
G1 X88.786 Y96.873 E18.77728
G1 X89.272 Y95.433 E18.85311
G1 X89.328 Y95.3 E18.86031
G1 X90.011 Y93.926 E18.93686
G1 X90.851 Y92.669 E19.01228
G1 X90.945 Y92.553 E19.01973
G1 X91.862 Y91.508 E19.08909
G0 F2400 X91.561 Y91.244
;TYPE:WALL-OUTER
G1 F1200 X91.686 Y91.115 E19.09806
G1 X92.863 Y90.085 E19.17609
G1 X94.162 Y89.214 E19.25411
G1 X94.313 Y89.127 E19.26281
G1 X94.445 Y89.068 E19.27002
G1 X95.723 Y88.439 E19.34109
G1 X97.202 Y87.937 E19.41901
G1 X98.749 Y87.628 E19.49771
G1 X98.909 Y87.601 E19.50581
G1 X100.475 Y87.5 E19.5841
G1 X102.041 Y87.6 E19.66238
G1 X102.215 Y87.625 E19.67115
G1 X103.576 Y87.892 E19.74035
G1 X103.746 Y87.934 E19.74909
G1 X105.227 Y88.439 E19.82715
G1 X105.392 Y88.512 E19.83615
G1 X106.629 Y89.122 E19.90496
G1 X106.793 Y89.216 E19.91439
G1 X108.087 Y90.084 E19.99213
G1 X109.262 Y91.112 E20.07002
G1 X110.42 Y92.426 E20.1574
G1 X111.288 Y93.726 E20.23539
G1 X111.366 Y93.871 E20.2436
G1 X111.983 Y95.125 E20.31332
G1 X112.055 Y95.293 E20.32244
G1 X112.553 Y96.768 E20.40011
G1 X112.858 Y98.299 E20.478
G1 X112.879 Y98.475 E20.48684
G1 X112.971 Y99.873 E20.55674
G1 X112.976 Y100.035 E20.56482
G1 X112.871 Y101.612 E20.64367
G1 X112.577 Y103.134 E20.72101
G1 X112.528 Y103.311 E20.73017
G1 X112.02 Y104.792 E20.80829
G1 X111.329 Y106.2 E20.88653
G1 X110.363 Y107.647 E20.97333
G1 X109.334 Y108.818 E21.05111
G1 X108.151 Y109.864 E21.12989
G1 X108.024 Y109.962 E21.13789
G1 X106.72 Y110.827 E21.21596
G1 X105.31 Y111.527 E21.2945
G1 X103.661 Y112.089 E21.38141
G1 X102.125 Y112.39 E21.4595
G1 X101.952 Y112.406 E21.46817
G1 X100.557 Y112.498 E21.53792
G1 X100.394 Y112.499 E21.54605
G1 X98.998 Y112.407 E21.61585
G1 X98.826 Y112.39 E21.62447
G1 X97.292 Y112.088 E21.70247
G1 X97.119 Y112.038 E21.71146
G1 X95.811 Y111.594 E21.78037
G1 X95.643 Y111.529 E21.78936
G1 X94.244 Y110.836 E21.86725
G1 X93.955 Y110.634 E21.88484
G1 X92.795 Y109.86 E21.95441
G1 X91.617 Y108.818 E22.03287
G1 X90.591 Y107.651 E22.1104
G1 X89.75 Y106.402 E22.18552
G1 X89.624 Y106.201 E22.19736
G1 X88.932 Y104.792 E22.27567
G1 X88.87 Y104.627 E22.28446
G1 X88.425 Y103.313 E22.35368
G1 X88.378 Y103.139 E22.36267
G1 X88.083 Y101.631 E22.43933
G1 X88.066 Y101.433 E22.44924
G1 X87.977 Y99.997 E22.52102
G1 X88.092 Y98.297 E22.60603
G1 X88.399 Y96.768 E22.68384
G1 X88.896 Y95.295 E22.7614
G1 X88.969 Y95.123 E22.77072
G1 X89.581 Y93.881 E22.83979
G1 X89.666 Y93.722 E22.84879
G1 X90.528 Y92.431 E22.92624
G1 X90.644 Y92.289 E22.93538
G1 X91.561 Y91.244 E23.00475
G0 F2400 X91.686 Y91.115
G0 X91.701 Y91.102
G0 X92.094 Y91.528
;TYPE:SKIN
G1 F1200 X108.946 Y108.381 E24.19378
G1 X109.016 Y108.451
G0 F2400 X108.647 Y108.647
G1 F1200 X91.823 Y91.823 E25.3808
G1 X91.753 Y91.753
G0 F2400 X91.559 Y92.124
G1 F1200 X108.347 Y108.913 E26.56532
G1 X108.417 Y108.983
G0 F2400 X108.047 Y109.178
G1 F1200 X91.293 Y92.425 E27.74737
G1 X91.223 Y92.355
G0 F2400 X91.032 Y92.729
G1 F1200 X107.746 Y109.443 E28.92664
G1 X107.816 Y109.513
G0 F2400 X107.41 Y109.672
G1 F1200 X90.802 Y93.065 E30.09839
G1 X90.732 Y92.995
G0 F2400 X90.575 Y93.403
G1 F1200 X107.069 Y109.897 E31.26213
G1 X107.139 Y109.967
G0 F2400 X106.729 Y110.123
G1 F1200 X90.349 Y93.743 E32.41782
G1 X90.279 Y93.673
G0 F2400 X90.129 Y94.089
G1 F1200 X106.384 Y110.344 E33.5647
G1 X106.454 Y110.414
G0 F2400 X106.006 Y110.532
G1 F1200 X89.941 Y94.467 E34.69817
G1 X89.871 Y94.397
G0 F2400 X89.754 Y94.845
G1 F1200 X105.629 Y110.72 E35.81824
G1 X105.699 Y110.79
G0 F2400 X105.251 Y110.908
G1 F1200 X89.566 Y95.223 E36.9249
G1 X89.496 Y95.153
G0 F2400 X89.397 Y95.619
G1 F1200 X104.847 Y111.07 E38.01502
G1 X104.917 Y111.14
G0 F2400 X104.426 Y111.214
G1 F1200 X89.255 Y96.043 E39.08542
G1 X89.185 Y95.973
G0 F2400 X89.112 Y96.466
G1 F1200 X104.004 Y111.358 E40.13613
G1 X104.074 Y111.428
G0 F2400 X103.581 Y111.501
G1 F1200 X88.97 Y96.889 E41.16705
G1 X88.9 Y96.819
G0 F2400 X88.872 Y97.357
G1 F1200 X103.117 Y111.602 E42.17211
G1 X103.187 Y111.672
G0 F2400 X102.645 Y111.696
G1 F1200 X88.777 Y97.828 E43.15057
G1 X88.707 Y97.758
G0 F2400 X88.681 Y98.298
G1 F1200 X102.171 Y111.788 E44.10236
G1 X102.241 Y111.858
G0 F2400 X101.657 Y111.84
G1 F1200 X88.637 Y98.82 E45.02099
G1 X88.567 Y98.75
G0 F2400 X88.602 Y99.35
G1 F1200 X101.128 Y111.876 E45.90477
G1 X101.198 Y111.946
G0 F2400 X100.598 Y111.912
G1 F1200 X88.566 Y99.88 E46.75369
G1 X88.496 Y99.81
G0 F2400 X88.588 Y100.467
G1 F1200 X100.011 Y111.891 E47.55968
G1 X100.081 Y111.961
G0 F2400 X99.406 Y111.851
G1 F1200 X88.625 Y101.071 E48.32031
G1 X88.555 Y101.001
G0 F2400 X88.686 Y101.697
G1 F1200 X98.778 Y111.789 E49.03235
G1 X98.848 Y111.859
G0 F2400 X98.073 Y111.65
G1 F1200 X88.823 Y102.4 E49.68499
G1 X88.753 Y102.33
G0 F2400 X88.971 Y103.113
G1 F1200 X97.36 Y111.502 E50.27688
G1 X97.43 Y111.572
G0 F2400 X96.509 Y111.217
G1 F1200 X89.257 Y103.965 E50.78855
G1 X89.187 Y103.895
G0 F2400 X89.637 Y104.91
G1 F1200 X95.572 Y110.846 E51.20733
G1 X95.642 Y110.916
G0 F2400 X94.39 Y110.229
G1 F1200 X90.219 Y106.058 E51.50161
G1 X90.149 Y105.988
G0 F2400 X92.396 Y91.264
G1 F1200 X109.211 Y108.079 E52.688
G1 X109.281 Y108.149
G0 F2400 X109.475 Y107.778
G1 F1200 X92.698 Y91.001 E53.87171
G1 X92.628 Y90.931
G0 F2400 X93 Y90.737
G1 F1200 X109.74 Y107.477 E55.05281
G1 X109.81 Y107.547
G0 F2400 X109.989 Y107.161
G1 F1200 X93.311 Y90.482 E56.22957
G1 X93.241 Y90.412
G0 F2400 X93.649 Y90.255
G1 F1200 X110.216 Y106.821 E57.39842
G1 X110.286 Y106.891
G0 F2400 X110.442 Y106.482
G1 F1200 X93.987 Y90.028 E58.55938
G1 X93.917 Y89.958
G0 F2400 X94.326 Y89.801
G1 F1200 X110.668 Y106.143 E59.71239
G1 X110.738 Y106.213
G0 F2400 X110.882 Y105.791
G1 F1200 X94.683 Y89.592 E60.85532
G1 X94.613 Y89.522
