;FLAVOR:RepRap
;TIME:1282
;Filament used: 0.925782m
;Layer height: 0.2
;Generated with Cura_SteamEngine 2.6.0
M190 S60
M104 S205
M109 S205
G28 ;Home
G1 Z15.0 F6000 ;Move the platform down 15mm
;Prime the extruder
G92 E0
G1 F200 E3
G92 E0
;LAYER_COUNT:125
;LAYER:0
M107
G0 F1200 X11.144 Y103.481 Z0.3
;TYPE:WALL-INNER
G1 F600 X14.944 Y103.481 E0.18958
G1 X14.944 Y108.481 E0.43903
G1 X19.944 Y108.481 E0.68848
G1 X19.944 Y113.481 E0.93794
G1 X24.944 Y113.481 E1.18739
G1 X24.944 Y118.481 E1.43684
G1 X29.944 Y118.481 E1.68629
G1 X29.944 Y123.481 E1.93574
G1 X34.944 Y123.481 E2.18519
G1 X34.944 Y127.281 E2.37477
G1 X26.144 Y127.281 E2.81381
G1 X26.144 Y122.281 E3.06326
G1 X14.944 Y122.281 E3.62203
G1 X14.944 Y127.281 E3.87148
G1 X11.144 Y127.281 E4.06106
G1 X11.144 Y103.481 E5.24845
G0 F1200 X10.744 Y103.081
;TYPE:WALL-OUTER
G1 F600 X15.344 Y103.081 E5.47794
G1 X15.344 Y108.081 E5.7274
G1 X20.344 Y108.081 E5.97685
G1 X20.344 Y113.081 E6.2263
G1 X25.344 Y113.081 E6.47575
G1 X25.344 Y118.081 E6.7252
G1 X30.344 Y118.081 E6.97465
G1 X30.344 Y123.081 E7.2241
G1 X35.344 Y123.081 E7.47355
G1 X35.344 Y127.681 E7.70305
G1 X25.744 Y127.681 E8.18199
G1 X25.744 Y122.681 E8.43144
G1 X15.344 Y122.681 E8.9503
G1 X15.344 Y127.681 E9.19975
G1 X10.744 Y127.681 E9.42925
G1 X10.744 Y103.081 E10.65655
G0 F1200 X10.944 Y103.081
G0 X11.453 Y103.66
;TYPE:SKIN
G1 F600 X14.764 Y106.971 E10.89016
G1 X14.834 Y107.041
G0 F1200 X14.764 Y107.536
G1 F600 X11.323 Y104.096 E11.1329
G1 X11.253 Y104.026
G0 F1200 X11.323 Y104.661
G1 F600 X14.764 Y108.102 E11.37568
G1 X14.834 Y108.172
G0 F1200 X15.322 Y108.66
G1 F600 X19.764 Y113.102 E11.68909
G1 X19.834 Y113.172
G0 F1200 X19.764 Y112.536
G1 F600 X15.887 Y108.66 E11.9626
G1 X15.817 Y108.59
G0 F1200 X16.453 Y108.66
G1 F600 X19.764 Y111.971 E12.19621
G1 X19.834 Y112.041
G0 F1200 X19.764 Y111.405
G1 F600 X17.019 Y108.66 E12.38988
G1 X16.949 Y108.59
G0 F1200 X17.585 Y108.66
G1 F600 X19.764 Y110.839 E12.54362
G1 X19.834 Y110.909
G0 F1200 X19.764 Y110.274
G1 F600 X18.15 Y108.66 E12.6575
G1 X18.08 Y108.59
G0 F1200 X18.716 Y108.66
G1 F600 X19.764 Y109.708 E12.73144
G1 X19.834 Y109.778
G0 F1200 X19.764 Y109.142
G1 F600 X19.282 Y108.66 E12.76545
G0 F1200 X14.916 Y108.509
G0 X14.764 Y106.405
G1 F600 X12.019 Y103.66 E12.95912
G1 X11.949 Y103.59
G0 F1200 X12.585 Y103.66
G1 F600 X14.764 Y105.839 E13.11286
G1 X14.834 Y105.909
G0 F1200 X14.764 Y105.274
G1 F600 X13.15 Y103.66 E13.22674
G1 X13.08 Y103.59
G0 F1200 X13.716 Y103.66
G1 F600 X14.764 Y104.708 E13.30068
G1 X14.834 Y104.778
G0 F1200 X14.764 Y104.142
G1 F600 X14.282 Y103.66 E13.33469
G0 F1200 X11.323 Y105.227
G1 F600 X33.196 Y127.1 E14.87795
G1 X33.266 Y127.17
G0 F1200 X33.762 Y127.1
G1 F600 X30.322 Y123.66 E15.12066
G1 X30.252 Y123.59
G0 F1200 X30.887 Y123.66
G1 F600 X34.327 Y127.1 E15.36337
G1 X34.397 Y127.17
G0 F1200 X34.764 Y126.97
G1 F600 X31.453 Y123.66 E15.59694
G1 X31.383 Y123.59
G0 F1200 X32.019 Y123.66
G1 F600 X34.764 Y126.405 E15.79062
G1 X34.834 Y126.475
G0 F1200 X34.764 Y125.839
G1 F600 X32.584 Y123.66 E15.94439
G1 X32.514 Y123.59
G0 F1200 X33.15 Y123.66
G1 F600 X34.764 Y125.273 E16.05823
G1 X34.834 Y125.343
G0 F1200 X34.764 Y124.708
G1 F600 X33.716 Y123.66 E16.13218
G1 X33.646 Y123.59
G0 F1200 X34.281 Y123.66
G1 F600 X34.764 Y124.142 E16.16622
G0 F1200 X32.63 Y127.1
G1 F600 X11.323 Y105.793 E17.66954
G1 X11.253 Y105.723
G0 F1200 X11.323 Y106.358
G1 F600 X32.065 Y127.1 E19.133
G1 X32.135 Y127.17
G0 F1200 X31.499 Y127.1
G1 F600 X11.323 Y106.924 E20.55653
G1 X11.253 Y106.854
G0 F1200 X11.323 Y107.49
G1 F600 X25.933 Y122.1 E21.58734
G1 X26.003 Y122.17
G0 F1200 X26.323 Y122.489
G1 F600 X30.933 Y127.1 E21.91264
G1 X31.003 Y127.17
G0 F1200 X30.368 Y127.1
G1 F600 X26.323 Y123.055 E22.19804
G1 X26.253 Y122.985
G0 F1200 X26.323 Y123.621
G1 F600 X29.802 Y127.1 E22.4435
G1 X29.872 Y127.17
G0 F1200 X29.236 Y127.1
G1 F600 X26.323 Y124.187 E22.64903
G1 X26.253 Y124.117
G0 F1200 X26.323 Y124.752
G1 F600 X28.671 Y127.1 E22.81469
G1 X28.741 Y127.17
G0 F1200 X28.105 Y127.1
G1 F600 X26.323 Y125.318 E22.94042
G1 X26.253 Y125.248
G0 F1200 X26.323 Y125.884
G1 F600 X27.539 Y127.1 E23.02621
G1 X27.609 Y127.17
G0 F1200 X26.974 Y127.1
G1 F600 X26.323 Y126.449 E23.07215
G1 X26.253 Y126.379
G0 F1200 X26.323 Y127.015
G1 F600 X26.408 Y127.1 E23.07814
G0 F1200 X26.172 Y122.253
G0 X25.368 Y122.1
G1 F600 X11.323 Y108.055 E24.06909
G1 X11.253 Y107.985
G0 F1200 X11.323 Y108.621
G1 F600 X24.802 Y122.1 E25.02011
G1 X24.872 Y122.17
G0 F1200 X24.236 Y122.1
G1 F600 X11.323 Y109.187 E25.93119
G1 X11.253 Y109.117
G0 F1200 X11.323 Y109.752
G1 F600 X23.671 Y122.1 E26.80241
G1 X23.741 Y122.17
G0 F1200 X23.105 Y122.1
G1 F600 X11.323 Y110.318 E27.63369
G1 X11.253 Y110.248
G0 F1200 X11.323 Y110.884
G1 F600 X22.539 Y122.1 E28.42504
G1 X22.609 Y122.17
G0 F1200 X21.974 Y122.1
G1 F600 X11.323 Y111.449 E29.17653
G1 X11.253 Y111.379
G0 F1200 X11.323 Y112.015
G1 F600 X21.408 Y122.1 E29.88808
G1 X21.478 Y122.17
G0 F1200 X20.842 Y122.1
G1 F600 X11.323 Y112.581 E30.5597
G1 X11.253 Y112.511
G0 F1200 X11.323 Y113.146
G1 F600 X20.276 Y122.1 E31.19141
G1 X20.346 Y122.17
G0 F1200 X19.711 Y122.1
G1 F600 X11.323 Y113.712 E31.78323
G1 X11.253 Y113.642
G0 F1200 X11.323 Y114.278
G1 F600 X19.145 Y122.1 E32.33512
G1 X19.215 Y122.17
G0 F1200 X18.579 Y122.1
G1 F600 X11.323 Y114.844 E32.84707
G1 X11.253 Y114.774
G0 F1200 X11.323 Y115.409
G1 F600 X18.014 Y122.1 E33.31915
G1 X18.084 Y122.17
G0 F1200 X17.448 Y122.1
G1 F600 X11.323 Y115.975 E33.75131
G1 X11.253 Y115.905
G0 F1200 X11.323 Y116.541
G1 F600 X16.882 Y122.1 E34.14352
G1 X16.952 Y122.17
G0 F1200 X16.317 Y122.1
G1 F600 X11.323 Y117.106 E34.49588
G1 X11.253 Y117.036
G0 F1200 X11.323 Y117.672
G1 F600 X15.751 Y122.1 E34.8083
G1 X15.821 Y122.17
G0 F1200 X15.185 Y122.1
G1 F600 X11.323 Y118.238 E35.08078
G1 X11.253 Y118.168
G0 F1200 X11.323 Y118.803
G1 F600 X14.764 Y122.244 E35.32356
G1 X14.834 Y122.314
G0 F1200 X14.764 Y122.81
G1 F600 X11.323 Y119.369 E35.56634
G1 X11.253 Y119.299
G0 F1200 X11.323 Y119.935
G1 F600 X14.764 Y123.375 E35.80909
G1 X14.834 Y123.445
G0 F1200 X14.764 Y123.941
G1 F600 X11.323 Y120.5 E36.05187
G1 X11.253 Y120.43
G0 F1200 X11.323 Y121.066
G1 F600 X14.764 Y124.507 E36.29465
G1 X14.834 Y124.577
G0 F1200 X14.764 Y125.073
G1 F600 X11.323 Y121.632 E36.53743
G1 X11.253 Y121.562
G0 F1200 X11.323 Y122.197
G1 F600 X14.764 Y125.638 E36.78021
G1 X14.834 Y125.708
G0 F1200 X14.764 Y126.204
G1 F600 X11.323 Y122.763 E37.02299
G1 X11.253 Y122.693
G0 F1200 X11.323 Y123.329
G1 F600 X14.764 Y126.77 E37.26578
G1 X14.834 Y126.84
G0 F1200 X14.528 Y127.1
G1 F600 X11.323 Y123.895 E37.49191
G1 X11.253 Y123.825
G0 F1200 X11.323 Y124.46
G1 F600 X13.963 Y127.1 E37.67817
G1 X14.033 Y127.17
G0 F1200 X13.397 Y127.1
G1 F600 X11.323 Y125.026 E37.8245
G1 X11.253 Y124.956
G0 F1200 X11.323 Y125.592
G1 F600 X12.831 Y127.1 E37.9309
G1 X12.901 Y127.17
G0 F1200 X12.266 Y127.1
G1 F600 X11.323 Y126.157 E37.99744
G1 X11.253 Y126.087
G0 F1200 X11.323 Y126.723
G1 F600 X11.7 Y127.1 E38.02403
G0 F1200 X14.916 Y122.253
G0 X24.764 Y118.102
G1 F600 X20.322 Y113.66 E38.33744
G1 X20.252 Y113.59
G0 F1200 X20.887 Y113.66
G1 F600 X24.764 Y117.536 E38.61095
G1 X24.834 Y117.606
G0 F1200 X24.764 Y116.971
G1 F600 X21.453 Y113.66 E38.84456
G1 X21.383 Y113.59
G0 F1200 X22.019 Y113.66
G1 F600 X24.764 Y116.405 E39.03823
G1 X24.834 Y116.475
G0 F1200 X24.764 Y115.839
G1 F600 X22.584 Y113.66 E39.19201
G1 X22.514 Y113.59
G0 F1200 X23.15 Y113.66
G1 F600 X24.764 Y115.273 E39.30585
G1 X24.834 Y115.343
G0 F1200 X24.764 Y114.708
G1 F600 X23.716 Y113.66 E39.37979
G1 X23.646 Y113.59
G0 F1200 X24.282 Y113.66
G1 F600 X24.764 Y114.142 E39.4138
G0 F1200 X24.916 Y118.509
G0 X25.322 Y118.66
G1 F600 X29.764 Y123.102 E39.72721
G1 X29.834 Y123.172
G0 F1200 X29.764 Y122.536
G1 F600 X25.887 Y118.66 E40.00072
G1 X25.817 Y118.59
G0 F1200 X26.453 Y118.66
G1 F600 X29.764 Y121.97 E40.23429
G1 X29.834 Y122.04
G0 F1200 X29.764 Y121.405
G1 F600 X27.019 Y118.66 E40.42796
G1 X26.949 Y118.59
G0 F1200 X27.584 Y118.66
G1 F600 X29.764 Y120.839 E40.58174
G1 X29.834 Y120.909
G0 F1200 X29.764 Y120.273
G1 F600 X28.15 Y118.66 E40.69558
G1 X28.08 Y118.59
G0 F1200 X28.716 Y118.66
G1 F600 X29.764 Y119.708 E40.76952
G1 X29.834 Y119.778
G0 F1200 X29.764 Y119.142
G1 F600 X29.281 Y118.66 E40.80356
G0 F1200 X29.281 Y118.881
G0 X24.916 Y118.509
G0 X14.916 Y108.509
G0 X11.214 Y103.551
G0 X11.144 Y103.481
;TIME_ELAPSED:93.783402
;LAYER:1
M140 S60
M106 S255
G0 F3000 X11.144 Y103.481 Z0.5
;TYPE:WALL-INNER
G1 F1500 X14.944 Y103.481 E40.92995
G1 X14.944 Y108.481 E41.09625
G1 X19.944 Y108.481 E41.26255
G1 X19.944 Y113.481 E41.42886
G1 X24.944 Y113.481 E41.59516
G1 X24.944 Y118.481 E41.76146
G1 X29.944 Y118.481 E41.92776
G1 X29.944 Y123.481 E42.09406
G1 X34.944 Y123.481 E42.26036
G1 X34.944 Y127.281 E42.38675
G1 X26.144 Y127.281 E42.67944
G1 X26.144 Y122.281 E42.84574
G1 X14.944 Y122.281 E43.21825
G1 X14.944 Y127.281 E43.38455
G1 X11.144 Y127.281 E43.51094
G1 X11.144 Y103.481 E44.30253
G0 F3000 X10.744 Y103.081
;TYPE:WALL-OUTER
G1 F900 X15.344 Y103.081 E44.45553
G1 X15.344 Y108.081 E44.62183
G1 X20.344 Y108.081 E44.78813
G1 X20.344 Y113.081 E44.95443
G1 X25.344 Y113.081 E45.12073
G1 X25.344 Y118.081 E45.28703
G1 X30.344 Y118.081 E45.45333
G1 X30.344 Y123.081 E45.61963
G1 X35.344 Y123.081 E45.78593
G1 X35.344 Y127.681 E45.93893
G1 X25.744 Y127.681 E46.25823
G1 X25.744 Y122.681 E46.42453
G1 X15.344 Y122.681 E46.77043
G1 X15.344 Y127.681 E46.93673
G1 X10.744 Y127.681 E47.08973
G1 X10.744 Y103.081 E47.90793
G0 F3000 X10.944 Y103.081
G0 X11.214 Y103.551
G0 X11.739 Y103.66
;TYPE:SKIN
G1 F900 X11.324 Y104.075 E47.92745
G0 F3000 X11.324 Y104.641
G1 F900 X12.305 Y103.66 E47.97359
G1 X12.375 Y103.59
G0 F3000 X12.87 Y103.66
G1 F900 X11.324 Y105.206 E48.04631
G1 X11.254 Y105.276
G0 F3000 X11.324 Y105.772
G1 F900 X13.436 Y103.66 E48.14565
G1 X13.506 Y103.59
G0 F3000 X14.002 Y103.66
G1 F900 X11.324 Y106.338 E48.27162
G1 X11.254 Y106.408
G0 F3000 X11.324 Y106.903
G1 F900 X14.567 Y103.66 E48.42416
G1 X14.637 Y103.59
G0 F3000 X14.763 Y104.03
G1 F900 X11.324 Y107.469 E48.58592
G1 X11.254 Y107.539
G0 F3000 X11.324 Y108.035
G1 F900 X14.763 Y104.595 E48.7477
G1 X14.833 Y104.525
G0 F3000 X14.763 Y105.161
G1 F900 X11.324 Y108.6 E48.90946
G1 X11.254 Y108.67
G0 F3000 X11.324 Y109.166
G1 F900 X14.763 Y105.727 E49.07122
G1 X14.833 Y105.657
G0 F3000 X14.763 Y106.292
G1 F900 X11.324 Y109.732 E49.23301
G1 X11.254 Y109.802
G0 F3000 X11.324 Y110.298
G1 F900 X14.763 Y106.858 E49.39479
G1 X14.833 Y106.788
G0 F3000 X14.763 Y107.424
G1 F900 X11.324 Y110.863 E49.55655
G1 X11.254 Y110.933
G0 F3000 X11.324 Y111.429
G1 F900 X14.763 Y107.99 E49.71831
G1 X14.833 Y107.92
G0 F3000 X14.763 Y108.555
G1 F900 X11.324 Y111.995 E49.88009
G1 X11.254 Y112.065
G0 F3000 X11.324 Y112.56
G1 F900 X15.224 Y108.66 E50.06354
G1 X15.294 Y108.59
G0 F3000 X15.79 Y108.66
G1 F900 X11.324 Y113.126 E50.27361
G1 X11.254 Y113.196
G0 F3000 X11.324 Y113.692
G1 F900 X16.356 Y108.66 E50.5103
G1 X16.426 Y108.59
G0 F3000 X16.921 Y108.66
G1 F900 X11.324 Y114.257 E50.77356
G1 X11.254 Y114.327
G0 F3000 X11.324 Y114.823
G1 F900 X17.487 Y108.66 E51.06345
G1 X17.557 Y108.59
G0 F3000 X18.053 Y108.66
G1 F900 X11.324 Y115.389 E51.37996
G1 X11.254 Y115.459
G0 F3000 X11.324 Y115.954
G1 F900 X18.618 Y108.66 E51.72305
G1 X18.688 Y108.59
G0 F3000 X19.184 Y108.66
G1 F900 X11.324 Y116.52 E52.09276
G1 X11.254 Y116.59
G0 F3000 X11.324 Y117.086
G1 F900 X19.75 Y108.66 E52.48909
G1 X19.82 Y108.59
G0 F3000 X19.763 Y109.212
G1 F900 X11.324 Y117.651 E52.88604
G1 X11.254 Y117.721
G0 F3000 X11.324 Y118.217
G1 F900 X19.763 Y109.778 E53.28298
G1 X19.833 Y109.708
G0 F3000 X19.763 Y110.344
G1 F900 X11.324 Y118.783 E53.67993
G1 X11.254 Y118.853
G0 F3000 X11.324 Y119.349
G1 F900 X19.763 Y110.909 E54.07689
G1 X19.833 Y110.839
G0 F3000 X19.763 Y111.475
G1 F900 X11.324 Y119.914 E54.47384
G1 X11.254 Y119.984
G0 F3000 X11.324 Y120.48
G1 F900 X19.763 Y112.041 E54.87078
G1 X19.833 Y111.971
G0 F3000 X19.763 Y112.606
G1 F900 X11.324 Y121.046 E55.26775
G1 X11.254 Y121.116
G0 F3000 X11.324 Y121.611
G1 F900 X19.763 Y113.172 E55.6647
G1 X19.833 Y113.102
G0 F3000 X19.841 Y113.66
G1 F900 X11.324 Y122.177 E56.06531
G1 X11.254 Y122.247
G0 F3000 X11.324 Y122.743
G1 F900 X20.407 Y113.66 E56.49255
G1 X20.477 Y113.59
G0 F3000 X20.972 Y113.66
G1 F900 X11.324 Y123.308 E56.94636
G1 X11.254 Y123.378
G0 F3000 X11.324 Y123.874
G1 F900 X21.538 Y113.66 E57.42679
G1 X21.608 Y113.59
G0 F3000 X22.104 Y113.66
G1 F900 X11.324 Y124.44 E57.93385
G1 X11.254 Y124.51
G0 F3000 X11.324 Y125.005
G1 F900 X22.669 Y113.66 E58.46749
G1 X22.739 Y113.59
G0 F3000 X23.235 Y113.66
G1 F900 X14.795 Y122.1 E58.86448
G1 X14.725 Y122.17
G0 F3000 X14.763 Y122.132
G1 F900 X11.324 Y125.571 E59.02624
G1 X11.254 Y125.641
G0 F3000 X11.324 Y126.137
G1 F900 X14.763 Y122.697 E59.18802
G1 X14.833 Y122.627
G0 F3000 X14.763 Y123.263
G1 F900 X11.324 Y126.702 E59.34978
G1 X11.254 Y126.772
G0 F3000 X11.492 Y127.1
G1 F900 X14.763 Y123.829 E59.50364
G1 X14.833 Y123.759
G0 F3000 X14.763 Y124.394
G1 F900 X12.058 Y127.1 E59.6309
G1 X11.988 Y127.17
G0 F3000 X12.623 Y127.1
G1 F900 X14.763 Y124.96 E59.73156
G1 X14.833 Y124.89
G0 F3000 X14.763 Y125.526
G1 F900 X13.189 Y127.1 E59.80559
G1 X13.119 Y127.17
G0 F3000 X13.755 Y127.1
G1 F900 X14.763 Y126.091 E59.85303
G1 X14.833 Y126.021
G0 F3000 X14.763 Y126.657
G1 F900 X14.321 Y127.1 E59.87384
G0 F3000 X14.916 Y122.253
G0 X15.361 Y122.1
G1 F900 X23.801 Y113.66 E60.27084
G1 X23.871 Y113.59
G0 F3000 X24.366 Y113.66
G1 F900 X15.926 Y122.1 E60.66783
G1 X15.856 Y122.17
G0 F3000 X16.492 Y122.1
G1 F900 X24.763 Y113.829 E61.05687
G1 X24.833 Y113.759
G0 F3000 X24.763 Y114.395
G1 F900 X17.058 Y122.1 E61.41929
G1 X16.988 Y122.17
G0 F3000 X17.623 Y122.1
G1 F900 X24.763 Y114.96 E61.75513
G1 X24.833 Y114.89
G0 F3000 X24.763 Y115.526
G1 F900 X18.189 Y122.1 E62.06435
G1 X18.119 Y122.17
G0 F3000 X18.755 Y122.1
G1 F900 X24.763 Y116.092 E62.34695
G1 X24.833 Y116.022
G0 F3000 X24.763 Y116.657
G1 F900 X19.32 Y122.1 E62.60297
G1 X19.25 Y122.17
G0 F3000 X19.886 Y122.1
G1 F900 X24.763 Y117.223 E62.83237
G1 X24.833 Y117.153
G0 F3000 X24.763 Y117.789
G1 F900 X20.452 Y122.1 E63.03515
G1 X20.382 Y122.17
G0 F3000 X21.018 Y122.1
G1 F900 X24.763 Y118.354 E63.21133
G1 X24.833 Y118.284
G0 F3000 X25.023 Y118.66
G1 F900 X21.583 Y122.1 E63.37313
G1 X21.513 Y122.17
G0 F3000 X22.149 Y122.1
G1 F900 X25.589 Y118.66 E63.53494
G1 X25.659 Y118.59
G0 F3000 X26.155 Y118.66
G1 F900 X22.715 Y122.1 E63.69675
G1 X22.645 Y122.17
G0 F3000 X23.28 Y122.1
G1 F900 X26.72 Y118.66 E63.85855
G1 X26.79 Y118.59
G0 F3000 X27.286 Y118.66
G1 F900 X23.846 Y122.1 E64.02036
G1 X23.776 Y122.17
G0 F3000 X24.412 Y122.1
G1 F900 X27.852 Y118.66 E64.18217
G1 X27.922 Y118.59
G0 F3000 X28.417 Y118.66
G1 F900 X24.977 Y122.1 E64.34398
G1 X24.907 Y122.17
G0 F3000 X25.543 Y122.1
G1 F900 X28.983 Y118.66 E64.50578
G1 X29.053 Y118.59
G0 F3000 X29.549 Y118.66
G1 F900 X26.109 Y122.1 E64.66759
G1 X26.039 Y122.17
G0 F3000 X26.324 Y122.451
G1 F900 X29.763 Y119.011 E64.82937
G1 X29.833 Y118.941
G0 F3000 X29.763 Y119.577
G1 F900 X26.324 Y123.016 E64.99113
G1 X26.254 Y123.086
G0 F3000 X26.324 Y123.582
G1 F900 X29.763 Y120.143 E65.15289
G1 X29.833 Y120.073
G0 F3000 X29.763 Y120.708
G1 F900 X26.324 Y124.148 E65.31468
G1 X26.254 Y124.218
G0 F3000 X26.324 Y124.713
G1 F900 X29.763 Y121.274 E65.47644
G1 X29.833 Y121.204
G0 F3000 X29.763 Y121.84
G1 F900 X26.324 Y125.279 E65.6382
G1 X26.254 Y125.349
G0 F3000 X26.324 Y125.845
G1 F900 X29.763 Y122.405 E65.79998
G1 X29.833 Y122.335
G0 F3000 X29.763 Y122.971
G1 F900 X26.324 Y126.41 E65.96174
G1 X26.254 Y126.48
G0 F3000 X26.324 Y126.976
G1 F900 X29.763 Y123.537 E66.1235
G1 X29.833 Y123.467
G0 F3000 X30.206 Y123.66
G1 F900 X26.766 Y127.1 E66.28531
G1 X26.696 Y127.17
G0 F3000 X27.331 Y127.1
G1 F900 X30.771 Y123.66 E66.44711
G1 X30.841 Y123.59
G0 F3000 X31.337 Y123.66
G1 F900 X27.897 Y127.1 E66.60892
G1 X27.827 Y127.17
G0 F3000 X28.463 Y127.1
G1 F900 X31.903 Y123.66 E66.77073
G1 X31.973 Y123.59
G0 F3000 X32.468 Y123.66
G1 F900 X29.028 Y127.1 E66.93254
G1 X28.958 Y127.17
G0 F3000 X29.594 Y127.1
G1 F900 X33.034 Y123.66 E67.09434
