;FLAVOR:RepRap
;TIME:5876
;Filament used: 4.3804m
;Layer height: 0.2
;Generated with Cura_SteamEngine 2.6.0
M190 S70
M104 S205
M109 S205
G28 ;Home
G1 Z15.0 F6000 ;Move the platform down 15mm
;Prime the extruder
G92 E0
G1 F200 E3
G92 E0
;LAYER_COUNT:199
;LAYER:0
M107
G0 F600 X29.491 Y159.905 Z0.3
G0 X29.834 Y159.853
;TYPE:SKIRT
G1 F300 X30.996 Y159.735 E0.05827
G1 X31.236 Y159.719 E0.07027
G1 X36.015 Y159.554 E0.30884
G1 X36.245 Y159.554 E0.32031
G1 X41.629 Y159.713 E0.58904
G1 X48.209 Y159.607 E0.91736
G1 X48.399 Y159.609 E0.92684
G1 X51.278 Y159.715 E1.07057
G1 X51.811 Y159.775 E1.09733
G1 X52.314 Y159.908 E1.12329
G1 X52.594 Y160.004 E1.13805
G1 X53.086 Y160.215 E1.16476
G1 X53.436 Y160.423 E1.18507
G1 X62.534 Y166.547 E1.73222
G1 X62.956 Y166.878 E1.75898
G1 X63.323 Y167.269 E1.78574
G1 X63.628 Y167.71 E1.81249
G1 X63.892 Y168.26 E1.84292
G1 X65.524 Y172.578 E2.07322
G1 X65.688 Y173.152 E2.10301
G1 X65.8 Y173.718 E2.13179
G1 X65.864 Y174.251 E2.15857
G1 X65.832 Y174.926 E2.19229
G1 X65.216 Y179.243 E2.40984
G1 X65.101 Y179.766 E2.43656
G1 X64.909 Y180.267 E2.46333
G1 X64.56 Y180.856 E2.49748
G1 X64.066 Y181.533 E2.5393
G1 X63.709 Y181.951 E2.56672
G1 X59.427 Y186.252 E2.86951
G1 X59.072 Y186.565 E2.89312
G1 X58.612 Y186.919 E2.92208
G1 X58.163 Y187.213 E2.94886
G1 X57.733 Y187.417 E2.9726
G1 X50.203 Y190.376 E3.37624
G1 X49.83 Y190.499 E3.39583
G1 X48.825 Y190.772 E3.44779
G1 X48.298 Y190.874 E3.47457
G1 X47.713 Y190.894 E3.50377
G1 X42.257 Y190.639 E3.77627
G1 X35.27 Y190.754 E4.1249
G1 X34.863 Y190.737 E4.14522
G1 X28.876 Y190.156 E4.44532
G1 X28.366 Y190.069 E4.47113
G1 X27.808 Y189.932 E4.4998
G1 X27.108 Y189.682 E4.53688
G1 X21.34 Y186.914 E4.85607
G1 X20.876 Y186.646 E4.8828
G1 X20.456 Y186.313 E4.90954
G1 X20.09 Y185.921 E4.9363
G1 X19.7 Y185.322 E4.97196
G1 X16.937 Y179.979 E5.27205
G1 X16.687 Y179.359 E5.30541
G1 X16.603 Y179.079 E5.31999
G1 X16.487 Y178.556 E5.34672
G1 X16.451 Y178.021 E5.37347
G1 X16.463 Y177.752 E5.3869
G1 X17.107 Y169.855 E5.78219
G1 X17.19 Y169.326 E5.80891
G1 X17.351 Y168.814 E5.83568
G1 X17.65 Y168.228 E5.86851
G1 X18.208 Y167.343 E5.9207
G1 X18.338 Y167.151 E5.93227
G1 X20.886 Y163.634 E6.14894
G1 X21.232 Y163.224 E6.17571
G1 X21.635 Y162.871 E6.20244
G1 X22.086 Y162.581 E6.22919
G1 X22.578 Y162.36 E6.2561
G1 X28.975 Y160.049 E6.59543
G1 X29.491 Y159.905 E6.62216
G1 X29.834 Y159.853 E6.63947
G0 F600 X29.875 Y160.251
G1 F300 X31.037 Y160.133 E6.69774
G1 X31.25 Y160.119 E6.70839
G1 X36.029 Y159.954 E6.94695
G1 X36.233 Y159.953 E6.95713
G1 X41.646 Y160.113 E7.22731
G1 X48.215 Y160.007 E7.55508
G1 X48.385 Y160.009 E7.56356
G1 X51.264 Y160.115 E7.70729
G1 X51.766 Y160.174 E7.73251
G1 X52.184 Y160.286 E7.7541
G1 X52.464 Y160.382 E7.76886
G1 X52.928 Y160.583 E7.79409
G1 X53.213 Y160.754 E7.81067
G1 X62.311 Y166.878 E8.35782
G1 X62.707 Y167.193 E8.38307
G1 X63.048 Y167.566 E8.40828
G1 X63.326 Y167.988 E8.43349
G1 X63.517 Y168.402 E8.45624
G1 X65.149 Y172.72 E8.68654
G1 X65.295 Y173.23 E8.71301
G1 X65.407 Y173.796 E8.74179
G1 X65.466 Y174.298 E8.76701
G1 X65.436 Y174.869 E8.79553
G1 X64.82 Y179.186 E9.01309
G1 X64.709 Y179.679 E9.0383
G1 X64.522 Y180.149 E9.06354
G1 X64.237 Y180.62 E9.09101
G1 X63.743 Y181.297 E9.13282
G1 X63.426 Y181.669 E9.1572
G1 X59.144 Y185.97 E9.45999
G1 X58.828 Y186.248 E9.48099
G1 X58.368 Y186.602 E9.50995
G1 X57.944 Y186.878 E9.53519
G1 X57.586 Y187.044 E9.55487
G1 X50.056 Y190.003 E9.95851
G1 X49.725 Y190.113 E9.97591
G1 X48.72 Y190.386 E10.02787
G1 X48.223 Y190.48 E10.05311
G1 X47.731 Y190.495 E10.07766
G1 X42.253 Y190.239 E10.35126
G1 X35.264 Y190.354 E10.69999
G1 X34.902 Y190.339 E10.71806
G1 X28.915 Y189.758 E11.01816
G1 X28.461 Y189.681 E11.04113
G1 X27.903 Y189.544 E11.0698
G1 X27.282 Y189.321 E11.10272
G1 X21.514 Y186.553 E11.42191
G1 X21.076 Y186.299 E11.44717
G1 X20.685 Y185.979 E11.47237
G1 X20.348 Y185.602 E11.4976
G1 X20.056 Y185.138 E11.52495
G1 X17.293 Y179.795 E11.82505
G1 X17.07 Y179.245 E11.85466
G1 X16.986 Y178.965 E11.86924
G1 X16.879 Y178.47 E11.89451
G1 X16.862 Y177.785 E11.92869
G1 X17.506 Y169.888 E12.32398
G1 X17.586 Y169.389 E12.3492
G1 X17.745 Y168.909 E12.37442
G1 X17.988 Y168.441 E12.40073
G1 X18.546 Y167.556 E12.45293
G1 X18.662 Y167.386 E12.4632
G1 X21.21 Y163.869 E12.67987
G1 X21.538 Y163.484 E12.7051
G1 X21.922 Y163.156 E12.7303
G1 X22.354 Y162.892 E12.75556
G1 X22.714 Y162.736 E12.77513
G1 X29.111 Y160.425 E13.11447
G1 X29.598 Y160.292 E13.13965
G1 X29.875 Y160.251 E13.15362
G1 F1500 E11.40362
G0 F600 X30.394 Y162.706
G0 X30.658 Y163.962
G0 X30.344 Y164.111
G0 X30.317 Y164.015
;TYPE:WALL-INNER
G1 F1500 E13.15362
G1 F300 X30.656 Y163.943 E13.17091
G1 X36.126 Y163.743 E13.44399
G1 X36.59 Y163.752 E13.46715
G1 X41.698 Y166.059 E13.74677
G1 X42.734 Y166.385 E13.80096
G1 X42.966 Y166.458 E13.81309
G1 X42.992 Y166.216 E13.82054
G1 X43.018 Y165.974 E13.83268
G1 X47.498 Y163.782 E14.08151
G1 X51.047 Y163.901 E14.25867
G1 X51.257 Y163.977 E14.26981
G1 X51.863 Y164.399 E14.30665
G1 X60.039 Y169.916 E14.79873
G1 X61.588 Y174.018 E15.01749
G1 X61.67 Y174.43 E15.03845
G1 X61.082 Y178.549 E15.24603
G1 X60.974 Y178.745 E15.25719
G1 X56.448 Y183.305 E15.57773
G1 X56.059 Y183.594 E15.6019
G1 X55.919 Y183.658 E15.60958
G1 X48.104 Y186.685 E16.0277
G1 X48.037 Y186.694 E16.03107
G1 X42.122 Y184.001 E16.35532
G1 X41.658 Y184.159 E16.37977
G1 X37.857 Y186.151 E16.59387
G1 X35.828 Y186.541 E16.69695
G1 X35.225 Y186.563 E16.72705
G1 X29.29 Y185.986 E17.02455
G1 X28.879 Y185.884 E17.04568
G1 X23.562 Y183.379 E17.33891
G1 X23.326 Y183.236 E17.35267
G1 X20.672 Y178.082 E17.6419
G1 X20.648 Y178.019 E17.64526
G1 X21.279 Y170.285 E18.03239
G1 X21.304 Y170.229 E18.03545
G1 X24.118 Y166.249 E18.27863
G1 X30.317 Y164.015 E18.60737
G0 F600 X30.206 Y163.63
;TYPE:WALL-OUTER
G1 F300 X30.61 Y163.544 E18.62798
G1 X36.119 Y163.343 E18.90301
G1 X36.681 Y163.354 E18.93105
G1 X41.841 Y165.685 E19.21353
G1 X42.578 Y165.917 E19.25208
G1 X42.62 Y165.93 E19.25428
G1 X42.643 Y165.712 E19.26099
G1 X47.413 Y163.379 E19.52591
G1 X51.122 Y163.503 E19.71106
G1 X51.443 Y163.619 E19.72808
G1 X52.089 Y164.069 E19.76736
G1 X60.367 Y169.655 E20.26559
G1 X61.974 Y173.908 E20.49241
G1 X62.076 Y174.42 E20.51846
G1 X61.468 Y178.679 E20.73309
G1 X61.297 Y178.988 E20.75071
G1 X56.711 Y183.608 E21.07548
G1 X56.264 Y183.94 E21.10326
G1 X56.078 Y184.025 E21.11346
G1 X48.205 Y187.074 E21.53468
G1 X47.975 Y187.105 E21.54625
G1 X42.101 Y184.431 E21.86825
G1 X41.816 Y184.528 E21.88327
G1 X37.989 Y186.533 E22.09881
G1 X35.873 Y186.94 E22.20631
G1 X35.216 Y186.964 E22.23911
G1 X29.224 Y186.381 E22.53947
G1 X28.743 Y186.262 E22.56419
G1 X23.374 Y183.733 E22.86028
G1 X23.021 Y183.519 E22.88087
G1 X20.31 Y178.252 E23.17641
G1 X20.242 Y178.075 E23.18587
G1 X20.876 Y170.343 E23.57292
G1 X20.883 Y170.193 E23.58041
G1 X20.955 Y170.029 E23.58934
G1 X23.819 Y165.979 E23.83682
G1 X23.908 Y165.9 E23.84275
G1 X30.206 Y163.63 E24.17675
G0 F600 X30.401 Y163.589
G0 X30.631 Y164.132
;TYPE:SKIN
G1 F300 X51.625 Y185.127 E25.65802
G1 X51.695 Y185.197
G0 F600 X52.033 Y184.969
G1 F300 X31.167 Y164.103 E27.13023
G1 X31.097 Y164.033
G0 F600 X31.713 Y164.084
G1 F300 X52.441 Y184.811 E28.59267
G1 X52.511 Y184.881
G0 F600 X52.849 Y184.653
G1 F300 X32.259 Y164.064 E30.04537
G1 X32.189 Y163.994
G0 F600 X32.805 Y164.044
G1 F300 X53.256 Y184.495 E31.4883
G1 X53.326 Y184.565
G0 F600 X53.664 Y184.337
G1 F300 X33.351 Y164.024 E32.92149
G1 X33.281 Y163.954
G0 F600 X33.897 Y164.004
G1 F300 X54.071 Y184.179 E34.34491
G1 X54.141 Y184.249
G0 F600 X54.479 Y184.021
G1 F300 X34.442 Y163.984 E35.75863
G1 X34.372 Y163.914
G0 F600 X34.988 Y163.964
G1 F300 X54.887 Y183.863 E37.16261
G1 X54.957 Y183.933
G0 F600 X55.295 Y183.705
G1 F300 X35.534 Y163.944 E38.55686
G1 X35.464 Y163.874
G0 F600 X36.08 Y163.925
G1 F300 X55.703 Y183.547 E39.94133
G1 X55.773 Y183.617
G0 F600 X56.076 Y183.355
G1 F300 X36.734 Y164.013 E41.30601
G1 X36.664 Y163.943
G0 F600 X37.765 Y164.479
G1 F300 X56.391 Y183.105 E42.62018
G1 X56.461 Y183.175
G0 F600 X56.673 Y182.821
G1 F300 X38.798 Y164.946 E43.88135
G1 X38.728 Y164.876
G0 F600 X39.829 Y165.412
G1 F300 X56.955 Y182.537 E45.08965
G1 X57.025 Y182.607
G0 F600 X57.237 Y182.253
G1 F300 X40.862 Y165.878 E46.245
G1 X40.792 Y165.808
G0 F600 X41.841 Y166.292
G1 F300 X57.518 Y181.969 E47.35109
G1 X57.588 Y182.039
G0 F600 X57.801 Y181.686
G1 F300 X42.667 Y166.552 E48.41888
G1 X42.597 Y166.482
G0 F600 X43.145 Y166.464
G1 F300 X58.082 Y181.401 E49.47276
G1 X58.152 Y181.471
G0 F600 X58.364 Y181.118
G1 F300 X43.287 Y166.041 E50.53653
G1 X43.217 Y165.971
G0 F600 X43.668 Y165.856
G1 F300 X58.646 Y180.834 E51.59331
G1 X58.716 Y180.904
G0 F600 X58.928 Y180.55
G1 F300 X44.047 Y165.67 E52.64321
G1 X43.977 Y165.6
G0 F600 X44.428 Y165.484
G1 F300 X59.209 Y180.266 E53.68612
G1 X59.279 Y180.336
G0 F600 X59.491 Y179.982
G1 F300 X44.807 Y165.298 E54.72216
G1 X44.737 Y165.228
G0 F600 X45.187 Y165.112
G1 F300 X59.773 Y179.698 E55.75128
G1 X59.843 Y179.768
G0 F600 X60.055 Y179.414
G1 F300 X45.567 Y164.926 E56.77348
G1 X45.497 Y164.856
G0 F600 X45.947 Y164.741
G1 F300 X60.336 Y179.13 E57.78871
G1 X60.406 Y179.2
G0 F600 X60.618 Y178.847
G1 F300 X46.327 Y164.555 E58.79705
G1 X46.257 Y164.485
G0 F600 X46.707 Y164.369
G1 F300 X60.879 Y178.541 E59.79696
G1 X60.949 Y178.611
G0 F600 X60.968 Y178.065
G1 F300 X47.086 Y164.183 E60.77641
G1 X47.016 Y164.113
G0 F600 X47.467 Y163.998
G1 F300 X61.038 Y177.57 E61.73395
G1 X61.108 Y177.64
G0 F600 X61.109 Y177.075
G1 F300 X48.013 Y163.979 E62.65795
G1 X47.943 Y163.909
G0 F600 X48.599 Y163.999
G1 F300 X61.18 Y176.58 E63.5456
G1 X61.25 Y176.65
G0 F600 X61.251 Y176.085
G1 F300 X49.184 Y164.018 E64.39699
G1 X49.114 Y163.948
G0 F600 X49.769 Y164.038
G1 F300 X61.322 Y175.59 E65.21209
G1 X61.392 Y175.66
G0 F600 X61.393 Y175.095
G1 F300 X50.354 Y164.057 E65.99091
G1 X50.284 Y163.987
G0 F600 X50.939 Y164.077
G1 F300 X61.463 Y174.6 E66.7334
G1 X61.533 Y174.67
G0 F600 X61.364 Y173.935
G1 F300 X52.422 Y164.993 E67.36431
G1 X52.352 Y164.923
G0 F600 X54.161 Y166.167
G1 F300 X61.021 Y173.026 E67.84828
G1 X61.091 Y173.096
G0 F600 X60.678 Y172.118
G1 F300 X55.9 Y167.34 E68.1854
G1 X55.83 Y167.27
G0 F600 X57.639 Y168.513
G1 F300 X60.335 Y171.209 E68.37561
G1 X60.405 Y171.279
G0 F600 X59.993 Y170.301
G1 F300 X59.378 Y169.687 E68.41897
G1 X59.308 Y169.617
G0 F600 X51.217 Y185.285
G1 F300 X30.185 Y164.253 E69.90289
G1 X30.115 Y164.183
G0 F600 X29.769 Y164.403
G1 F300 X50.81 Y185.443 E71.38741
G1 X50.88 Y185.513
G0 F600 X50.402 Y185.601
G1 F300 X29.354 Y164.552 E72.8725
G1 X29.284 Y164.482
G0 F600 X28.938 Y164.702
G1 F300 X49.994 Y185.759 E74.35815
G1 X50.064 Y185.829
G0 F600 X49.587 Y185.917
G1 F300 X28.522 Y164.852 E75.8444
G1 X28.452 Y164.782
G0 F600 X28.106 Y165.001
G1 F300 X49.179 Y186.075 E77.33125
G1 X49.249 Y186.145
G0 F600 X48.771 Y186.233
G1 F300 X27.69 Y165.151 E78.81866
G1 X27.62 Y165.081
G0 F600 X27.274 Y165.301
G1 F300 X48.363 Y186.391 E80.30664
G1 X48.433 Y186.461
G0 F600 X47.791 Y186.384
G1 F300 X26.858 Y165.451 E81.78357
G1 X26.788 Y165.381
G0 F600 X26.442 Y165.601
G1 F300 X46.753 Y185.911 E83.21659
G1 X46.823 Y185.981
G0 F600 X45.713 Y185.438
G1 F300 X26.027 Y165.751 E84.60558
G1 X25.957 Y165.681
G0 F600 X25.611 Y165.901
G1 F300 X44.674 Y184.964 E85.95058
G1 X44.744 Y185.034
G0 F600 X43.635 Y184.491
G1 F300 X25.194 Y166.05 E87.25169
G1 X25.124 Y165.98
G0 F600 X24.779 Y166.2
G1 F300 X42.596 Y184.017 E88.50877
G1 X42.666 Y184.087
G0 F600 X41.898 Y183.885
G1 F300 X24.363 Y166.35 E89.74596
G1 X24.293 Y166.28
G0 F600 X24.07 Y166.623
G1 F300 X41.49 Y184.042 E90.975
G1 X41.56 Y184.112
G0 F600 X41.118 Y184.237
G1 F300 X23.836 Y166.954 E92.19438
G1 X23.766 Y166.884
G0 F600 X23.602 Y167.286
G1 F300 X40.747 Y184.431 E93.40405
G1 X40.817 Y184.501
G0 F600 X40.376 Y184.626
G1 F300 X23.367 Y167.617 E94.60413
G1 X23.297 Y167.547
G0 F600 X23.133 Y167.949
G1 F300 X40.005 Y184.82 E95.7945
G1 X40.075 Y184.89
G0 F600 X39.634 Y185.015
G1 F300 X22.899 Y168.28 E96.97525
G1 X22.829 Y168.21
G0 F600 X22.664 Y168.611
G1 F300 X39.262 Y185.209 E98.14632
G1 X39.332 Y185.279
G0 F600 X38.891 Y185.404
G1 F300 X22.43 Y168.943 E99.30774
G1 X22.36 Y168.873
G0 F600 X22.196 Y169.274
G1 F300 X38.52 Y185.598 E100.45948
G1 X38.59 Y185.668
G0 F600 X38.149 Y185.793
G1 F300 X21.962 Y169.605 E101.6016
G1 X21.892 Y169.535
G0 F600 X21.727 Y169.937
G1 F300 X37.773 Y185.983 E102.73373
G1 X37.843 Y186.053
G0 F600 X37.298 Y186.073
G1 F300 X21.493 Y170.268 E103.84886
G1 X21.423 Y170.198
G0 F600 X21.419 Y170.76
G1 F300 X36.823 Y186.164 E104.93569
G1 X36.893 Y186.234
G0 F600 X36.349 Y186.256
G1 F300 X21.377 Y171.283 E105.99209
G1 X21.307 Y171.213
G0 F600 X21.334 Y171.807
G1 F300 X35.875 Y186.347 E107.018
G1 X35.945 Y186.417
G0 F600 X35.339 Y186.377
G1 F300 X21.291 Y172.329 E108.00916
G1 X21.221 Y172.259
G0 F600 X21.249 Y172.852
G1 F300 X34.729 Y186.333 E108.96028
G1 X34.799 Y186.403
G0 F600 X34.103 Y186.272
G1 F300 X21.206 Y173.376 E109.8702
G1 X21.136 Y173.306
G0 F600 X21.164 Y173.899
G1 F300 X33.476 Y186.211 E110.73888
G1 X33.546 Y186.281
G0 F600 X32.85 Y186.15
G1 F300 X21.121 Y174.422 E111.56639
G1 X21.051 Y174.352
G0 F600 X21.078 Y174.945
G1 F300 X32.223 Y186.089 E112.35269
G1 X32.293 Y186.159
G0 F600 X31.596 Y186.028
G1 F300 X21.036 Y175.468 E113.09775
G1 X20.966 Y175.398
G0 F600 X20.994 Y175.991
G1 F300 X30.969 Y185.967 E113.80158
G1 X31.039 Y186.037
G0 F600 X30.343 Y185.906
G1 F300 X20.951 Y176.515 E114.4642
G1 X20.881 Y176.445
G0 F600 X20.908 Y177.037
G1 F300 X29.716 Y185.846 E115.08569
G1 X29.786 Y185.916
G0 F600 X29.043 Y185.738
G1 F300 X20.866 Y177.56 E115.66266
G1 X20.796 Y177.49
G0 F600 X20.932 Y178.193
G1 F300 X28.017 Y185.278 E116.16254
G1 X28.087 Y185.348
G0 F600 X26.948 Y184.774
G1 F300 X21.532 Y179.359 E116.54463
G1 X21.462 Y179.289
G0 F600 X22.133 Y180.525
G1 F300 X25.878 Y184.27 E116.80886
G1 X25.948 Y184.34
G0 F600 X24.809 Y183.767
G1 F300 X22.732 Y181.69 E116.95541
G1 X22.662 Y181.62
G0 F600 X23.333 Y182.856
G1 F300 X23.739 Y183.262 E116.98405
G0 F600 X23.832 Y183.065
G0 X30.647 Y164.047
G0 X30.613 Y163.883
;TIME_ELAPSED:497.186990
;LAYER:1
M140 S70
M106 S255
G0 F2700 X30.613 Y163.883 Z0.5
;TYPE:WALL-INNER
G1 F1350 X35.867 Y163.69 E117.15892
G1 X36.631 Y163.704 E117.18433
G1 X41.543 Y165.923 E117.3636
G1 X42.828 Y166.327 E117.40841
G1 X43.062 Y166.4 E117.41656
G1 X43.084 Y166.156 E117.42153
G1 X43.085 Y166.155 E117.42157
G1 X43.113 Y165.874 E117.43097
G1 X47.437 Y163.758 E117.59108
G1 X50.866 Y163.873 E117.70519
G1 X51.283 Y164.024 E117.71994
G1 X52.253 Y164.7 E117.75927
G1 X60.036 Y169.951 E118.07154
G1 X61.507 Y173.849 E118.21011
G1 X61.644 Y174.535 E118.23338
G1 X61.085 Y178.449 E118.36488
G1 X60.874 Y178.831 E118.37939
G1 X56.59 Y183.147 E118.58165
G1 X55.954 Y183.621 E118.60804
G1 X55.693 Y183.74 E118.61758
G1 X48.112 Y186.674 E118.88795
G1 X47.906 Y186.702 E118.89486
G1 X42.144 Y184.079 E119.10543
G1 X41.528 Y184.289 E119.12707
G1 X37.862 Y186.21 E119.26473
G1 X35.91 Y186.586 E119.33085
G1 X35.05 Y186.616 E119.35947
G1 X29.341 Y186.061 E119.55025
G1 X28.653 Y185.89 E119.57383
G1 X23.573 Y183.497 E119.7606
G1 X23.179 Y183.257 E119.77594
G1 X20.573 Y178.193 E119.96536
G1 X20.506 Y178.021 E119.9715
G1 X21.114 Y170.64 E120.21783
G1 X21.131 Y170.297 E120.22925
G1 X21.197 Y170.148 E120.23467
G1 X23.966 Y166.232 E120.39419
G1 X24.022 Y166.183 E120.39666
G1 X30.101 Y163.991 E120.6116
G1 X30.613 Y163.883 E120.629
G0 F2700 X30.567 Y163.484
;TYPE:WALL-OUTER
G1 F750 X35.859 Y163.29 E120.80513
G1 X36.722 Y163.306 E120.83384
G1 X41.686 Y165.549 E121.01501
G1 X42.66 Y165.855 E121.04897
G1 X42.711 Y165.871 E121.05075
G1 X42.736 Y165.613 E121.05624
G1 X47.352 Y163.355 E121.22715
G1 X50.943 Y163.475 E121.34666
G1 X51.468 Y163.666 E121.36524
G1 X52.479 Y164.37 E121.40621
G1 X60.364 Y169.69 E121.72258
G1 X61.893 Y173.738 E121.8665
G1 X62.05 Y174.525 E121.89319
G1 X61.471 Y178.579 E122.0294
G1 X61.197 Y179.074 E122.04822
G1 X56.853 Y183.45 E122.2533
G1 X56.159 Y183.967 E122.28208
G1 X55.852 Y184.107 E122.2933
G1 X48.213 Y187.064 E122.56575
G1 X47.845 Y187.114 E122.5781
G1 X42.123 Y184.509 E122.78721
G1 X41.686 Y184.658 E122.80257
