;FLAVOR:RepRap
;TIME:1386
;Filament used: 1.13049m
;Layer height: 0.2
;Generated with Cura_SteamEngine 2.6.0
M190 S60
M104 S205
M109 S205
G28 ;Home
G1 Z15.0 F6000 ;Move the platform down 15mm
;Prime the extruder
G92 E0
G1 F200 E3
G92 E0
;LAYER_COUNT:100
;LAYER:0
M107
G0 F2400 X9.554 Y10.748 Z0.3
;TYPE:SKIRT
G1 F1200 X10.004 Y10.406 E0.0282
G1 X10.497 Y10.13 E0.05639
G1 X11.025 Y9.926 E0.08463
G1 X11.575 Y9.799 E0.11279
G1 X12.198 Y9.75 E0.14397
G1 X32.18 Y9.751 E1.14087
G1 X32.744 Y9.791 E1.16908
G1 X33.297 Y9.91 E1.1973
G1 X33.827 Y10.106 E1.22549
G1 X34.325 Y10.374 E1.25371
G1 X34.779 Y10.711 E1.28192
G1 X35.182 Y11.107 E1.3101
G1 X35.525 Y11.557 E1.33833
G1 X35.8 Y12.05 E1.3665
G1 X36.004 Y12.578 E1.39474
G1 X36.131 Y13.129 E1.42295
G1 X36.18 Y13.751 E1.45407
G1 X36.18 Y33.732 E2.45093
G1 X36.14 Y34.296 E2.47914
G1 X36.021 Y34.849 E2.50736
G1 X35.825 Y35.379 E2.53555
G1 X35.557 Y35.876 E2.56372
G1 X35.221 Y36.331 E2.59194
G1 X34.824 Y36.734 E2.62016
G1 X34.374 Y37.076 E2.64836
G1 X33.881 Y37.352 E2.67655
G1 X33.353 Y37.556 E2.70479
G1 X32.803 Y37.683 E2.73295
G1 X32.18 Y37.732 E2.76413
G1 X12.198 Y37.732 E3.76104
G1 X11.634 Y37.692 E3.78924
G1 X11.081 Y37.573 E3.81747
G1 X10.551 Y37.377 E3.84566
G1 X10.054 Y37.109 E3.87383
G1 X9.599 Y36.773 E3.90205
G1 X9.196 Y36.376 E3.93027
G1 X8.854 Y35.926 E3.95847
G1 X8.578 Y35.433 E3.98666
G1 X8.374 Y34.905 E4.0149
G1 X8.247 Y34.355 E4.04306
G1 X8.198 Y33.732 E4.07424
G1 X8.198 Y13.75 E5.07114
G1 X8.238 Y13.186 E5.09935
G1 X8.357 Y12.633 E5.12757
G1 X8.553 Y12.103 E5.15576
G1 X8.821 Y11.606 E5.18393
G1 X9.157 Y11.151 E5.21215
G1 X9.554 Y10.748 E5.24037
G0 F2400 X9.945 Y10.942
G1 F1200 X10.387 Y10.639 E5.26711
G1 X10.87 Y10.404 E5.29391
G1 X11.381 Y10.244 E5.32062
G1 X11.911 Y10.161 E5.34739
G1 X12.198 Y10.15 E5.36172
G1 X32.18 Y10.151 E6.35862
G1 X32.715 Y10.191 E6.38539
G1 X33.238 Y10.31 E6.41215
G1 X33.737 Y10.505 E6.43888
G1 X34.202 Y10.773 E6.46565
G1 X34.622 Y11.106 E6.49239
G1 X34.988 Y11.498 E6.51915
G1 X35.292 Y11.94 E6.54591
G1 X35.526 Y12.423 E6.57269
G1 X35.686 Y12.935 E6.59945
G1 X35.769 Y13.464 E6.62617
G1 X35.78 Y13.751 E6.64049
G1 X35.78 Y33.732 E7.63735
G1 X35.74 Y34.267 E7.66412
G1 X35.621 Y34.79 E7.69088
G1 X35.426 Y35.289 E7.7176
G1 X35.158 Y35.754 E7.74438
G1 X34.825 Y36.174 E7.77112
G1 X34.433 Y36.54 E7.79788
G1 X33.991 Y36.843 E7.82461
G1 X33.508 Y37.078 E7.85141
G1 X32.997 Y37.238 E7.87812
G1 X32.467 Y37.321 E7.90489
G1 X32.18 Y37.332 E7.91922
G1 X12.198 Y37.332 E8.91612
G1 X11.663 Y37.292 E8.94289
G1 X11.14 Y37.173 E8.96965
G1 X10.641 Y36.978 E8.99638
G1 X10.176 Y36.71 E9.02315
G1 X9.756 Y36.377 E9.04989
G1 X9.39 Y35.985 E9.07665
G1 X9.087 Y35.543 E9.10339
G1 X8.852 Y35.06 E9.13018
G1 X8.692 Y34.549 E9.1569
G1 X8.609 Y34.019 E9.18366
G1 X8.598 Y33.732 E9.19799
G1 X8.598 Y13.75 E10.1949
G1 X8.638 Y13.215 E10.22166
G1 X8.757 Y12.692 E10.24842
G1 X8.952 Y12.193 E10.27515
G1 X9.22 Y11.728 E10.30193
G1 X9.553 Y11.308 E10.32867
G1 X9.945 Y10.942 E10.35542
G0 F2400 X10.334 Y11.149
G1 F1200 X10.767 Y10.888 E10.38065
G1 X11.235 Y10.698 E10.40585
G1 X11.728 Y10.585 E10.43108
G1 X12.198 Y10.55 E10.45459
G1 X32.18 Y10.551 E11.4515
G1 X32.684 Y10.591 E11.47672
G1 X33.176 Y10.71 E11.50198
G1 X33.642 Y10.905 E11.52718
G1 X34.072 Y11.17 E11.55238
G1 X34.455 Y11.501 E11.57763
G1 X34.781 Y11.887 E11.60284
G1 X35.042 Y12.32 E11.62806
G1 X35.232 Y12.789 E11.65331
G1 X35.345 Y13.281 E11.6785
G1 X35.38 Y13.751 E11.70201
G1 X35.38 Y33.732 E12.69887
G1 X35.34 Y34.236 E12.72409
G1 X35.221 Y34.727 E12.74929
G1 X35.027 Y35.194 E12.77452
G1 X34.761 Y35.624 E12.79975
G1 X34.431 Y36.007 E12.82497
G1 X34.044 Y36.333 E12.85022
G1 X33.611 Y36.594 E12.87544
G1 X33.143 Y36.784 E12.90064
G1 X32.65 Y36.897 E12.92587
G1 X32.18 Y36.932 E12.94939
G1 X12.198 Y36.932 E13.94629
G1 X11.694 Y36.892 E13.97152
G1 X11.203 Y36.773 E13.99672
G1 X10.736 Y36.579 E14.02195
G1 X10.306 Y36.313 E14.04718
G1 X9.923 Y35.983 E14.0724
G1 X9.597 Y35.596 E14.09764
G1 X9.336 Y35.163 E14.12287
G1 X9.146 Y34.695 E14.14807
G1 X9.033 Y34.202 E14.1733
G1 X8.998 Y33.732 E14.19681
G1 X8.998 Y13.75 E15.19372
G1 X9.038 Y13.246 E15.21894
G1 X9.157 Y12.755 E15.24415
G1 X9.351 Y12.288 E15.26938
G1 X9.617 Y11.858 E15.2946
G1 X9.947 Y11.475 E15.31983
G1 X10.334 Y11.149 E15.34507
G1 F1500 E13.59507
G0 F2400 X12.803 Y13.076
G0 X12.803 Y14.355
G0 X12.859 Y14.411
G0 X12.789 Y14.341
;TYPE:WALL-INNER
G1 F1500 E15.34507
G1 F1200 X31.589 Y14.341 E16.28301
G1 X31.589 Y33.141 E17.22094
G1 X12.789 Y33.141 E18.15888
G1 X12.789 Y14.341 E19.09681
G0 F2400 X12.389 Y13.941
;TYPE:WALL-OUTER
G1 F1200 X31.989 Y13.941 E20.07466
G1 X31.989 Y33.541 E21.05251
G1 X12.389 Y33.541 E22.03036
G1 X12.389 Y13.941 E23.00821
G0 F2400 X12.589 Y13.941
G0 X12.859 Y14.411
G0 X12.969 Y14.666
;TYPE:SKIN
G1 F1200 X31.263 Y32.96 E24.29895
G1 X31.333 Y33.03
G0 F2400 X31.408 Y32.54
G1 F1200 X13.389 Y14.521 E25.57028
G1 X13.319 Y14.451
G0 F2400 X13.955 Y14.521
G1 F1200 X31.408 Y31.974 E26.80169
G1 X31.478 Y32.044
G0 F2400 X31.408 Y31.408
G1 F1200 X14.521 Y14.521 E27.99316
G1 X14.451 Y14.451
G0 F2400 X15.086 Y14.521
G1 F1200 X31.408 Y30.843 E29.14476
G1 X31.478 Y30.913
G0 F2400 X31.408 Y30.277
G1 F1200 X15.652 Y14.521 E30.25643
G1 X15.582 Y14.451
G0 F2400 X16.218 Y14.521
G1 F1200 X31.408 Y29.711 E31.32817
G1 X31.478 Y29.781
G0 F2400 X31.408 Y29.146
G1 F1200 X16.783 Y14.521 E32.36004
G1 X16.713 Y14.451
G0 F2400 X17.349 Y14.521
G1 F1200 X31.408 Y28.58 E33.35198
G1 X31.478 Y28.65
G0 F2400 X31.408 Y28.014
G1 F1200 X17.915 Y14.521 E34.30398
G1 X17.845 Y14.451
G0 F2400 X18.48 Y14.521
G1 F1200 X31.408 Y27.449 E35.21612
G1 X31.478 Y27.519
G0 F2400 X31.408 Y26.883
G1 F1200 X19.046 Y14.521 E36.08833
G1 X18.976 Y14.451
G0 F2400 X19.612 Y14.521
G1 F1200 X31.408 Y26.317 E36.9206
G1 X31.478 Y26.387
G0 F2400 X31.408 Y25.752
G1 F1200 X20.177 Y14.521 E37.71301
G1 X20.107 Y14.451
G0 F2400 X20.743 Y14.521
G1 F1200 X31.408 Y25.186 E38.46548
G1 X31.478 Y25.256
G0 F2400 X31.408 Y24.62
G1 F1200 X21.309 Y14.521 E39.17802
G1 X21.239 Y14.451
G0 F2400 X21.875 Y14.521
G1 F1200 X31.408 Y24.055 E39.85066
G1 X31.478 Y24.125
G0 F2400 X31.408 Y23.489
G1 F1200 X22.44 Y14.521 E40.4834
G1 X22.37 Y14.451
G0 F2400 X23.006 Y14.521
G1 F1200 X31.408 Y22.923 E41.07621
G1 X31.478 Y22.993
G0 F2400 X31.408 Y22.358
G1 F1200 X23.572 Y14.521 E41.62912
G1 X23.502 Y14.451
G0 F2400 X24.137 Y14.521
G1 F1200 X31.408 Y21.792 E42.14212
G1 X31.478 Y21.862
G0 F2400 X31.408 Y21.226
G1 F1200 X24.703 Y14.521 E42.6152
G1 X24.633 Y14.451
G0 F2400 X25.269 Y14.521
G1 F1200 X31.408 Y20.66 E43.04834
G1 X31.478 Y20.73
G0 F2400 X31.408 Y20.095
G1 F1200 X25.834 Y14.521 E43.44161
G1 X25.764 Y14.451
G0 F2400 X26.4 Y14.521
G1 F1200 X31.408 Y19.529 E43.79496
G1 X31.478 Y19.599
G0 F2400 X31.408 Y18.963
G1 F1200 X26.966 Y14.521 E44.10836
G1 X26.896 Y14.451
G0 F2400 X27.531 Y14.521
G1 F1200 X31.408 Y18.398 E44.38191
G1 X31.478 Y18.468
G0 F2400 X31.408 Y17.832
G1 F1200 X28.097 Y14.521 E44.61551
G1 X28.027 Y14.451
G0 F2400 X28.663 Y14.521
G1 F1200 X31.408 Y17.266 E44.80919
G1 X31.478 Y17.336
G0 F2400 X31.408 Y16.701
G1 F1200 X29.228 Y14.521 E44.963
G1 X29.158 Y14.451
G0 F2400 X29.794 Y14.521
G1 F1200 X31.408 Y16.135 E45.07688
G1 X31.478 Y16.205
G0 F2400 X31.408 Y15.569
G1 F1200 X30.36 Y14.521 E45.15082
G1 X30.29 Y14.451
G0 F2400 X30.926 Y14.521
G1 F1200 X31.408 Y15.004 E45.18486
G0 F2400 X30.697 Y32.96
G1 F1200 X12.969 Y15.231 E46.4357
G1 X12.899 Y15.161
G0 F2400 X12.969 Y15.797
G1 F1200 X30.131 Y32.96 E47.64661
G1 X30.201 Y33.03
G0 F2400 X29.566 Y32.96
G1 F1200 X12.969 Y16.363 E48.81762
G1 X12.899 Y16.293
G0 F2400 X12.969 Y16.928
G1 F1200 X29 Y32.96 E49.94873
G1 X29.07 Y33.03
G0 F2400 X28.434 Y32.96
G1 F1200 X12.969 Y17.494 E51.0399
G1 X12.899 Y17.424
G0 F2400 X12.969 Y18.06
G1 F1200 X27.869 Y32.96 E52.09118
G1 X27.939 Y33.03
G0 F2400 X27.303 Y32.96
G1 F1200 X12.969 Y18.625 E53.10255
G1 X12.899 Y18.555
G0 F2400 X12.969 Y19.191
G1 F1200 X26.737 Y32.96 E54.074
G1 X26.807 Y33.03
G0 F2400 X26.172 Y32.96
G1 F1200 X12.969 Y19.757 E55.00554
G1 X12.899 Y19.687
G0 F2400 X12.969 Y20.322
G1 F1200 X25.606 Y32.96 E55.89718
G1 X25.676 Y33.03
G0 F2400 X25.04 Y32.96
G1 F1200 X12.969 Y20.888 E56.74889
G1 X12.899 Y20.818
G0 F2400 X12.969 Y21.454
G1 F1200 X24.475 Y32.96 E57.5607
G1 X24.545 Y33.03
G0 F2400 X23.909 Y32.96
G1 F1200 X12.969 Y22.02 E58.33258
G1 X12.899 Y21.95
G0 F2400 X12.969 Y22.585
G1 F1200 X23.343 Y32.96 E59.06456
G1 X23.413 Y33.03
G0 F2400 X22.778 Y32.96
G1 F1200 X12.969 Y23.151 E59.75663
G1 X12.899 Y23.081
G0 F2400 X12.969 Y23.717
G1 F1200 X22.212 Y32.96 E60.40878
G1 X22.282 Y33.03
G0 F2400 X21.646 Y32.96
G1 F1200 X12.969 Y24.282 E61.02102
G1 X12.899 Y24.212
G0 F2400 X12.969 Y24.848
G1 F1200 X21.08 Y32.96 E61.59333
G1 X21.15 Y33.03
G0 F2400 X20.515 Y32.96
G1 F1200 X12.969 Y25.414 E62.12574
G1 X12.899 Y25.344
G0 F2400 X12.969 Y25.979
G1 F1200 X19.949 Y32.96 E62.61825
G1 X20.019 Y33.03
G0 F2400 X19.383 Y32.96
G1 F1200 X12.969 Y26.545 E63.07083
G1 X12.899 Y26.475
G0 F2400 X12.969 Y27.111
G1 F1200 X18.818 Y32.96 E63.48351
G1 X18.888 Y33.03
G0 F2400 X18.252 Y32.96
G1 F1200 X12.969 Y27.676 E63.85629
G1 X12.899 Y27.606
G0 F2400 X12.969 Y28.242
G1 F1200 X17.686 Y32.96 E64.18914
G1 X17.756 Y33.03
G0 F2400 X17.121 Y32.96
G1 F1200 X12.969 Y28.808 E64.48208
G1 X12.899 Y28.738
G0 F2400 X12.969 Y29.373
G1 F1200 X16.555 Y32.96 E64.73513
G1 X16.625 Y33.03
G0 F2400 X15.989 Y32.96
G1 F1200 X12.969 Y29.939 E64.94824
G1 X12.899 Y29.869
G0 F2400 X12.969 Y30.505
G1 F1200 X15.424 Y32.96 E65.12145
G1 X15.494 Y33.03
G0 F2400 X14.858 Y32.96
G1 F1200 X12.969 Y31.07 E65.25477
G1 X12.899 Y31
G0 F2400 X12.969 Y31.636
G1 F1200 X14.292 Y32.96 E65.34815
G1 X14.362 Y33.03
G0 F2400 X13.727 Y32.96
G1 F1200 X12.969 Y32.202 E65.40163
G1 X12.899 Y32.132
G0 F2400 X12.969 Y32.768
G1 F1200 X13.161 Y32.96 E65.41518
G0 F2400 X13.189 Y32.741
G0 X12.859 Y14.411
G0 X12.789 Y14.341
;TIME_ELAPSED:68.787429
;LAYER:1
M140 S60
M106 S255
G0 F3600 X12.789 Y14.341 Z0.5
;TYPE:WALL-INNER
G1 F1800 X31.589 Y14.341 E66.04047
G1 X31.589 Y33.141 E66.66576
G1 X12.789 Y33.141 E67.29105
G1 X12.789 Y14.341 E67.91634
G0 F3600 X12.389 Y13.941
;TYPE:WALL-OUTER
G1 F1200 X31.989 Y13.941 E68.56824
G1 X31.989 Y33.541 E69.22014
G1 X12.389 Y33.541 E69.87203
G1 X12.389 Y13.941 E70.52393
G0 F3600 X12.589 Y13.941
G0 X12.859 Y14.411
G0 X13.198 Y14.52
;TYPE:SKIN
G1 F1200 X12.969 Y14.749 E70.5347
G0 F3600 X12.969 Y15.315
G1 F1200 X13.763 Y14.52 E70.57208
G1 X13.833 Y14.45
G0 F3600 X14.329 Y14.52
G1 F1200 X12.969 Y15.88 E70.63605
G1 X12.899 Y15.95
G0 F3600 X12.969 Y16.446
G1 F1200 X14.895 Y14.52 E70.72664
G1 X14.965 Y14.45
G0 F3600 X15.46 Y14.52
G1 F1200 X12.969 Y17.012 E70.84383
G1 X12.899 Y17.082
G0 F3600 X12.969 Y17.577
G1 F1200 X16.026 Y14.52 E70.98762
G1 X16.096 Y14.45
G0 F3600 X16.592 Y14.52
G1 F1200 X12.969 Y18.143 E71.15804
G1 X12.899 Y18.213
G0 F3600 X12.969 Y18.709
G1 F1200 X17.157 Y14.52 E71.35505
G1 X17.227 Y14.45
G0 F3600 X17.723 Y14.52
G1 F1200 X12.969 Y19.275 E71.57869
G1 X12.899 Y19.345
G0 F3600 X12.969 Y19.84
G1 F1200 X18.289 Y14.52 E71.82893
G1 X18.359 Y14.45
G0 F3600 X18.855 Y14.52
G1 F1200 X12.969 Y20.406 E72.10579
G1 X12.899 Y20.476
G0 F3600 X12.969 Y20.972
G1 F1200 X19.42 Y14.52 E72.40924
G1 X19.49 Y14.45
G0 F3600 X19.986 Y14.52
G1 F1200 X12.969 Y21.537 E72.7393
G1 X12.899 Y21.607
G0 F3600 X12.969 Y22.103
G1 F1200 X20.552 Y14.52 E73.09598
G1 X20.622 Y14.45
G0 F3600 X21.117 Y14.52
G1 F1200 X12.969 Y22.669 E73.47926
G1 X12.899 Y22.739
G0 F3600 X12.969 Y23.234
G1 F1200 X21.683 Y14.52 E73.88914
G1 X21.753 Y14.45
G0 F3600 X22.249 Y14.52
G1 F1200 X12.969 Y23.8 E74.32565
G1 X12.899 Y23.87
G0 F3600 X12.969 Y24.366
G1 F1200 X22.814 Y14.52 E74.78875
G1 X22.884 Y14.45
G0 F3600 X23.38 Y14.52
G1 F1200 X12.969 Y24.931 E75.27845
G1 X12.899 Y25.001
G0 F3600 X12.969 Y25.497
G1 F1200 X23.946 Y14.52 E75.79477
G1 X24.016 Y14.45
G0 F3600 X24.511 Y14.52
G1 F1200 X12.969 Y26.063 E76.3377
G1 X12.899 Y26.133
G0 F3600 X12.969 Y26.628
G1 F1200 X25.077 Y14.52 E76.90722
G1 X25.147 Y14.45
G0 F3600 X25.643 Y14.52
G1 F1200 X12.969 Y27.194 E77.50337
G1 X12.899 Y27.264
G0 F3600 X12.969 Y27.76
G1 F1200 X26.208 Y14.52 E78.12611
G1 X26.278 Y14.45
G0 F3600 X26.774 Y14.52
G1 F1200 X12.969 Y28.325 E78.77546
G1 X12.899 Y28.395
G0 F3600 X12.969 Y28.891
G1 F1200 X27.34 Y14.52 E79.45143
G1 X27.41 Y14.45
G0 F3600 X27.905 Y14.52
G1 F1200 X12.969 Y29.457 E80.15399
G1 X12.899 Y29.527
G0 F3600 X12.969 Y30.023
G1 F1200 X28.471 Y14.52 E80.88318
G1 X28.541 Y14.45
G0 F3600 X29.037 Y14.52
G1 F1200 X12.969 Y30.588 E81.63897
G1 X12.899 Y30.658
G0 F3600 X12.969 Y31.154
G1 F1200 X29.603 Y14.52 E82.42138
G1 X29.673 Y14.45
G0 F3600 X30.168 Y14.52
G1 F1200 X12.969 Y31.72 E83.2304
G1 X12.899 Y31.79
G0 F3600 X12.969 Y32.285
G1 F1200 X30.734 Y14.52 E84.06601
G1 X30.804 Y14.45
G0 F3600 X31.3 Y14.52
G1 F1200 X12.969 Y32.851 E84.92824
G1 X12.899 Y32.921
G0 F3600 X13.425 Y32.96
G1 F1200 X31.408 Y14.977 E85.77411
G1 X31.478 Y14.907
G0 F3600 X31.408 Y15.543
G1 F1200 X13.991 Y32.96 E86.59335
G1 X13.921 Y33.03
G0 F3600 X14.557 Y32.96
G1 F1200 X31.408 Y16.109 E87.38597
G1 X31.478 Y16.039
G0 F3600 X31.408 Y16.674
G1 F1200 X15.122 Y32.96 E88.15201
G1 X15.052 Y33.03
G0 F3600 X15.688 Y32.96
G1 F1200 X31.408 Y17.24 E88.89143
G1 X31.478 Y17.17
G0 F3600 X31.408 Y17.806
G1 F1200 X16.254 Y32.96 E89.60423
G1 X16.184 Y33.03
G0 F3600 X16.819 Y32.96
G1 F1200 X31.408 Y18.372 E90.29043
G1 X31.478 Y18.302
G0 F3600 X31.408 Y18.937
G1 F1200 X17.385 Y32.96 E90.95003
G1 X17.315 Y33.03
G0 F3600 X17.951 Y32.96
G1 F1200 X31.408 Y19.503 E91.583
G1 X31.478 Y19.433
G0 F3600 X31.408 Y20.069
G1 F1200 X18.517 Y32.96 E92.18936
G1 X18.447 Y33.03
G0 F3600 X19.082 Y32.96
G1 F1200 X31.408 Y20.634 E92.76913
G1 X31.478 Y20.564
G0 F3600 X31.408 Y21.2
G1 F1200 X19.648 Y32.96 E93.32229
G1 X19.578 Y33.03
G0 F3600 X20.214 Y32.96
G1 F1200 X31.408 Y21.766 E93.84882
G1 X31.478 Y21.696
G0 F3600 X31.408 Y22.331
G1 F1200 X20.779 Y32.96 E94.34878
G1 X20.709 Y33.03
G0 F3600 X21.345 Y32.96
G1 F1200 X31.408 Y22.897 E94.82211
G1 X31.478 Y22.827
G0 F3600 X31.408 Y23.463
G1 F1200 X21.911 Y32.96 E95.26882
G1 X21.841 Y33.03
G0 F3600 X22.476 Y32.96
G1 F1200 X31.408 Y24.028 E95.68895
G1 X31.478 Y23.958
G0 F3600 X31.408 Y24.594
G1 F1200 X23.042 Y32.96 E96.08246
G1 X22.972 Y33.03
G0 F3600 X23.608 Y32.96
G1 F1200 X31.408 Y25.16 E96.44935
G1 X31.478 Y25.09
G0 F3600 X31.408 Y25.725
G1 F1200 X24.173 Y32.96 E96.78966
G1 X24.103 Y33.03
G0 F3600 X24.739 Y32.96
G1 F1200 X31.408 Y26.291 E97.10335
G1 X31.478 Y26.221
G0 F3600 X31.408 Y26.857
G1 F1200 X25.305 Y32.96 E97.39042
G1 X25.235 Y33.03
G0 F3600 X25.87 Y32.96
G1 F1200 X31.408 Y27.423 E97.65089
G1 X31.478 Y27.353
G0 F3600 X31.408 Y27.988
G1 F1200 X26.436 Y32.96 E97.88475
G1 X26.366 Y33.03
G0 F3600 X27.002 Y32.96
G1 F1200 X31.408 Y28.554 E98.092
G1 X31.478 Y28.484
G0 F3600 X31.408 Y29.12
G1 F1200 X27.567 Y32.96 E98.27264
G1 X27.497 Y33.03
G0 F3600 X28.133 Y32.96
G1 F1200 X31.408 Y29.685 E98.42669
G1 X31.478 Y29.615
G0 F3600 X31.408 Y30.251
G1 F1200 X28.699 Y32.96 E98.55411
G1 X28.629 Y33.03
G0 F3600 X29.265 Y32.96
G1 F1200 X31.408 Y30.817 E98.65491
G1 X31.478 Y30.747
G0 F3600 X31.408 Y31.382
G1 F1200 X29.83 Y32.96 E98.72914
G1 X29.76 Y33.03
G0 F3600 X30.396 Y32.96
G1 F1200 X31.408 Y31.948 E98.77674
G1 X31.478 Y31.878
G0 F3600 X31.408 Y32.514
G1 F1200 X30.962 Y32.96 E98.79772
G0 F3600 X30.962 Y32.741
G0 X12.859 Y14.411
G0 X12.789 Y14.341
;TIME_ELAPSED:119.874985
;LAYER:2
G0 F4800 X12.789 Y14.341 Z0.7
;TYPE:WALL-INNER
G1 F2400 X31.589 Y14.341 E99.42301
G1 X31.589 Y33.141 E100.0483
G1 X12.789 Y33.141 E100.67359
G1 X12.789 Y14.341 E101.29888
G0 F4800 X12.389 Y13.941
;TYPE:WALL-OUTER
G1 F1200 X31.989 Y13.941 E101.95078
G1 X31.989 Y33.541 E102.60268
G1 X12.389 Y33.541 E103.25457
G1 X12.389 Y13.941 E103.90647
G0 F4800 X12.589 Y13.941
G0 X12.859 Y14.411
G0 X12.969 Y14.666
;TYPE:SKIN
G1 F1200 X31.263 Y32.96 E104.76697
G1 X31.333 Y33.03
G0 F4800 X31.408 Y32.54
G1 F1200 X13.389 Y14.521 E105.61453
G1 X13.319 Y14.451
G0 F4800 X13.955 Y14.521
G1 F1200 X31.408 Y31.974 E106.43546
G1 X31.478 Y32.044
G0 F4800 X31.408 Y31.408
G1 F1200 X14.521 Y14.521 E107.22977
G1 X14.451 Y14.451
