;FLAVOR:RepRap
;TIME:4127
;Filament used: 2.76705m
;Layer height: 0.2
;Generated with Cura_SteamEngine 2.6.0
M190 S50
M104 S195
M109 S195
G28 ;Home
G1 Z15.0 F6000 ;Move the platform down 15mm
;Prime the extruder
G92 E0
G1 F200 E3
G92 E0
;LAYER_COUNT:40
;LAYER:0
M107
G0 F1200 X66.475 Y71.732 Z0.3
G0 X66.708 Y71.524
;TYPE:SKIRT
G1 X67.313 Y71.037 E0.03875
G1 X67.731 Y70.752 E0.06399
G1 X67.975 Y70.626 E0.07769
G1 X68.67 Y70.304 E0.1159
G1 X69.144 Y70.129 E0.14111
G1 X69.398 Y70.068 E0.15414
G1 X70.345 Y69.882 E0.20229
G1 X70.963 Y69.822 E0.23327
G1 X129.258 Y69.839 E3.14162
G1 X129.866 Y69.897 E3.17209
G1 X130.387 Y69.998 E3.19857
G1 X131.033 Y70.196 E3.23228
G1 X131.908 Y70.569 E3.27973
G1 X132.356 Y70.804 E3.30497
G1 X132.709 Y71.061 E3.32675
G1 X133.446 Y71.679 E3.37474
G1 X133.807 Y72.033 E3.39996
G1 X134.092 Y72.416 E3.42378
G1 X134.462 Y72.999 E3.45823
G1 X134.698 Y73.446 E3.48345
G1 X134.795 Y73.699 E3.49697
G1 X134.988 Y74.276 E3.52732
G1 X135.11 Y74.767 E3.55256
G1 X135.153 Y75.291 E3.57879
G1 X135.154 Y124.696 E6.04362
G1 X135.114 Y125.2 E6.06884
G1 X135.041 Y125.538 E6.08609
G1 X134.933 Y125.934 E6.10657
G1 X134.762 Y126.41 E6.1318
G1 X134.603 Y126.716 E6.14901
G1 X134.137 Y127.507 E6.19481
G1 X133.847 Y127.921 E6.22003
G1 X133.3 Y128.443 E6.25775
G1 X132.307 Y129.188 E6.31969
G1 X131.88 Y129.458 E6.34489
G1 X131.463 Y129.642 E6.36763
G1 X130.715 Y129.909 E6.40725
G1 X130.202 Y130.045 E6.43373
G1 X129.838 Y130.11 E6.45218
G1 X129.275 Y130.16 E6.48038
G1 X70.696 Y130.157 E9.4029
G1 X70.192 Y130.117 E9.42812
G1 X69.847 Y130.042 E9.44573
G1 X68.909 Y129.784 E9.49427
G1 X68.434 Y129.612 E9.51947
G1 X68.125 Y129.451 E9.53685
G1 X67.392 Y129.016 E9.57938
G1 X66.979 Y128.724 E9.60461
G1 X66.653 Y128.411 E9.62716
G1 X66.004 Y127.694 E9.67541
G1 X65.695 Y127.294 E9.70063
G1 X65.397 Y126.716 E9.73307
G1 X65.068 Y125.878 E9.77798
G1 X64.921 Y125.395 E9.80317
G1 X64.847 Y124.712 E9.83745
G1 X64.8 Y76.41 E12.24725
G1 X64.803 Y76.261 E12.25468
G1 X64.855 Y75.122 E12.31156
G1 X64.918 Y74.62 E12.33681
G1 X65.058 Y74.139 E12.3618
G1 X65.331 Y73.415 E12.4004
G1 X65.546 Y72.957 E12.42564
G1 X65.753 Y72.64 E12.44453
G1 X66.143 Y72.113 E12.47724
G1 X66.475 Y71.732 E12.50245
G1 X66.708 Y71.524 E12.51804
G1 F1500 E6.01804
G0 F1200 X68.435 Y73.352
G0 X69.338 Y74.266
G0 X69.39 Y74.327
G0 X69.326 Y74.251
;TYPE:WALL-INNER
G1 F1500 E12.51804
G1 F1200 X69.635 Y74.029 E12.53702
G1 X69.984 Y73.848 E12.55663
G1 X70.374 Y73.711 E12.57725
G1 X70.778 Y73.629 E12.59782
G1 X71.224 Y73.6 E12.62012
G1 X128.776 Y73.6 E15.4914
G1 X129.222 Y73.629 E15.5137
G1 X129.626 Y73.711 E15.53427
G1 X130.016 Y73.848 E15.55489
G1 X130.365 Y74.029 E15.5745
G1 X130.674 Y74.251 E15.59348
G1 X130.933 Y74.507 E15.61165
G1 X131.133 Y74.782 E15.62862
G1 X131.282 Y75.085 E15.64546
G1 X131.37 Y75.393 E15.66144
G1 X131.4 Y75.722 E15.67793
G1 X131.4 Y124.278 E18.10039
G1 X131.37 Y124.607 E18.11688
G1 X131.282 Y124.915 E18.13286
G1 X131.133 Y125.218 E18.1497
G1 X130.933 Y125.493 E18.16667
G1 X130.674 Y125.749 E18.18484
G1 X130.365 Y125.971 E18.20382
G1 X130.016 Y126.152 E18.22343
G1 X129.626 Y126.289 E18.24405
G1 X129.222 Y126.371 E18.26462
G1 X128.776 Y126.4 E18.28692
G1 X71.224 Y126.4 E21.1582
G1 X70.778 Y126.371 E21.1805
G1 X70.374 Y126.289 E21.20107
G1 X69.984 Y126.152 E21.22169
G1 X69.635 Y125.971 E21.2413
G1 X69.326 Y125.749 E21.26028
G1 X69.067 Y125.493 E21.27845
G1 X68.867 Y125.218 E21.29542
G1 X68.718 Y124.915 E21.31226
G1 X68.63 Y124.607 E21.32824
G1 X68.6 Y124.278 E21.34473
G1 X68.6 Y75.722 E23.76719
G1 X68.63 Y75.393 E23.78368
G1 X68.718 Y75.085 E23.79966
G1 X68.867 Y74.782 E23.8165
G1 X69.067 Y74.507 E23.83347
G1 X69.326 Y74.251 E23.85164
G0 X69.068 Y73.943
;TYPE:WALL-OUTER
G1 X69.421 Y73.689 E23.87333
G1 X69.828 Y73.478 E23.8962
G1 X70.265 Y73.325 E23.9193
G1 X70.723 Y73.232 E23.94262
G1 X71.213 Y73.2 E23.96712
G1 X128.787 Y73.2 E26.8395
G1 X129.277 Y73.232 E26.86399
G1 X129.735 Y73.325 E26.88731
G1 X130.172 Y73.478 E26.91041
G1 X130.579 Y73.689 E26.93328
G1 X130.932 Y73.943 E26.95498
G1 X131.238 Y74.245 E26.97643
G1 X131.477 Y74.575 E26.99676
G1 X131.657 Y74.941 E27.0171
G1 X131.764 Y75.315 E27.03651
G1 X131.8 Y75.707 E27.05615
G1 X131.8 Y124.293 E29.48012
G1 X131.764 Y124.685 E29.49976
G1 X131.657 Y125.059 E29.51916
G1 X131.477 Y125.425 E29.53951
G1 X131.238 Y125.755 E29.55984
G1 X130.932 Y126.057 E29.58129
G1 X130.579 Y126.311 E29.60299
G1 X130.172 Y126.522 E29.62586
G1 X129.735 Y126.675 E29.64896
G1 X129.277 Y126.768 E29.67227
G1 X128.787 Y126.8 E29.69677
G1 X71.213 Y126.8 E32.56915
G1 X70.723 Y126.768 E32.59365
G1 X70.265 Y126.675 E32.61696
G1 X69.828 Y126.522 E32.64006
G1 X69.421 Y126.311 E32.66294
G1 X69.068 Y126.057 E32.68463
G1 X68.762 Y125.755 E32.70608
G1 X68.523 Y125.425 E32.72641
G1 X68.343 Y125.059 E32.74676
G1 X68.236 Y124.685 E32.76617
G1 X68.2 Y124.293 E32.78581
G1 X68.2 Y75.707 E35.20977
G1 X68.236 Y75.315 E35.22941
G1 X68.343 Y74.941 E35.24882
G1 X68.523 Y74.575 E35.26917
G1 X68.762 Y74.245 E35.28949
G1 X69.068 Y73.943 E35.31094
G0 X69.23 Y73.826
G0 X69.688 Y74.213
;TYPE:SKIN
G1 X121.693 Y126.219 E38.98021
G1 X121.763 Y126.289
G0 X121.128 Y126.219
G1 X69.37 Y74.461 E42.63202
G1 X69.3 Y74.391
G0 X69.104 Y74.76
G1 X120.562 Y126.219 E46.26269
G1 X120.632 Y126.289
G0 X119.996 Y126.219
G1 X68.899 Y75.121 E49.8679
G1 X68.829 Y75.051
G0 X68.793 Y75.581
G1 X119.431 Y126.219 E53.44068
G1 X119.501 Y126.289
G0 X118.865 Y126.219
G1 X68.78 Y76.134 E56.97445
G1 X68.71 Y76.064
G0 X68.78 Y76.699
G1 X118.299 Y126.219 E60.46832
G1 X118.369 Y126.289
G0 X117.733 Y126.219
G1 X68.78 Y77.265 E63.92225
G1 X68.71 Y77.195
G0 X68.78 Y77.831
G1 X117.168 Y126.219 E67.33629
G1 X117.238 Y126.289
G0 X116.602 Y126.219
G1 X68.78 Y78.396 E70.71042
G1 X68.71 Y78.326
G0 X68.78 Y78.962
G1 X116.036 Y126.219 E74.04462
G1 X116.106 Y126.289
G0 X115.471 Y126.219
G1 X68.78 Y79.528 E77.33893
G1 X68.71 Y79.458
G0 X68.78 Y80.093
G1 X114.905 Y126.219 E80.59333
G1 X114.975 Y126.289
G0 X114.339 Y126.219
G1 X68.78 Y80.659 E83.8078
G1 X68.71 Y80.589
G0 X68.78 Y81.225
G1 X113.774 Y126.219 E86.98237
G1 X113.844 Y126.289
G0 X113.208 Y126.219
G1 X68.78 Y81.791 E90.117
G1 X68.71 Y81.721
G0 X68.78 Y82.356
G1 X112.642 Y126.219 E93.21174
G1 X112.712 Y126.289
G0 X112.077 Y126.219
G1 X68.78 Y82.922 E96.26658
G1 X68.71 Y82.852
G0 X68.78 Y83.488
G1 X111.511 Y126.219 E99.28148
G1 X111.581 Y126.289
G0 X110.945 Y126.219
G1 X68.78 Y84.053 E102.25648
G1 X68.71 Y83.983
G0 X68.78 Y84.619
G1 X110.38 Y126.219 E105.19159
G1 X110.45 Y126.289
G0 X109.814 Y126.219
G1 X68.78 Y85.185 E108.08676
G1 X68.71 Y85.115
G0 X68.78 Y85.75
G1 X109.248 Y126.219 E110.94203
G1 X109.318 Y126.289
G0 X108.683 Y126.219
G1 X68.78 Y86.316 E113.7574
G1 X68.71 Y86.246
G0 X68.78 Y86.882
G1 X108.117 Y126.219 E116.53284
G1 X108.187 Y126.289
G0 X107.551 Y126.219
G1 X68.78 Y87.447 E119.26838
G1 X68.71 Y87.377
G0 X68.78 Y88.013
G1 X106.985 Y126.219 E121.96398
G1 X107.055 Y126.289
G0 X106.42 Y126.219
G1 X68.78 Y88.579 E124.61969
G1 X68.71 Y88.509
G0 X68.78 Y89.144
G1 X105.854 Y126.219 E127.23549
G1 X105.924 Y126.289
G0 X105.288 Y126.219
G1 X68.78 Y89.71 E129.81137
G1 X68.71 Y89.64
G0 X68.78 Y90.276
G1 X104.723 Y126.219 E132.34734
G1 X104.793 Y126.289
G0 X104.157 Y126.219
G1 X68.78 Y90.842 E134.84338
G1 X68.71 Y90.772
G0 X68.78 Y91.407
G1 X103.591 Y126.219 E137.29952
G1 X103.661 Y126.289
G0 X103.026 Y126.219
G1 X68.78 Y91.973 E139.71576
G1 X68.71 Y91.903
G0 X68.78 Y92.539
G1 X102.46 Y126.219 E142.09206
G1 X102.53 Y126.289
G0 X101.894 Y126.219
G1 X68.78 Y93.104 E144.42847
G1 X68.71 Y93.034
G0 X68.78 Y93.67
G1 X101.329 Y126.219 E146.72498
G1 X101.399 Y126.289
G0 X100.763 Y126.219
G1 X68.78 Y94.236 E148.98155
G1 X68.71 Y94.166
G0 X68.78 Y94.801
G1 X100.197 Y126.219 E151.19823
G1 X100.267 Y126.289
G0 X99.632 Y126.219
G1 X68.78 Y95.367 E153.375
G1 X68.71 Y95.297
G0 X68.78 Y95.933
G1 X99.066 Y126.219 E155.51184
G1 X99.136 Y126.289
G0 X98.5 Y126.219
G1 X68.78 Y96.498 E157.60878
G1 X68.71 Y96.428
G0 X68.78 Y97.064
G1 X97.934 Y126.219 E159.66579
G1 X98.004 Y126.289
G0 X97.369 Y126.219
G1 X68.78 Y97.63 E161.6829
G1 X68.71 Y97.56
G0 X68.78 Y98.195
G1 X96.803 Y126.219 E163.66011
G1 X96.873 Y126.289
G0 X96.237 Y126.219
G1 X68.78 Y98.761 E165.59738
G1 X68.71 Y98.691
G0 X68.78 Y99.327
G1 X95.672 Y126.219 E167.49476
G1 X95.742 Y126.289
G0 X95.106 Y126.219
G1 X68.78 Y99.892 E169.35224
G1 X68.71 Y99.822
G0 X68.78 Y100.458
G1 X94.54 Y126.219 E171.16978
G1 X94.61 Y126.289
G0 X93.975 Y126.219
G1 X68.78 Y101.024 E172.94742
G1 X68.71 Y100.954
G0 X68.78 Y101.59
G1 X93.409 Y126.219 E174.68513
G1 X93.479 Y126.289
G0 X92.843 Y126.219
G1 X68.78 Y102.155 E176.38294
G1 X68.71 Y102.085
G0 X68.78 Y102.721
G1 X92.278 Y126.219 E178.04085
G1 X92.348 Y126.289
G0 X91.712 Y126.219
G1 X68.78 Y103.287 E179.65883
G1 X68.71 Y103.217
G0 X68.78 Y103.852
G1 X91.146 Y126.219 E181.23691
G1 X91.216 Y126.289
G0 X90.581 Y126.219
G1 X68.78 Y104.418 E182.77508
G1 X68.71 Y104.348
G0 X68.78 Y104.984
G1 X90.015 Y126.219 E184.27333
G1 X90.085 Y126.289
G0 X89.449 Y126.219
G1 X68.78 Y105.549 E185.73167
G1 X68.71 Y105.479
G0 X68.78 Y106.115
G1 X88.884 Y126.219 E187.15012
G1 X88.954 Y126.289
G0 X88.318 Y126.219
G1 X68.78 Y106.681 E188.52863
G1 X68.71 Y106.611
G0 X68.78 Y107.246
G1 X87.752 Y126.219 E189.86724
G1 X87.822 Y126.289
G0 X87.186 Y126.219
G1 X68.78 Y107.812 E191.16592
G1 X68.71 Y107.742
G0 X68.78 Y108.378
G1 X86.621 Y126.219 E192.4247
G1 X86.691 Y126.289
G0 X86.055 Y126.219
G1 X68.78 Y108.943 E193.64358
G1 X68.71 Y108.873
G0 X68.78 Y109.509
G1 X85.489 Y126.219 E194.82252
G1 X85.559 Y126.289
G0 X84.924 Y126.219
G1 X68.78 Y110.075 E195.96157
G1 X68.71 Y110.005
G0 X68.78 Y110.64
G1 X84.358 Y126.219 E197.06072
G1 X84.428 Y126.289
G0 X83.792 Y126.219
G1 X68.78 Y111.206 E198.11993
G1 X68.71 Y111.136
G0 X68.78 Y111.772
G1 X83.227 Y126.219 E199.13924
G1 X83.297 Y126.289
G0 X82.661 Y126.219
G1 X68.78 Y112.338 E200.11862
G1 X68.71 Y112.268
G0 X68.78 Y112.903
G1 X82.095 Y126.219 E201.0581
G1 X82.165 Y126.289
G0 X81.53 Y126.219
G1 X68.78 Y113.469 E201.95769
G1 X68.71 Y113.399
G0 X68.78 Y114.035
G1 X80.964 Y126.219 E202.81733
G1 X81.034 Y126.289
G0 X80.398 Y126.219
G1 X68.78 Y114.6 E203.63708
G1 X68.71 Y114.53
G0 X68.78 Y115.166
G1 X79.833 Y126.219 E204.41693
G1 X79.903 Y126.289
G0 X79.267 Y126.219
G1 X68.78 Y115.732 E205.15684
G1 X68.71 Y115.662
G0 X68.78 Y116.297
G1 X78.701 Y126.219 E205.85686
G1 X78.771 Y126.289
G0 X78.136 Y126.219
G1 X68.78 Y116.863 E206.51698
G1 X68.71 Y116.793
G0 X68.78 Y117.429
G1 X77.57 Y126.219 E207.13716
G1 X77.64 Y126.289
G0 X77.004 Y126.219
G1 X68.78 Y117.994 E207.71744
G1 X68.71 Y117.924
G0 X68.78 Y118.56
G1 X76.438 Y126.219 E208.25779
G1 X76.508 Y126.289
G0 X75.873 Y126.219
G1 X68.78 Y119.126 E208.75824
G1 X68.71 Y119.056
G0 X68.78 Y119.691
G1 X75.307 Y126.219 E209.21879
G1 X75.377 Y126.289
G0 X74.741 Y126.219
G1 X68.78 Y120.257 E209.63941
G1 X68.71 Y120.187
G0 X68.78 Y120.823
G1 X74.176 Y126.219 E210.02012
G1 X74.246 Y126.289
G0 X73.61 Y126.219
G1 X68.78 Y121.389 E210.3609
G1 X68.71 Y121.319
G0 X68.78 Y121.954
G1 X73.044 Y126.219 E210.66179
G1 X73.114 Y126.289
G0 X72.479 Y126.219
G1 X68.78 Y122.52 E210.92277
G1 X68.71 Y122.45
G0 X68.78 Y123.086
G1 X71.913 Y126.219 E211.14382
G1 X71.983 Y126.289
G0 X71.347 Y126.219
G1 X68.78 Y123.651 E211.32497
G1 X68.71 Y123.581
G0 X68.78 Y124.217
G1 X70.741 Y126.178 E211.46333
G1 X70.811 Y126.248
G0 X69.901 Y125.904
G1 X68.924 Y124.927 E211.53227
G1 X68.854 Y124.857
G0 X70.055 Y74.014
G1 X122.259 Y126.219 E215.21558
G1 X122.329 Y126.289
G0 X122.825 Y126.219
G1 X70.479 Y73.873 E218.90887
G1 X70.409 Y73.803
G0 X70.968 Y73.796
G1 X123.39 Y126.219 E222.60756
G1 X123.46 Y126.289
G0 X123.956 Y126.219
G1 X71.516 Y73.779 E226.30748
G1 X71.446 Y73.709
G0 X72.082 Y73.779
G1 X124.522 Y126.219 E230.00741
G1 X124.592 Y126.289
G0 X125.087 Y126.219
G1 X72.648 Y73.779 E233.7073
G1 X72.578 Y73.709
G0 X73.213 Y73.779
G1 X125.653 Y126.219 E237.40722
G1 X125.723 Y126.289
G0 X126.219 Y126.219
G1 X73.779 Y73.779 E241.10715
G1 X73.709 Y73.709
G0 X74.345 Y73.779
G1 X126.784 Y126.219 E244.80704
G1 X126.854 Y126.289
G0 X127.35 Y126.219
G1 X74.91 Y73.779 E248.50696
G1 X74.84 Y73.709
G0 X75.476 Y73.779
G1 X127.916 Y126.219 E252.20689
G1 X127.986 Y126.289
G0 X128.482 Y126.219
G1 X76.042 Y73.779 E255.90682
G1 X75.972 Y73.709
G0 X76.607 Y73.779
G1 X129.031 Y126.203 E259.60561
G1 X129.101 Y126.273
G0 X129.52 Y126.125
G1 X77.173 Y73.779 E263.29894
G1 X77.103 Y73.709
G0 X77.739 Y73.779
G1 X129.944 Y125.984 E266.98228
G1 X130.014 Y126.054
G0 X130.311 Y125.785
G1 X78.305 Y73.779 E270.65159
G1 X78.235 Y73.709
G0 X78.87 Y73.779
G1 X130.629 Y125.538 E274.30347
G1 X130.699 Y125.608
G0 X130.894 Y125.237
G1 X79.436 Y73.779 E277.93411
G1 X79.366 Y73.709
G0 X80.002 Y73.779
G1 X131.099 Y124.877 E281.53931
G1 X131.169 Y124.947
G0 X131.206 Y124.418
G1 X80.567 Y73.779 E285.11217
G1 X80.497 Y73.709
G0 X81.133 Y73.779
G1 X131.219 Y123.865 E288.646
G1 X131.289 Y123.935
G0 X131.219 Y123.299
G1 X81.699 Y73.779 E292.13991
G1 X81.629 Y73.709
G0 X82.264 Y73.779
G1 X131.219 Y122.733 E295.59391
G1 X131.289 Y122.803
G0 X131.219 Y122.168
G1 X82.83 Y73.779 E299.00802
G1 X82.76 Y73.709
G0 X83.396 Y73.779
G1 X131.219 Y121.602 E302.38219
G1 X131.289 Y121.672
G0 X131.219 Y121.036
G1 X83.961 Y73.779 E305.71646
G1 X83.891 Y73.709
G0 X84.527 Y73.779
G1 X131.219 Y120.471 E309.01083
G1 X131.289 Y120.541
G0 X131.219 Y119.905
G1 X85.093 Y73.779 E312.26527
G1 X85.023 Y73.709
G0 X85.658 Y73.779
G1 X131.219 Y119.339 E315.47981
G1 X131.289 Y119.409
G0 X131.219 Y118.774
G1 X86.224 Y73.779 E318.65445
G1 X86.154 Y73.709
G0 X86.79 Y73.779
G1 X131.219 Y118.208 E321.78916
G1 X131.289 Y118.278
G0 X131.219 Y117.642
G1 X87.355 Y73.779 E324.88396
G1 X87.285 Y73.709
G0 X87.921 Y73.779
G1 X131.219 Y117.077 E327.93887
G1 X131.289 Y117.147
G0 X131.219 Y116.511
G1 X88.487 Y73.779 E330.95384
G1 X88.417 Y73.709
G0 X89.053 Y73.779
G1 X131.219 Y115.945 E333.92888
G1 X131.289 Y116.015
G0 X131.219 Y115.38
G1 X89.618 Y73.779 E336.86406
G1 X89.548 Y73.709
G0 X90.184 Y73.779
G1 X131.219 Y114.814 E339.7593
G1 X131.289 Y114.884
G0 X131.219 Y114.248
G1 X90.75 Y73.779 E342.61461
G1 X90.68 Y73.709
G0 X91.315 Y73.779
G1 X131.219 Y113.682 E345.43001
G1 X131.289 Y113.752
G0 X131.219 Y113.117
G1 X91.881 Y73.779 E348.20552
G1 X91.811 Y73.709
G0 X92.447 Y73.779
G1 X131.219 Y112.551 E350.9411
G1 X131.289 Y112.621
G0 X131.219 Y111.985
G1 X93.012 Y73.779 E353.63677
G1 X92.942 Y73.709
G0 X93.578 Y73.779
G1 X131.219 Y111.42 E356.29255
G1 X131.289 Y111.49
G0 X131.219 Y110.854
G1 X94.144 Y73.779 E358.90839
G1 X94.074 Y73.709
G0 X94.709 Y73.779
G1 X131.219 Y110.288 E361.48433
G1 X131.289 Y110.358
G0 X131.219 Y109.723
G1 X95.275 Y73.779 E364.02037
G1 X95.205 Y73.709
G0 X95.841 Y73.779
G1 X131.219 Y109.157 E366.51648
G1 X131.289 Y109.227
G0 X131.219 Y108.591
G1 X96.406 Y73.779 E368.97269
G1 X96.336 Y73.709
G0 X96.972 Y73.779
G1 X131.219 Y108.026 E371.389
G1 X131.289 Y108.096
G0 X131.219 Y107.46
G1 X97.538 Y73.779 E373.76538
G1 X97.468 Y73.709
G0 X98.103 Y73.779
G1 X131.219 Y106.894 E376.10186
G1 X131.289 Y106.964
G0 X131.219 Y106.329
G1 X98.669 Y73.779 E378.39844
G1 X98.599 Y73.709
G0 X99.235 Y73.779
G1 X131.219 Y105.763 E380.65508
G1 X131.289 Y105.833
G0 X131.219 Y105.197
G1 X99.801 Y73.779 E382.87179
G1 X99.731 Y73.709
G0 X100.367 Y73.78
G1 X131.219 Y104.632 E385.04856
G1 X131.289 Y104.702
G0 X131.219 Y104.066
G1 X100.933 Y73.78 E387.1854
G1 X100.863 Y73.71
G0 X101.498 Y73.78
G1 X131.219 Y103.5 E389.28235
G1 X131.289 Y103.57
G0 X131.219 Y102.934
G1 X102.064 Y73.78 E391.33935
G1 X101.994 Y73.71
G0 X102.63 Y73.78
G1 X131.219 Y102.369 E393.35646
G1 X131.289 Y102.439
G0 X131.219 Y101.803
G1 X103.195 Y73.78 E395.33367
G1 X103.125 Y73.71
G0 X103.761 Y73.78
G1 X131.219 Y101.237 E397.27095
G1 X131.289 Y101.307
G0 X131.219 Y100.672
G1 X104.327 Y73.78 E399.16832
G1 X104.257 Y73.71
G0 X104.892 Y73.78
G1 X131.219 Y100.106 E401.0258
G1 X131.289 Y100.176
G0 X131.219 Y99.54
G1 X105.458 Y73.78 E402.84334
G1 X105.388 Y73.71
G0 X106.024 Y73.78
G1 X131.219 Y98.975 E404.62098
G1 X131.289 Y99.045
G0 X131.219 Y98.409
G1 X106.589 Y73.78 E406.35873
