;FLAVOR:RepRap
;TIME:4448
;Filament used: 2.95562m
;Layer height: 0.2
;Generated with Cura_SteamEngine 2.6.0
M190 S50
M104 S195
M109 S195
G28 ;Home
G1 Z15.0 F6000 ;Move the platform down 15mm
;Prime the extruder
G92 E0
G1 F200 E3
G92 E0
;LAYER_COUNT:335
;LAYER:0
M107
G0 F3600 X86.788 Y86.302 Z0.3
;TYPE:SKIRT
G1 F1200 X86.866 Y86.225 E0.00547
G1 X87.444 Y85.673 E0.04534
G1 X87.866 Y85.322 E0.07273
G1 X89.781 Y83.94 E0.19055
G1 X90.246 Y83.651 E0.21786
G1 X92.016 Y82.711 E0.31785
G1 X92.504 Y82.493 E0.34451
G1 X94.317 Y81.822 E0.44096
G1 X94.833 Y81.669 E0.46781
G1 X96.852 Y81.218 E0.57102
G1 X97.417 Y81.134 E0.59952
G1 X99.693 Y80.959 E0.71341
G1 X100.27 Y80.956 E0.74219
G1 X102.283 Y81.092 E0.84285
G1 X102.833 Y81.168 E0.87055
G1 X104.939 Y81.609 E0.9779
G1 X105.484 Y81.764 E1.00617
G1 X107.547 Y82.513 E1.11566
G1 X108.092 Y82.759 E1.1455
G1 X110.04 Y83.818 E1.25611
G1 X110.52 Y84.124 E1.28451
G1 X112.23 Y85.398 E1.3909
G1 X112.671 Y85.78 E1.42001
G1 X114.215 Y87.327 E1.52905
G1 X114.585 Y87.754 E1.55724
G1 X115.882 Y89.485 E1.66515
G1 X116.185 Y89.955 E1.69305
G1 X117.082 Y91.585 E1.78587
G1 X117.319 Y92.098 E1.81407
G1 X118.22 Y94.479 E1.94107
G1 X118.39 Y95.055 E1.97104
G1 X118.807 Y96.996 E2.07008
G1 X118.885 Y97.541 E2.09755
G1 X119.036 Y99.586 E2.19985
G1 X119.041 Y100.104 E2.2257
G1 X118.953 Y101.682 E2.30455
G1 X118.918 Y102.032 E2.3221
G1 X118.707 Y103.49 E2.39559
G1 X118.643 Y103.829 E2.41281
G1 X118.309 Y105.256 E2.48592
G1 X118.162 Y105.742 E2.51125
G1 X117.487 Y107.551 E2.60758
G1 X117.26 Y108.051 E2.63498
G1 X116.213 Y109.993 E2.74505
G1 X115.882 Y110.509 E2.77563
G1 X114.458 Y112.391 E2.89338
G1 X114.087 Y112.814 E2.92145
G1 X112.671 Y114.221 E3.02104
G1 X112.221 Y114.607 E3.05061
G1 X110.343 Y115.987 E3.16688
G1 X109.816 Y116.315 E3.19785
G1 X107.732 Y117.396 E3.31498
G1 X107.261 Y117.603 E3.34065
G1 X105.666 Y118.185 E3.42535
G1 X105.173 Y118.329 E3.45098
G1 X103.307 Y118.749 E3.5464
G1 X102.763 Y118.833 E3.57386
G1 X100.315 Y119.038 E3.69642
G1 X99.63 Y119.037 E3.7306
G1 X97.199 Y118.823 E3.85235
G1 X96.543 Y118.709 E3.88557
G1 X93.997 Y118.047 E4.01681
G1 X93.582 Y117.915 E4.03854
G1 X92.394 Y117.463 E4.10195
G1 X91.906 Y117.238 E4.12876
G1 X89.941 Y116.17 E4.24034
G1 X89.453 Y115.858 E4.26924
G1 X87.749 Y114.582 E4.37544
G1 X87.32 Y114.209 E4.40381
G1 X85.824 Y112.714 E4.50932
G1 X85.456 Y112.292 E4.53726
G1 X84.119 Y110.517 E4.64812
G1 X83.76 Y109.946 E4.68177
G1 X82.546 Y107.596 E4.81373
G1 X82.342 Y107.129 E4.83916
G1 X81.864 Y105.817 E4.90882
G1 X81.706 Y105.263 E4.93756
G1 X81.142 Y102.554 E5.07562
G1 X81.067 Y102.013 E5.10286
G1 X80.958 Y100.424 E5.18233
G1 X80.958 Y99.889 E5.20902
G1 X81.11 Y97.567 E5.32511
G1 X81.191 Y96.984 E5.35448
G1 X81.607 Y95.058 E5.45278
G1 X81.736 Y94.596 E5.47671
G1 X82.19 Y93.282 E5.54607
G1 X82.336 Y92.919 E5.56559
G1 X83.078 Y91.303 E5.6543
G1 X83.219 Y91.024 E5.6699
G1 X83.814 Y89.957 E5.73085
G1 X84.118 Y89.491 E5.75861
G1 X85.542 Y87.609 E5.87635
G1 X85.891 Y87.207 E5.90291
G1 X86.788 Y86.302 E5.96648
G0 F3600 X87.143 Y86.515
G1 F1200 X87.721 Y85.963 E6.00636
G1 X88.1 Y85.647 E6.03097
G1 X90.015 Y84.265 E6.14879
G1 X90.433 Y84.005 E6.17335
G1 X92.203 Y83.065 E6.27334
G1 X92.642 Y82.868 E6.29735
G1 X94.455 Y82.197 E6.39379
G1 X94.92 Y82.06 E6.41798
G1 X96.939 Y81.609 E6.52119
G1 X97.448 Y81.533 E6.54686
G1 X99.724 Y81.358 E6.66075
G1 X100.243 Y81.355 E6.68664
G1 X102.256 Y81.491 E6.7873
G1 X102.751 Y81.559 E6.81223
G1 X104.857 Y82 E6.91958
G1 X105.348 Y82.14 E6.94505
G1 X107.411 Y82.889 E7.05455
G1 X107.901 Y83.11 E7.08136
G1 X109.849 Y84.169 E7.19198
G1 X110.281 Y84.445 E7.21756
G1 X111.991 Y85.719 E7.32394
G1 X112.388 Y86.063 E7.35015
G1 X113.932 Y87.61 E7.4592
G1 X114.265 Y87.994 E7.48455
G1 X115.562 Y89.725 E7.59247
G1 X115.835 Y90.148 E7.61758
G1 X116.732 Y91.778 E7.7104
G1 X116.945 Y92.24 E7.73579
G1 X117.846 Y94.621 E7.86279
G1 X117.999 Y95.139 E7.88974
G1 X118.416 Y97.08 E7.98879
G1 X118.486 Y97.571 E8.01353
G1 X118.637 Y99.616 E8.11583
G1 X118.641 Y100.081 E8.13903
G1 X118.553 Y101.659 E8.21788
G1 X118.522 Y101.975 E8.23372
G1 X118.311 Y103.433 E8.30722
G1 X118.253 Y103.737 E8.32266
G1 X117.919 Y105.164 E8.39578
G1 X117.787 Y105.603 E8.41865
G1 X117.112 Y107.412 E8.51498
G1 X116.908 Y107.861 E8.53958
G1 X115.861 Y109.803 E8.64965
G1 X115.563 Y110.267 E8.67717
G1 X114.139 Y112.149 E8.79491
G1 X113.805 Y112.531 E8.82022
G1 X112.389 Y113.938 E8.91981
G1 X111.984 Y114.285 E8.94642
G1 X110.106 Y115.665 E9.06269
G1 X109.632 Y115.96 E9.09054
G1 X107.548 Y117.041 E9.20767
G1 X107.124 Y117.227 E9.23077
G1 X105.529 Y117.809 E9.31548
G1 X105.086 Y117.939 E9.33851
G1 X103.22 Y118.359 E9.43393
G1 X102.729 Y118.434 E9.45872
G1 X100.281 Y118.639 E9.58127
G1 X99.665 Y118.638 E9.61201
G1 X97.234 Y118.424 E9.73376
G1 X96.644 Y118.322 E9.76363
G1 X94.098 Y117.66 E9.89487
G1 X93.724 Y117.541 E9.91445
G1 X92.536 Y117.089 E9.97787
G1 X92.097 Y116.887 E10.00198
G1 X90.132 Y115.819 E10.11356
G1 X89.693 Y115.538 E10.13956
G1 X87.989 Y114.262 E10.24577
G1 X87.602 Y113.926 E10.27134
G1 X86.106 Y112.431 E10.37685
G1 X85.775 Y112.051 E10.40199
G1 X84.438 Y110.276 E10.51286
G1 X84.116 Y109.762 E10.54312
G1 X82.902 Y107.412 E10.67508
G1 X82.717 Y106.992 E10.69798
G1 X82.239 Y105.68 E10.76764
G1 X82.098 Y105.182 E10.79347
G1 X81.534 Y102.473 E10.93152
G1 X81.466 Y101.985 E10.9561
G1 X81.357 Y100.396 E11.03556
G1 X81.357 Y99.915 E11.05956
G1 X81.509 Y97.593 E11.17565
G1 X81.582 Y97.068 E11.20209
G1 X81.998 Y95.142 E11.3004
G1 X82.114 Y94.726 E11.32195
G1 X82.568 Y93.412 E11.3913
G1 X82.699 Y93.086 E11.40883
G1 X83.441 Y91.47 E11.49755
G1 X83.569 Y91.219 E11.5116
G1 X84.164 Y90.152 E11.57255
G1 X84.437 Y89.733 E11.5975
G1 X85.861 Y87.851 E11.71525
G1 X86.175 Y87.489 E11.73915
G1 X87.072 Y86.584 E11.80272
G1 X87.143 Y86.515 E11.80766
G0 F3600 X87.419 Y86.804
G1 F1200 X87.997 Y86.252 E11.84754
G1 X88.334 Y85.971 E11.86943
G1 X90.249 Y84.589 E11.98725
G1 X90.621 Y84.358 E12.0091
G1 X92.391 Y83.418 E12.10908
G1 X92.781 Y83.243 E12.13041
G1 X94.594 Y82.572 E12.22685
G1 X95.007 Y82.45 E12.24834
G1 X97.026 Y81.999 E12.35155
G1 X97.479 Y81.931 E12.3744
G1 X99.755 Y81.756 E12.48829
G1 X100.216 Y81.754 E12.51129
G1 X102.229 Y81.89 E12.61195
G1 X102.669 Y81.951 E12.63411
G1 X104.775 Y82.392 E12.74146
G1 X105.211 Y82.516 E12.76407
G1 X107.274 Y83.265 E12.87357
G1 X107.71 Y83.462 E12.89744
G1 X109.658 Y84.521 E13.00806
G1 X110.042 Y84.766 E13.03078
G1 X111.752 Y86.04 E13.13717
G1 X112.105 Y86.345 E13.16044
G1 X113.649 Y87.892 E13.26949
G1 X113.945 Y88.234 E13.29205
G1 X115.242 Y89.965 E13.39996
G1 X115.485 Y90.341 E13.4223
G1 X116.382 Y91.971 E13.51512
G1 X116.571 Y92.381 E13.53764
G1 X117.472 Y94.762 E13.66465
G1 X117.608 Y95.223 E13.68863
G1 X118.025 Y97.164 E13.78768
G1 X118.087 Y97.6 E13.80965
G1 X118.238 Y99.645 E13.91195
G1 X118.242 Y100.059 E13.93261
G1 X118.154 Y101.637 E14.01146
G1 X118.126 Y101.917 E14.0255
G1 X117.915 Y103.375 E14.09899
G1 X117.864 Y103.646 E14.11275
G1 X117.53 Y105.073 E14.18587
G1 X117.412 Y105.463 E14.2062
G1 X116.737 Y107.272 E14.30253
G1 X116.556 Y107.672 E14.32443
G1 X115.509 Y109.614 E14.4345
G1 X115.244 Y110.026 E14.45894
G1 X113.82 Y111.908 E14.57668
G1 X113.524 Y112.247 E14.59914
G1 X112.108 Y113.654 E14.69873
G1 X111.747 Y113.963 E14.72243
G1 X109.869 Y115.343 E14.8387
G1 X109.447 Y115.605 E14.86348
G1 X107.363 Y116.686 E14.98061
G1 X106.987 Y116.851 E15.0011
G1 X105.392 Y117.433 E15.0858
G1 X104.998 Y117.549 E15.10629
G1 X103.132 Y117.969 E15.20172
G1 X102.696 Y118.036 E15.22372
G1 X100.248 Y118.241 E15.34628
G1 X99.7 Y118.24 E15.37362
G1 X97.269 Y118.026 E15.49538
G1 X96.745 Y117.935 E15.52191
G1 X94.199 Y117.273 E15.65315
G1 X93.866 Y117.167 E15.67059
G1 X92.678 Y116.715 E15.734
G1 X92.288 Y116.536 E15.75541
G1 X90.323 Y115.468 E15.86699
G1 X89.933 Y115.217 E15.89013
G1 X88.229 Y113.941 E15.99633
G1 X87.885 Y113.643 E16.01904
G1 X86.389 Y112.148 E16.12456
G1 X86.095 Y111.81 E16.14691
G1 X84.758 Y110.035 E16.25777
G1 X84.471 Y109.579 E16.28465
G1 X83.257 Y107.229 E16.41662
G1 X83.093 Y106.855 E16.43699
G1 X82.615 Y105.543 E16.50665
G1 X82.489 Y105.1 E16.52963
G1 X81.925 Y102.391 E16.66768
G1 X81.866 Y101.958 E16.68948
G1 X81.757 Y100.369 E16.76895
G1 X81.756 Y99.941 E16.7903
G1 X81.908 Y97.619 E16.90639
G1 X81.973 Y97.152 E16.92992
G1 X82.389 Y95.226 E17.02822
G1 X82.492 Y94.857 E17.04733
G1 X82.946 Y93.543 E17.11669
G1 X83.063 Y93.253 E17.13229
G1 X83.805 Y91.637 E17.22101
G1 X83.918 Y91.413 E17.23353
G1 X84.513 Y90.346 E17.29448
G1 X84.756 Y89.974 E17.31664
G1 X86.18 Y88.092 E17.43439
G1 X86.459 Y87.77 E17.45564
G1 X87.356 Y86.865 E17.51921
G1 X87.419 Y86.804 E17.52359
G1 F1500 E11.02359
G0 F3600 X89.207 Y88.601
G0 X90.113 Y89.51
G0 X90.598 Y89.139
G0 X90.533 Y89.064
;TYPE:WALL-INNER
G1 F1500 E17.52359
G1 F1200 X92.107 Y87.88 E17.62185
G1 X92.278 Y87.775 E17.63186
G1 X94.043 Y86.821 E17.73196
G1 X95.886 Y86.134 E17.83009
G1 X96.103 Y86.079 E17.84125
G1 X97.805 Y85.708 E17.92816
G1 X98.008 Y85.682 E17.93837
G1 X99.995 Y85.538 E18.03776
G1 X101.973 Y85.673 E18.13668
G1 X102.183 Y85.706 E18.14728
G1 X103.898 Y86.078 E18.23483
G1 X104.103 Y86.132 E18.24541
G1 X105.961 Y86.822 E18.34429
G1 X106.132 Y86.908 E18.35384
G1 X107.73 Y87.78 E18.44466
G1 X107.878 Y87.872 E18.45336
G1 X109.464 Y89.061 E18.55225
G1 X110.927 Y90.528 E18.65561
G1 X112.192 Y92.215 E18.76081
G1 X113.129 Y93.927 E18.85818
G1 X113.225 Y94.15 E18.87029
G1 X113.822 Y95.751 E18.95554
G1 X113.89 Y95.976 E18.96727
G1 X114.312 Y97.928 E19.0669
G1 X114.329 Y98.095 E19.07528
G1 X114.458 Y99.914 E19.16625
G1 X114.455 Y100.066 E19.17384
G1 X114.313 Y102.093 E19.27521
G1 X113.904 Y103.985 E19.37179
G1 X113.827 Y104.208 E19.38356
G1 X113.814 Y104.272 E19.38681
G1 X113.235 Y105.825 E19.4695
G1 X113.135 Y106.055 E19.48202
G1 X112.181 Y107.799 E19.58119
G1 X112.068 Y107.962 E19.59109
G1 X111.005 Y109.38 E19.6795
G1 X110.864 Y109.545 E19.69033
G1 X109.467 Y110.936 E19.78868
G1 X107.885 Y112.126 E19.88745
G1 X107.71 Y112.234 E19.89771
G1 X106.16 Y113.079 E19.98578
G1 X105.961 Y113.177 E19.99685
G1 X104.114 Y113.866 E20.0952
G1 X103.896 Y113.921 E20.10642
G1 X102.194 Y114.291 E20.19331
G1 X101.985 Y114.323 E20.20386
G1 X99.994 Y114.462 E20.30343
G1 X97.962 Y114.317 E20.40507
G1 X95.886 Y113.864 E20.51108
G1 X94.039 Y113.178 E20.60937
G1 X93.868 Y113.092 E20.61892
G1 X92.275 Y112.223 E20.70946
G1 X92.131 Y112.133 E20.71793
G1 X90.532 Y110.93 E20.81776
G1 X89.062 Y109.461 E20.92144
G1 X88.995 Y109.381 E20.92665
G1 X87.94 Y107.972 E21.01446
G1 X87.81 Y107.788 E21.0257
G1 X86.87 Y106.072 E21.12332
G1 X86.77 Y105.837 E21.13606
G1 X86.186 Y104.268 E21.21958
G1 X86.106 Y104.01 E21.23306
G1 X85.687 Y102.071 E21.33203
G1 X85.659 Y101.824 E21.34443
G1 X85.541 Y100.155 E21.4279
G1 X85.541 Y99.897 E21.44078
G1 X85.686 Y97.913 E21.54002
G1 X86.097 Y96.01 E21.63715
G1 X86.173 Y95.764 E21.65
G1 X86.768 Y94.167 E21.73502
G1 X86.867 Y93.941 E21.74733
G1 X87.819 Y92.201 E21.84629
G1 X87.932 Y92.038 E21.85618
G1 X88.997 Y90.617 E21.94478
G1 X89.134 Y90.457 E21.95528
G1 X90.533 Y89.064 E22.05378
G0 F3600 X90.276 Y88.756
;TYPE:WALL-OUTER
G1 F1200 X91.876 Y87.552 E22.15368
G1 X92.079 Y87.428 E22.16555
G1 X93.879 Y86.455 E22.26763
G1 X95.768 Y85.751 E22.36821
G1 X96.004 Y85.691 E22.38035
G1 X97.741 Y85.313 E22.46904
G1 X97.959 Y85.284 E22.48001
G1 X99.993 Y85.137 E22.58175
G1 X102.019 Y85.275 E22.68307
G1 X102.259 Y85.313 E22.69519
G1 X103.993 Y85.689 E22.78371
G1 X104.221 Y85.749 E22.79547
G1 X106.123 Y86.456 E22.89671
G1 X106.311 Y86.55 E22.90719
G1 X107.928 Y87.432 E22.99909
G1 X108.109 Y87.545 E23.00973
G1 X109.724 Y88.756 E23.11044
G1 X111.232 Y90.268 E23.21698
G1 X112.529 Y91.998 E23.32485
G1 X113.49 Y93.753 E23.42468
G1 X113.6 Y94.01 E23.43862
G1 X114.201 Y95.621 E23.52441
G1 X114.278 Y95.875 E23.53765
G1 X114.708 Y97.864 E23.63917
G1 X114.728 Y98.067 E23.64935
G1 X114.858 Y99.904 E23.74123
G1 X114.855 Y100.082 E23.75011
G1 X114.71 Y102.15 E23.85353
G1 X114.29 Y104.094 E23.95276
G1 X114.214 Y104.314 E23.96437
G1 X114.2 Y104.383 E23.96788
G1 X113.605 Y105.979 E24.05286
G1 X113.494 Y106.233 E24.06669
G1 X112.522 Y108.01 E24.16774
G1 X112.388 Y108.202 E24.17942
G1 X111.317 Y109.631 E24.26852
G1 X111.162 Y109.812 E24.28041
G1 X109.724 Y111.244 E24.38165
G1 X108.12 Y112.451 E24.4818
G1 X107.911 Y112.58 E24.49406
G1 X106.337 Y113.438 E24.58349
G1 X106.12 Y113.545 E24.59556
G1 X104.232 Y114.249 E24.69609
G1 X103.996 Y114.309 E24.70824
G1 X102.261 Y114.686 E24.79682
G1 X102.036 Y114.72 E24.80817
G1 X99.993 Y114.863 E24.91035
G1 X97.894 Y114.713 E25.01533
G1 X97.806 Y114.689 E25.01988
G1 X95.775 Y114.249 E25.12356
G1 X93.877 Y113.544 E25.22457
G1 X93.689 Y113.45 E25.23506
G1 X92.072 Y112.568 E25.32695
G1 X91.9 Y112.461 E25.33706
G1 X90.271 Y111.235 E25.43878
G1 X88.765 Y109.73 E25.545
G1 X88.688 Y109.638 E25.55098
G1 X87.613 Y108.203 E25.64044
G1 X87.471 Y108.002 E25.65271
G1 X86.51 Y106.247 E25.75254
G1 X86.397 Y105.982 E25.76691
G1 X85.802 Y104.385 E25.85194
G1 X85.786 Y104.314 E25.85557
G1 X85.719 Y104.113 E25.86614
G1 X85.293 Y102.139 E25.96689
G1 X85.26 Y101.854 E25.9812
G1 X85.14 Y100.149 E26.06647
G1 X85.145 Y100.105 E26.06868
G1 X85.141 Y99.887 E26.07956
G1 X85.289 Y97.857 E26.18111
G1 X85.71 Y95.906 E26.28068
G1 X85.798 Y95.624 E26.29542
G1 X86.395 Y94.021 E26.38076
G1 X86.506 Y93.767 E26.39459
G1 X87.478 Y91.99 E26.49564
G1 X87.612 Y91.798 E26.50732
G1 X88.684 Y90.367 E26.59653
G1 X88.838 Y90.188 E26.60831
G1 X90.276 Y88.756 E26.70956
G0 F3600 X90.435 Y88.636
G0 X90.791 Y89.094
;TYPE:SKIN
G1 F1200 X110.907 Y109.21 E28.12885
G1 X110.977 Y109.28
G0 F3600 X110.642 Y109.511
G1 F1200 X90.491 Y89.359 E29.55064
G1 X90.421 Y89.289
G0 F3600 X90.207 Y89.642
G1 F1200 X110.358 Y109.793 E30.97241
G1 X110.428 Y109.863
G0 F3600 X110.075 Y110.075
G1 F1200 X89.924 Y89.924 E32.39417
G1 X89.854 Y89.854
G0 F3600 X89.64 Y90.206
G1 F1200 X109.791 Y110.357 E33.81593
G1 X109.861 Y110.427
G0 F3600 X109.508 Y110.639
G1 F1200 X89.357 Y90.488 E35.23769
G1 X89.287 Y90.418
G0 F3600 X89.091 Y90.788
G1 F1200 X109.207 Y110.904 E36.65698
G1 X109.277 Y110.974
G0 F3600 X108.884 Y111.147
G1 F1200 X88.849 Y91.112 E38.07056
G1 X88.779 Y91.042
G0 F3600 X88.607 Y91.435
G1 F1200 X108.562 Y111.39 E39.4785
G1 X108.632 Y111.46
G0 F3600 X108.238 Y111.633
G1 F1200 X88.365 Y91.759 E40.88068
G1 X88.295 Y91.689
G0 F3600 X88.122 Y92.082
G1 F1200 X107.915 Y111.875 E42.27718
G1 X107.985 Y111.945
G0 F3600 X107.574 Y112.1
G1 F1200 X87.899 Y92.425 E43.66536
G1 X87.829 Y92.355
G0 F3600 X87.699 Y92.79
G1 F1200 X107.209 Y112.3 E45.04189
G1 X107.279 Y112.37
G0 F3600 X106.843 Y112.499
G1 F1200 X87.5 Y93.157 E46.40661
G1 X87.43 Y93.087
G0 F3600 X87.3 Y93.522
G1 F1200 X106.477 Y112.7 E47.75969
G1 X106.547 Y112.77
G0 F3600 X106.111 Y112.899
G1 F1200 X87.099 Y93.888 E49.10105
G1 X87.029 Y93.818
G0 F3600 X86.918 Y94.272
G1 F1200 X105.719 Y113.073 E50.42756
G1 X105.789 Y113.143
G0 F3600 X105.307 Y113.227
G1 F1200 X86.765 Y94.685 E51.7358
G1 X86.695 Y94.615
G0 F3600 X86.612 Y95.097
G1 F1200 X104.895 Y113.381 E53.0258
G1 X104.965 Y113.451
G0 F3600 X104.484 Y113.535
G1 F1200 X86.458 Y95.509 E54.29763
G1 X86.388 Y95.439
G0 F3600 X86.31 Y95.926
G1 F1200 X104.071 Y113.688 E55.5508
G1 X104.141 Y113.758
G0 F3600 X103.614 Y113.796
G1 F1200 X86.199 Y96.381 E56.77953
G1 X86.129 Y96.311
G0 F3600 X86.098 Y96.846
G1 F1200 X103.149 Y113.897 E57.98257
G1 X103.219 Y113.967
G0 F3600 X102.685 Y113.999
G1 F1200 X85.998 Y97.312 E59.15992
G1 X85.928 Y97.242
G0 F3600 X85.897 Y97.777
G1 F1200 X102.22 Y114.1 E60.3116
G1 X102.29 Y114.17
G0 F3600 X101.715 Y114.16
G1 F1200 X85.838 Y98.283 E61.43181
G1 X85.768 Y98.213
G0 F3600 X85.799 Y98.81
G1 F1200 X101.186 Y114.197 E62.51744
G1 X101.256 Y114.267
G0 F3600 X100.658 Y114.234
G1 F1200 X85.761 Y99.337 E63.56851
G1 X85.691 Y99.267
G0 F3600 X85.723 Y99.865
G1 F1200 X100.129 Y114.271 E64.58493
G1 X100.199 Y114.341
G0 F3600 X99.541 Y114.249
G1 F1200 X85.742 Y100.45 E65.55852
G1 X85.672 Y100.38
G0 F3600 X85.785 Y101.058
G1 F1200 X98.932 Y114.205 E66.48612
G1 X99.002 Y114.275
G0 F3600 X98.322 Y114.161
G1 F1200 X85.828 Y101.667 E67.36763
