;FLAVOR:RepRap
;TIME:3683
;Filament used: 2.55775m
;Layer height: 0.2
;Generated with Cura_SteamEngine 2.6.0
M190 S50
M104 S195
M109 S195
G28 ;Home
G1 Z15.0 F6000 ;Move the platform down 15mm
;Prime the extruder
G92 E0
G1 F200 E3
G92 E0
;LAYER_COUNT:88
;LAYER:0
M107
G0 F1200 X48.565 Y74.6 Z0.3
G0 X48.186 Y74.935
;TYPE:SKIRT
G1 X48.565 Y74.6 E0.02524
G1 X48.992 Y74.328 E0.05049
G1 X49.636 Y74.072 E0.08507
G1 X50.167 Y73.925 E0.11256
G1 X50.882 Y73.812 E0.14867
G1 X54.257 Y73.666 E0.31721
G1 X59.738 Y73.181 E0.59172
G1 X65.172 Y72.389 E0.86569
G1 X70.541 Y71.293 E1.13908
G1 X73.166 Y70.64 E1.27403
G1 X75.793 Y69.908 E1.41008
G1 X79.556 Y68.718 E1.60699
G1 X80.049 Y68.604 E1.63223
G1 X80.521 Y68.569 E1.65584
G1 X119.461 Y68.565 E3.59857
G1 X119.965 Y68.605 E3.62379
G1 X120.456 Y68.724 E3.649
G1 X120.923 Y68.918 E3.67423
G1 X121.353 Y69.184 E3.69945
G1 X121.736 Y69.514 E3.72467
G1 X122.062 Y69.901 E3.74992
G1 X122.323 Y70.333 E3.7751
G1 X122.501 Y70.766 E3.79846
G1 X122.957 Y72.154 E3.87134
G1 X123.077 Y72.645 E3.89656
G1 X123.11 Y72.943 E3.91152
G1 X123.192 Y74.189 E3.97382
G1 X123.199 Y74.401 E3.9844
G1 X123.167 Y124.419 E6.47981
G1 X123.131 Y124.895 E6.50362
G1 X123.023 Y125.61 E6.5397
G1 X122.869 Y126.217 E6.57094
G1 X122.48 Y127.296 E6.62817
G1 X122.272 Y127.757 E6.6534
G1 X122.135 Y127.982 E6.66654
G1 X121.44 Y129.028 E6.72919
G1 X120.962 Y129.593 E6.76612
G1 X120.178 Y130.327 E6.8197
G1 X119.65 Y130.727 E6.85275
G1 X118.804 Y131.24 E6.90211
G1 X118.365 Y131.462 E6.92665
G1 X117.868 Y131.667 E6.95347
G1 X117.296 Y131.843 E6.98333
G1 X116.01 Y132.109 E7.04885
G1 X115.363 Y132.175 E7.08129
G1 X84.955 Y132.189 E8.59835
G1 X84.664 Y132.176 E8.61289
G1 X83.884 Y132.105 E8.65196
G1 X83.239 Y131.978 E8.68476
G1 X75.395 Y129.583 E9.09393
G1 X70.086 Y128.298 E9.36645
G1 X64.685 Y127.311 E9.64037
G1 X59.27 Y126.635 E9.91262
G1 X53.766 Y126.261 E10.18785
G1 X50.841 Y126.182 E10.33383
G1 X50.338 Y126.128 E10.35907
G1 X50.008 Y126.048 E10.37601
G1 X49.601 Y125.926 E10.39721
G1 X49.13 Y125.743 E10.42242
G1 X48.693 Y125.488 E10.44766
G1 X48.299 Y125.164 E10.47311
G1 X47.934 Y124.812 E10.49841
G1 X47.599 Y124.434 E10.52361
G1 X47.327 Y124.007 E10.54886
G1 X47.069 Y123.354 E10.58389
G1 X46.923 Y122.821 E10.61146
G1 X46.828 Y122.325 E10.63666
G1 X46.809 Y121.975 E10.65415
G1 X46.81 Y118.009 E10.85201
G1 X46.844 Y117.544 E10.87527
G1 X47.773 Y111.232 E11.19357
G1 X48.256 Y105.76 E11.46763
G1 X48.428 Y100.31 E11.73967
G1 X48.289 Y94.823 E12.0135
G1 X47.844 Y89.382 E12.28586
G1 X46.842 Y82.433 E12.63614
G1 X46.809 Y81.975 E12.65905
G1 X46.81 Y78.01 E12.85686
G1 X46.85 Y77.506 E12.88208
G1 X46.915 Y77.198 E12.89779
G1 X47.044 Y76.707 E12.92312
G1 X47.211 Y76.23 E12.94833
G1 X47.451 Y75.784 E12.9736
G1 X47.835 Y75.299 E13.00446
G1 X48.186 Y74.935 E13.02969
G1 F1500 E6.52969
G0 F1200 X49.954 Y76.716
G0 X50.735 Y77.735
G0 X51.046 Y77.699
G0 X51.04 Y77.6
;TYPE:WALL-INNER
G1 F1500 E13.02969
G1 F1200 X51.96 Y77.6 E13.07559
G1 X52.103 Y77.619 E13.08278
G1 X52.195 Y77.657 E13.08775
G1 X52.279 Y77.721 E13.09302
G1 X52.343 Y77.805 E13.09829
G1 X52.381 Y77.897 E13.10325
G1 X52.4 Y78.04 E13.11045
G1 X52.4 Y80.263 E13.22136
G1 X71.4 Y80.264 E14.16927
G1 X71.6 Y80.264 E14.17925
G1 X71.6 Y80.064 E14.18571
G1 X71.6 Y78.04 E14.28669
G1 X71.619 Y77.897 E14.29388
G1 X71.657 Y77.805 E14.29885
G1 X71.721 Y77.721 E14.30412
G1 X71.805 Y77.657 E14.30939
G1 X71.897 Y77.619 E14.31435
G1 X72.04 Y77.6 E14.32155
G1 X72.96 Y77.6 E14.36745
G1 X73.103 Y77.619 E14.37465
G1 X73.195 Y77.657 E14.37961
G1 X73.279 Y77.721 E14.38488
G1 X73.343 Y77.805 E14.39015
G1 X73.381 Y77.897 E14.39511
G1 X73.4 Y78.04 E14.40231
G1 X73.4 Y81.96 E14.59788
G1 X73.381 Y82.103 E14.60508
G1 X73.343 Y82.195 E14.61004
G1 X73.279 Y82.279 E14.61531
G1 X73.195 Y82.343 E14.62058
G1 X73.103 Y82.381 E14.62555
G1 X72.96 Y82.4 E14.63274
G1 X70.4 Y82.4 E14.76046
G1 X70.4 Y117.6 E16.5166
G1 X72.96 Y117.6 E16.64432
G1 X73.103 Y117.619 E16.65151
G1 X73.195 Y117.657 E16.65648
G1 X73.279 Y117.721 E16.66175
G1 X73.343 Y117.805 E16.66702
G1 X73.381 Y117.897 E16.67198
G1 X73.4 Y118.04 E16.67918
G1 X73.4 Y121.96 E16.87475
G1 X73.381 Y122.103 E16.88195
G1 X73.343 Y122.195 E16.88691
G1 X73.279 Y122.279 E16.89218
G1 X73.195 Y122.343 E16.89745
G1 X73.103 Y122.381 E16.90242
G1 X72.96 Y122.4 E16.90961
G1 X72.04 Y122.4 E16.95551
G1 X71.897 Y122.381 E16.96271
G1 X71.805 Y122.343 E16.96768
G1 X71.721 Y122.279 E16.97294
G1 X71.659 Y122.198 E16.97803
G1 X71.62 Y122.104 E16.98311
G1 X71.6 Y121.924 E16.99215
G1 X71.6 Y119.928 E17.09173
G1 X52.4 Y119.928 E18.04962
G1 X52.4 Y121.924 E18.1492
G1 X52.38 Y122.104 E18.15823
G1 X52.341 Y122.198 E18.16331
G1 X52.279 Y122.279 E18.1684
G1 X52.195 Y122.343 E18.17367
G1 X52.103 Y122.381 E18.17864
G1 X51.96 Y122.4 E18.18583
G1 X51.04 Y122.4 E18.23173
G1 X50.897 Y122.381 E18.23893
G1 X50.805 Y122.343 E18.24389
G1 X50.721 Y122.279 E18.24916
G1 X50.657 Y122.195 E18.25443
G1 X50.619 Y122.103 E18.2594
G1 X50.6 Y121.96 E18.26659
G1 X50.6 Y118.04 E18.46216
G1 X50.619 Y117.897 E18.46936
G1 X50.657 Y117.805 E18.47433
G1 X50.721 Y117.721 E18.4796
G1 X50.805 Y117.657 E18.48486
G1 X50.897 Y117.619 E18.48983
G1 X51.04 Y117.6 E18.49703
G1 X53.6 Y117.6 E18.62475
G1 X53.6 Y82.4 E20.38088
G1 X51.04 Y82.4 E20.5086
G1 X50.897 Y82.381 E20.5158
G1 X50.805 Y82.343 E20.52076
G1 X50.721 Y82.279 E20.52603
G1 X50.657 Y82.195 E20.5313
G1 X50.619 Y82.103 E20.53627
G1 X50.6 Y81.96 E20.54346
G1 X50.6 Y78.04 E20.73903
G1 X50.619 Y77.897 E20.74623
G1 X50.657 Y77.805 E20.7512
G1 X50.721 Y77.721 E20.75646
G1 X50.805 Y77.657 E20.76173
G1 X50.897 Y77.619 E20.7667
G1 X51.04 Y77.6 E20.7739
G0 X51.046 Y77.699
G0 X52.3 Y79.863
G0 X52.8 Y79.863
;TYPE:WALL-OUTER
G1 X71 Y79.864 E21.6819
G1 X71.2 Y79.864 E21.69188
G1 X71.2 Y79.664 E21.69834
G1 X71.2 Y78.011 E21.78081
G1 X71.228 Y77.796 E21.79162
G1 X71.309 Y77.601 E21.80216
G1 X71.436 Y77.436 E21.81254
G1 X71.601 Y77.309 E21.82293
G1 X71.796 Y77.228 E21.83347
G1 X72.011 Y77.2 E21.84428
G1 X72.989 Y77.2 E21.89308
G1 X73.204 Y77.228 E21.90389
G1 X73.399 Y77.309 E21.91443
G1 X73.564 Y77.436 E21.92482
G1 X73.691 Y77.601 E21.9352
G1 X73.772 Y77.796 E21.94574
G1 X73.8 Y78.011 E21.95656
G1 X73.8 Y81.989 E22.15502
G1 X73.772 Y82.204 E22.16584
G1 X73.691 Y82.399 E22.17637
G1 X73.564 Y82.564 E22.18676
G1 X73.399 Y82.691 E22.19715
G1 X73.204 Y82.772 E22.20768
G1 X72.989 Y82.8 E22.2185
G1 X70.8 Y82.8 E22.32771
G1 X70.8 Y117.2 E24.04393
G1 X72.989 Y117.2 E24.15314
G1 X73.204 Y117.228 E24.16396
G1 X73.399 Y117.309 E24.17449
G1 X73.564 Y117.436 E24.18488
G1 X73.691 Y117.601 E24.19527
G1 X73.772 Y117.796 E24.2058
G1 X73.8 Y118.011 E24.21662
G1 X73.8 Y121.989 E24.41508
G1 X73.772 Y122.204 E24.4259
G1 X73.691 Y122.399 E24.43643
G1 X73.564 Y122.564 E24.44682
G1 X73.399 Y122.691 E24.45721
G1 X73.204 Y122.772 E24.46774
G1 X72.989 Y122.8 E24.47856
G1 X72.011 Y122.8 E24.52735
G1 X71.796 Y122.772 E24.53817
G1 X71.601 Y122.691 E24.54871
G1 X71.436 Y122.564 E24.55909
G1 X71.309 Y122.399 E24.56948
G1 X71.23 Y122.208 E24.57979
G1 X71.212 Y122.05 E24.58773
G1 X71.2 Y122.05 E24.58833
G1 X71.2 Y120.328 E24.67424
G1 X52.8 Y120.328 E25.59222
G1 X52.8 Y122.05 E25.67813
G1 X52.788 Y122.05 E25.67873
G1 X52.77 Y122.208 E25.68666
G1 X52.691 Y122.399 E25.69697
G1 X52.564 Y122.564 E25.70736
G1 X52.399 Y122.691 E25.71775
G1 X52.204 Y122.772 E25.72828
G1 X51.989 Y122.8 E25.7391
G1 X51.011 Y122.8 E25.78789
G1 X50.796 Y122.772 E25.79871
G1 X50.601 Y122.691 E25.80924
G1 X50.436 Y122.564 E25.81963
G1 X50.309 Y122.399 E25.83002
G1 X50.228 Y122.204 E25.84055
G1 X50.2 Y121.989 E25.85137
G1 X50.2 Y118.011 E26.04983
G1 X50.228 Y117.796 E26.06065
G1 X50.309 Y117.601 E26.07118
G1 X50.436 Y117.436 E26.08157
G1 X50.601 Y117.309 E26.09196
G1 X50.796 Y117.228 E26.1025
G1 X51.011 Y117.2 E26.11331
G1 X53.2 Y117.2 E26.22252
G1 X53.2 Y82.8 E27.93874
G1 X51.011 Y82.8 E28.04795
G1 X50.796 Y82.772 E28.05877
G1 X50.601 Y82.691 E28.06931
G1 X50.436 Y82.564 E28.07969
G1 X50.309 Y82.399 E28.09008
G1 X50.228 Y82.204 E28.10062
G1 X50.2 Y81.989 E28.11143
G1 X50.2 Y78.011 E28.3099
G1 X50.228 Y77.796 E28.32071
G1 X50.309 Y77.601 E28.33125
G1 X50.436 Y77.436 E28.34164
G1 X50.601 Y77.309 E28.35202
G1 X50.796 Y77.228 E28.36256
G1 X51.011 Y77.2 E28.37338
G1 X51.989 Y77.2 E28.42217
G1 X52.204 Y77.228 E28.43299
G1 X52.399 Y77.309 E28.44352
G1 X52.564 Y77.436 E28.45391
G1 X52.691 Y77.601 E28.4643
G1 X52.772 Y77.796 E28.47483
G1 X52.8 Y78.011 E28.48565
G1 X52.8 Y79.863 E28.57804
G0 X53 Y79.863
G0 X52.723 Y80.441
;TYPE:SKIN
G1 X70.22 Y97.939 E29.81259
G1 X70.29 Y98.009
G0 X70.22 Y98.504
G1 X50.78 Y79.064 E31.18418
G1 X50.71 Y78.994
G0 X50.78 Y79.63
G1 X53.369 Y82.219 E31.36685
G1 X53.439 Y82.289
G0 X52.803 Y82.219
G1 X50.78 Y80.195 E31.50962
G1 X50.71 Y80.125
G0 X50.78 Y80.761
G1 X52.238 Y82.219 E31.61249
G1 X52.308 Y82.289
G0 X51.672 Y82.219
G1 X50.78 Y81.327 E31.67543
G1 X50.71 Y81.257
G0 X50.78 Y81.892
G1 X51.106 Y82.219 E31.69846
G0 X52.219 Y79.938
G1 X50.78 Y78.498 E31.80003
G1 X50.71 Y78.428
G0 X50.793 Y77.946
G1 X52.219 Y79.372 E31.90064
G1 X52.289 Y79.442
G0 X52.219 Y78.807
G1 X51.191 Y77.778 E31.9732
G1 X51.121 Y77.708
G0 X51.757 Y77.778
G1 X52.219 Y78.241 E32.00584
G0 X52.372 Y80.291
G0 X53.288 Y80.441
G1 X70.22 Y97.373 E33.20048
G1 X70.29 Y97.443
G0 X70.22 Y96.807
G1 X53.855 Y80.442 E34.35512
G1 X53.785 Y80.372
G0 X54.421 Y80.442
G1 X70.22 Y96.242 E35.46986
G1 X70.29 Y96.312
G0 X70.22 Y95.676
G1 X54.986 Y80.442 E36.5447
G1 X54.916 Y80.372
G0 X55.552 Y80.442
G1 X70.22 Y95.11 E37.57961
G1 X70.29 Y95.18
G0 X70.22 Y94.545
G1 X56.118 Y80.442 E38.57462
G1 X56.048 Y80.372
G0 X56.683 Y80.442
G1 X70.22 Y93.979 E39.52972
G1 X70.29 Y94.049
G0 X70.22 Y93.413
G1 X57.249 Y80.442 E40.4449
G1 X57.179 Y80.372
G0 X57.815 Y80.442
G1 X70.22 Y92.848 E41.32017
G1 X70.29 Y92.918
G0 X70.22 Y92.282
G1 X58.38 Y80.442 E42.15555
G1 X58.31 Y80.372
G0 X58.946 Y80.442
G1 X70.22 Y91.716 E42.95099
G1 X70.29 Y91.786
G0 X70.22 Y91.151
G1 X59.512 Y80.442 E43.70653
G1 X59.442 Y80.372
G0 X60.077 Y80.442
G1 X70.22 Y90.585 E44.42218
G1 X70.29 Y90.655
G0 X70.22 Y90.019
G1 X60.643 Y80.442 E45.09789
G1 X60.573 Y80.372
G0 X61.209 Y80.442
G1 X70.22 Y89.453 E45.73366
G1 X70.29 Y89.523
G0 X70.22 Y88.888
G1 X61.774 Y80.442 E46.32957
G1 X61.704 Y80.372
G0 X62.34 Y80.442
G1 X70.22 Y88.322 E46.88555
G1 X70.29 Y88.392
G0 X70.22 Y87.756
G1 X62.907 Y80.443 E47.40152
G1 X62.837 Y80.373
G0 X63.472 Y80.443
G1 X70.22 Y87.191 E47.87763
G1 X70.29 Y87.261
G0 X70.22 Y86.625
G1 X64.038 Y80.443 E48.3138
G1 X63.968 Y80.373
G0 X64.604 Y80.443
G1 X70.22 Y86.059 E48.71004
G1 X70.29 Y86.129
G0 X70.22 Y85.494
G1 X65.169 Y80.443 E49.06641
G1 X65.099 Y80.373
G0 X65.735 Y80.443
G1 X70.22 Y84.928 E49.38286
G1 X70.29 Y84.998
G0 X70.22 Y84.362
G1 X66.301 Y80.443 E49.65936
G1 X66.231 Y80.373
G0 X66.866 Y80.443
G1 X70.22 Y83.797 E49.89601
G1 X70.29 Y83.867
G0 X70.22 Y83.231
G1 X67.432 Y80.443 E50.09271
G1 X67.362 Y80.373
G0 X67.998 Y80.443
G1 X70.22 Y82.665 E50.24949
G1 X70.29 Y82.735
G0 X70.339 Y82.218
G1 X68.563 Y80.443 E50.37476
G1 X68.493 Y80.373
G0 X69.129 Y80.443
G1 X70.905 Y82.218 E50.50003
G1 X70.975 Y82.288
G0 X71.47 Y82.218
G1 X69.695 Y80.443 E50.62527
G1 X69.625 Y80.373
G0 X70.26 Y80.443
G1 X72.036 Y82.218 E50.75054
G1 X72.106 Y82.288
G0 X72.602 Y82.218
G1 X70.826 Y80.443 E50.87581
G1 X70.756 Y80.373
G0 X71.392 Y80.443
G1 X73.12 Y82.171 E50.99773
G1 X73.19 Y82.241
G0 X73.22 Y81.705
G1 X71.779 Y80.265 E51.09936
G1 X71.709 Y80.195
G0 X71.779 Y79.699
G1 X73.22 Y81.139 E51.201
G1 X73.29 Y81.209
G0 X73.22 Y80.574
G1 X71.779 Y79.133 E51.30267
G1 X71.709 Y79.063
G0 X71.779 Y78.568
G1 X73.22 Y80.008 E51.4043
G1 X73.29 Y80.078
G0 X73.22 Y79.442
G1 X71.784 Y78.007 E51.50559
G1 X71.714 Y77.937
G0 X72.122 Y77.779
G1 X73.22 Y78.877 E51.58306
G1 X73.29 Y78.947
G0 X73.22 Y78.311
G1 X72.688 Y77.779 E51.62059
G0 X71.628 Y80.292
G0 X53.779 Y82.629
G1 X70.22 Y99.07 E52.78059
G1 X70.29 Y99.14
G0 X70.22 Y99.636
G1 X53.779 Y83.195 E53.94059
G1 X53.709 Y83.125
G0 X53.779 Y83.761
G1 X70.22 Y100.201 E55.10056
G1 X70.29 Y100.271
G0 X70.22 Y100.767
G1 X53.779 Y84.326 E56.26056
G1 X53.709 Y84.256
G0 X53.779 Y84.892
G1 X70.22 Y101.333 E57.42056
G1 X70.29 Y101.403
G0 X70.22 Y101.899
G1 X53.779 Y85.458 E58.58056
G1 X53.709 Y85.388
G0 X53.779 Y86.023
G1 X70.22 Y102.464 E59.74057
G1 X70.29 Y102.534
G0 X70.22 Y103.03
G1 X53.779 Y86.589 E60.90057
G1 X53.709 Y86.519
G0 X53.779 Y87.155
G1 X70.22 Y103.596 E62.06057
G1 X70.29 Y103.666
G0 X70.22 Y104.161
G1 X53.779 Y87.72 E63.22057
G1 X53.709 Y87.65
G0 X53.779 Y88.286
G1 X70.22 Y104.727 E64.38057
G1 X70.29 Y104.797
G0 X70.22 Y105.293
G1 X53.779 Y88.852 E65.54057
G1 X53.709 Y88.782
G0 X53.779 Y89.417
G1 X70.22 Y105.858 E66.70057
G1 X70.29 Y105.928
G0 X70.22 Y106.424
G1 X53.779 Y89.983 E67.86057
G1 X53.709 Y89.913
G0 X53.779 Y90.549
G1 X70.22 Y106.99 E69.02058
G1 X70.29 Y107.06
G0 X70.22 Y107.555
G1 X53.779 Y91.114 E70.18058
G1 X53.709 Y91.044
G0 X53.779 Y91.68
G1 X70.22 Y108.121 E71.34058
G1 X70.29 Y108.191
G0 X70.22 Y108.687
G1 X53.779 Y92.246 E72.50058
G1 X53.709 Y92.176
G0 X53.779 Y92.812
G1 X70.22 Y109.252 E73.66055
G1 X70.29 Y109.322
G0 X70.22 Y109.818
G1 X53.779 Y93.377 E74.82055
G1 X53.709 Y93.307
G0 X53.779 Y93.943
G1 X70.22 Y110.384 E75.98055
G1 X70.29 Y110.454
G0 X70.22 Y110.95
G1 X53.779 Y94.509 E77.14055
G1 X53.709 Y94.439
G0 X53.779 Y95.074
G1 X70.22 Y111.515 E78.30055
G1 X70.29 Y111.585
G0 X70.22 Y112.081
G1 X53.779 Y95.64 E79.46055
G1 X53.709 Y95.57
G0 X53.779 Y96.206
G1 X70.22 Y112.647 E80.62055
G1 X70.29 Y112.717
G0 X70.22 Y113.212
G1 X53.779 Y96.771 E81.78056
G1 X53.709 Y96.701
G0 X53.779 Y97.337
G1 X70.22 Y113.778 E82.94056
G1 X70.29 Y113.848
G0 X70.22 Y114.344
G1 X53.779 Y97.903 E84.10056
G1 X53.709 Y97.833
G0 X53.779 Y98.468
G1 X70.22 Y114.909 E85.26056
G1 X70.29 Y114.979
G0 X70.22 Y115.475
G1 X53.779 Y99.034 E86.42056
G1 X53.709 Y98.964
G0 X53.779 Y99.6
G1 X70.22 Y116.041 E87.58056
G1 X70.29 Y116.111
G0 X70.22 Y116.606
G1 X53.779 Y100.165 E88.74056
G1 X53.709 Y100.095
G0 X53.779 Y100.731
G1 X70.22 Y117.172 E89.90057
G1 X70.29 Y117.242
G0 X70.22 Y117.738
G1 X53.779 Y101.297 E91.06057
G1 X53.709 Y101.227
G0 X53.779 Y101.862
G1 X71.663 Y119.747 E92.32241
G1 X71.733 Y119.817
G0 X71.779 Y119.863
G1 X73.22 Y121.303 E92.42405
G1 X73.29 Y121.373
G0 X73.22 Y120.737
G1 X70.261 Y117.779 E92.63279
G1 X70.191 Y117.709
G0 X70.827 Y117.779
G1 X73.22 Y120.172 E92.80163
G1 X73.29 Y120.242
G0 X73.22 Y119.606
G1 X71.393 Y117.779 E92.93053
G1 X71.323 Y117.709
G0 X71.958 Y117.779
G1 X73.22 Y119.04 E93.01954
G1 X73.29 Y119.11
G0 X73.22 Y118.475
G1 X72.524 Y117.779 E93.06864
G1 X72.454 Y117.709
G0 X71.098 Y119.747
G1 X53.779 Y102.428 E94.29059
G1 X53.709 Y102.358
G0 X53.779 Y102.994
G1 X70.532 Y119.747 E95.47261
G1 X70.602 Y119.817
G0 X69.966 Y119.747
G1 X53.779 Y103.56 E96.61469
G1 X53.709 Y103.49
G0 X53.779 Y104.125
G1 X69.401 Y119.747 E97.7169
G1 X69.471 Y119.817
G0 X68.835 Y119.747
G1 X53.779 Y104.691 E98.77919
G1 X53.709 Y104.621
G0 X53.779 Y105.257
G1 X68.269 Y119.747 E99.80153
G1 X68.339 Y119.817
G0 X67.704 Y119.747
G1 X53.779 Y105.822 E100.78402
G1 X53.709 Y105.752
G0 X53.779 Y106.388
G1 X67.138 Y119.747 E101.72657
G1 X67.208 Y119.817
G0 X66.572 Y119.747
G1 X53.779 Y106.954 E102.62918
G1 X53.709 Y106.884
G0 X53.779 Y107.519
G1 X66.007 Y119.747 E103.49193
G1 X66.077 Y119.817
G0 X65.441 Y119.747
G1 X53.779 Y108.085 E104.31475
G1 X53.709 Y108.015
G0 X53.779 Y108.651
G1 X64.875 Y119.747 E105.09763
G1 X64.945 Y119.817
G0 X64.309 Y119.747
G1 X53.779 Y109.216 E105.84062
G1 X53.709 Y109.146
G0 X53.779 Y109.782
G1 X63.744 Y119.747 E106.5437
G1 X63.814 Y119.817
G0 X63.178 Y119.747
G1 X53.779 Y110.348 E107.20685
G1 X53.709 Y110.278
G0 X53.779 Y110.913
G1 X62.612 Y119.747 E107.8301
G1 X62.682 Y119.817
G0 X62.047 Y119.747
G1 X53.779 Y111.479 E108.41346
G1 X53.709 Y111.409
G0 X53.779 Y112.045
G1 X61.481 Y119.747 E108.95687
G1 X61.551 Y119.817
G0 X60.915 Y119.747
G1 X53.779 Y112.61 E109.46039
G1 X53.709 Y112.54
G0 X53.779 Y113.176
G1 X60.35 Y119.747 E109.92401
G1 X60.42 Y119.817
G0 X59.784 Y119.747
G1 X53.779 Y113.742 E110.3477
G1 X53.709 Y113.672
G0 X53.779 Y114.308
