;FLAVOR:RepRap
;TIME:8042
;Filament used: 5.92048m
;Layer height: 0.2
;Generated with Cura_SteamEngine 2.6.0
M190 S50
M104 S195
M109 S195
G28 ;Home
G1 Z15.0 F6000 ;Move the platform down 15mm
;Prime the extruder
G92 E0
G1 F200 E3
G92 E0
;LAYER_COUNT:35
;LAYER:0
M107
G0 F1200 X33.146 Y75.766 Z0.3
G0 X33.805 Y75.597
;TYPE:SKIRT
G1 X41.439 Y74.484 E0.38489
G1 X46.791 Y73.336 E0.65797
G1 X49.405 Y72.657 E0.79272
G1 X54.654 Y71.054 E1.06653
G1 X59.804 Y69.156 E1.34036
G1 X64.818 Y66.979 E1.61307
G1 X69.709 Y64.518 E1.88623
G1 X74.461 Y61.78 E2.15984
G1 X79.04 Y58.784 E2.43285
G1 X83.444 Y55.533 E2.70594
G1 X87.653 Y52.041 E2.97879
G1 X91.695 Y48.283 E3.25414
G1 X93.583 Y46.372 E3.38816
G1 X97.281 Y42.294 E3.66281
G1 X99.542 Y39.558 E3.83989
G1 X99.894 Y39.195 E3.86511
G1 X100.349 Y38.86 E3.8933
G1 X100.789 Y38.593 E3.91898
G1 X101.241 Y38.366 E3.94421
G1 X101.722 Y38.213 E3.9694
G1 X102.339 Y38.131 E4.00045
G1 X103.616 Y38.087 E4.0642
G1 X103.879 Y38.089 E4.07732
G1 X105.711 Y38.176 E4.16882
G1 X111.262 Y38.249 E4.44578
G1 X116.708 Y38.093 E4.7176
G1 X117.213 Y38.119 E4.74282
G1 X117.719 Y38.227 E4.76864
G1 X118.126 Y38.349 E4.78984
G1 X118.597 Y38.532 E4.81505
G1 X119.034 Y38.787 E4.84029
G1 X119.432 Y39.114 E4.86599
G1 X119.804 Y39.474 E4.89181
G1 X120.273 Y40.047 E4.92876
G1 X121.735 Y42.327 E5.06388
G1 X124.895 Y46.822 E5.33801
G1 X128.288 Y51.113 E5.61093
G1 X131.934 Y55.222 E5.88499
G1 X135.803 Y59.118 E6.15893
G1 X137.783 Y60.946 E6.29337
G1 X141.969 Y64.498 E6.56726
G1 X146.334 Y67.798 E6.84026
G1 X150.878 Y70.844 E7.11319
G1 X155.606 Y73.639 E7.3872
G1 X160.462 Y76.152 E7.65999
G1 X165.499 Y78.406 E7.9353
G1 X167.401 Y79.172 E8.0376
G1 X167.854 Y79.397 E8.06283
G1 X168.421 Y79.83 E8.09842
G1 X168.787 Y80.181 E8.12372
G1 X169.123 Y80.559 E8.14895
G1 X169.395 Y80.985 E8.17417
G1 X169.597 Y81.448 E8.19937
G1 X169.721 Y81.92 E8.22372
G1 X169.876 Y82.774 E8.26702
G1 X169.927 Y83.36 E8.29637
G1 X169.91 Y87.088 E8.48236
G1 X169.876 Y87.541 E8.50502
G1 X168.954 Y93.775 E8.81942
G1 X168.471 Y99.24 E9.09314
G1 X168.299 Y104.688 E9.36507
G1 X168.438 Y110.177 E9.63901
G1 X168.883 Y115.618 E9.91137
G1 X169.885 Y122.565 E10.26154
G1 X169.918 Y123.023 E10.28445
G1 X169.917 Y126.991 E10.48241
G1 X169.877 Y127.495 E10.50764
G1 X169.812 Y127.805 E10.52344
G1 X169.683 Y128.295 E10.54872
G1 X169.516 Y128.772 E10.57393
G1 X169.276 Y129.217 E10.59916
G1 X168.892 Y129.701 E10.62998
G1 X168.541 Y130.065 E10.65521
G1 X168.162 Y130.4 E10.68045
G1 X167.735 Y130.672 E10.7057
G1 X167.189 Y130.899 E10.7352
G1 X161.966 Y132.527 E11.00815
G1 X156.822 Y134.409 E11.28142
G1 X151.787 Y136.581 E11.55499
G1 X146.889 Y139.031 E11.82822
G1 X142.144 Y141.751 E12.10108
G1 X137.554 Y144.738 E12.3743
G1 X133.145 Y147.976 E12.64721
G1 X128.917 Y151.467 E12.92076
G1 X124.881 Y155.202 E13.19511
G1 X122.97 Y157.126 E13.3304
G1 X119.574 Y160.755 E13.57836
G1 X119.2 Y161.096 E13.60361
G1 X118.778 Y161.374 E13.62882
G1 X118.317 Y161.581 E13.65403
G1 X117.816 Y161.716 E13.67992
G1 X116.973 Y161.871 E13.72268
G1 X116.289 Y161.922 E13.7569
G1 X110.983 Y161.748 E14.02176
G1 X102.553 Y161.885 E14.44239
G1 X102.048 Y161.853 E14.46764
G1 X101.555 Y161.742 E14.49285
G1 X100.906 Y161.459 E14.52817
G1 X100.372 Y161.152 E14.5589
G1 X100.006 Y160.907 E14.58088
G1 X96.782 Y158.408 E14.78438
G1 X92.289 Y155.252 E15.05831
G1 X87.632 Y152.359 E15.33183
G1 X82.847 Y149.749 E15.60376
G1 X77.874 Y147.392 E15.87832
G1 X72.774 Y145.316 E16.15303
G1 X70.251 Y144.416 E16.28668
G1 X65.017 Y142.79 E16.56011
G1 X59.672 Y141.454 E16.83498
G1 X56.974 Y140.9 E16.97239
G1 X54.334 Y140.437 E17.10611
G1 X48.895 Y139.718 E17.37983
G1 X43.401 Y139.305 E17.6547
G1 X37.793 Y139.116 E17.93464
G1 X37.109 Y139.018 E17.96911
G1 X36.275 Y138.805 E18.01206
G1 X35.757 Y138.625 E18.03941
G1 X35.037 Y138.302 E18.07878
G1 X34.588 Y138.055 E18.10435
G1 X33.857 Y137.574 E18.14801
G1 X33.299 Y137.108 E18.18428
G1 X32.375 Y136.138 E18.25111
G1 X32.056 Y135.746 E18.27633
G1 X31.861 Y135.422 E18.29519
G1 X31.187 Y134.142 E18.36737
G1 X30.987 Y133.677 E18.39262
G1 X30.899 Y133.367 E18.4087
G1 X30.653 Y132.295 E18.46357
G1 X30.572 Y131.581 E18.49942
G1 X30.541 Y80.83 E21.0314
G1 X30.571 Y80.388 E21.0535
G1 X30.712 Y79.372 E21.10467
G1 X30.8 Y78.952 E21.12608
G1 X30.91 Y78.558 E21.14649
G1 X30.989 Y78.312 E21.15938
G1 X31.08 Y78.065 E21.17251
G1 X31.164 Y77.859 E21.18361
G1 X31.347 Y77.452 E21.20588
G1 X31.591 Y77.008 E21.23115
G1 X31.9 Y76.609 E21.25633
G1 X32.269 Y76.263 E21.28157
G1 X32.688 Y75.98 E21.30679
G1 X33.146 Y75.766 E21.33201
G1 X33.805 Y75.597 E21.36595
G1 F1500 E14.86595
G0 F1200 X101.092 Y61.991
G0 X102.365 Y61.823
G0 X102.442 Y61.803
G0 X102.346 Y61.828
;TYPE:WALL-INNER
G1 F1500 E21.36595
G1 F1200 X102.327 Y61.685 E21.37315
G1 X102.327 Y58.765 E21.51883
G1 X102.346 Y58.622 E21.52603
G1 X102.384 Y58.53 E21.53099
G1 X102.448 Y58.446 E21.53626
G1 X102.532 Y58.382 E21.54153
G1 X102.624 Y58.344 E21.5465
G1 X102.767 Y58.325 E21.55369
G1 X105.327 Y58.325 E21.68141
G1 X105.327 Y45.675 E22.31252
G1 X102.767 Y45.675 E22.44024
G1 X102.624 Y45.656 E22.44744
G1 X102.532 Y45.618 E22.45241
G1 X102.448 Y45.554 E22.45767
G1 X102.384 Y45.47 E22.46294
G1 X102.346 Y45.378 E22.46791
G1 X102.327 Y45.235 E22.47511
G1 X102.327 Y42.315 E22.62078
G1 X102.346 Y42.172 E22.62798
G1 X102.384 Y42.08 E22.63295
G1 X102.448 Y41.996 E22.63822
G1 X102.532 Y41.932 E22.64349
G1 X102.624 Y41.894 E22.64845
G1 X102.767 Y41.875 E22.65565
G1 X103.687 Y41.875 E22.70155
G1 X103.83 Y41.894 E22.70874
G1 X103.922 Y41.932 E22.71371
G1 X104.006 Y41.996 E22.71898
G1 X104.07 Y42.08 E22.72425
G1 X104.108 Y42.172 E22.72921
G1 X104.127 Y42.315 E22.73641
G1 X104.127 Y43.929 E22.81693
G1 X104.127 Y44.129 E22.82691
G1 X104.327 Y44.129 E22.83337
G1 X115.327 Y44.128 E23.38216
G1 X115.327 Y42.315 E23.47262
G1 X115.346 Y42.172 E23.47981
G1 X115.384 Y42.08 E23.48478
G1 X115.448 Y41.996 E23.49005
G1 X115.532 Y41.932 E23.49532
G1 X115.624 Y41.894 E23.50028
G1 X115.767 Y41.875 E23.50748
G1 X116.687 Y41.875 E23.55338
G1 X116.83 Y41.894 E23.56057
G1 X116.922 Y41.932 E23.56554
G1 X117.006 Y41.996 E23.57081
G1 X117.07 Y42.08 E23.57608
G1 X117.108 Y42.172 E23.58104
G1 X117.127 Y42.315 E23.58824
G1 X117.127 Y45.235 E23.73392
G1 X117.108 Y45.378 E23.74112
G1 X117.07 Y45.47 E23.74608
G1 X117.006 Y45.554 E23.75135
G1 X116.922 Y45.618 E23.75662
G1 X116.83 Y45.656 E23.76159
G1 X116.687 Y45.675 E23.76878
G1 X114.127 Y45.675 E23.8965
G1 X114.127 Y58.325 E24.52761
G1 X116.687 Y58.325 E24.65533
G1 X116.83 Y58.344 E24.66253
G1 X116.922 Y58.382 E24.66749
G1 X117.006 Y58.446 E24.67276
G1 X117.07 Y58.53 E24.67803
G1 X117.108 Y58.622 E24.683
G1 X117.127 Y58.765 E24.69019
G1 X117.127 Y61.685 E24.83587
G1 X117.108 Y61.828 E24.84307
G1 X117.07 Y61.92 E24.84804
G1 X117.006 Y62.004 E24.85331
G1 X116.922 Y62.068 E24.85857
G1 X116.83 Y62.106 E24.86354
G1 X116.687 Y62.125 E24.87074
G1 X115.767 Y62.125 E24.91664
G1 X115.624 Y62.106 E24.92383
G1 X115.532 Y62.068 E24.9288
G1 X115.448 Y62.004 E24.93407
G1 X115.386 Y61.923 E24.93916
G1 X115.347 Y61.829 E24.94423
G1 X115.327 Y61.649 E24.95327
G1 X115.327 Y59.595 E25.05574
G1 X104.127 Y59.595 E25.61451
G1 X104.127 Y61.649 E25.71699
G1 X104.107 Y61.829 E25.72602
G1 X104.068 Y61.923 E25.7311
G1 X104.006 Y62.004 E25.73619
G1 X103.922 Y62.068 E25.74146
G1 X103.83 Y62.106 E25.74643
G1 X103.687 Y62.125 E25.75362
G1 X102.767 Y62.125 E25.79952
G1 X102.624 Y62.106 E25.80672
G1 X102.532 Y62.068 E25.81168
G1 X102.448 Y62.004 E25.81695
G1 X102.384 Y61.92 E25.82222
G1 X102.346 Y61.828 E25.82719
G0 X102.442 Y61.803
G0 X104.019 Y61.719
G0 X104.515 Y61.775
;TYPE:WALL-OUTER
G1 X104.497 Y61.933 E25.83512
G1 X104.418 Y62.124 E25.84543
G1 X104.291 Y62.289 E25.85582
G1 X104.126 Y62.416 E25.86621
G1 X103.931 Y62.497 E25.87674
G1 X103.716 Y62.525 E25.88756
G1 X102.738 Y62.525 E25.93635
G1 X102.523 Y62.497 E25.94717
G1 X102.328 Y62.416 E25.9577
G1 X102.163 Y62.289 E25.96809
G1 X102.036 Y62.124 E25.97848
G1 X101.955 Y61.929 E25.98902
G1 X101.927 Y61.714 E25.99983
G1 X101.927 Y58.736 E26.14841
G1 X101.955 Y58.521 E26.15922
G1 X102.036 Y58.326 E26.16976
G1 X102.163 Y58.161 E26.18014
G1 X102.328 Y58.034 E26.19053
G1 X102.523 Y57.953 E26.20107
G1 X102.738 Y57.925 E26.21188
G1 X104.927 Y57.925 E26.32109
G1 X104.927 Y46.075 E26.91229
G1 X102.738 Y46.075 E27.0215
G1 X102.523 Y46.047 E27.03232
G1 X102.328 Y45.966 E27.04285
G1 X102.163 Y45.839 E27.05324
G1 X102.036 Y45.674 E27.06363
G1 X101.955 Y45.479 E27.07416
G1 X101.927 Y45.264 E27.08498
G1 X101.927 Y42.286 E27.23355
G1 X101.955 Y42.071 E27.24437
G1 X102.036 Y41.876 E27.25491
G1 X102.163 Y41.711 E27.26529
G1 X102.328 Y41.584 E27.27568
G1 X102.523 Y41.503 E27.28622
G1 X102.738 Y41.475 E27.29703
G1 X103.716 Y41.475 E27.34583
G1 X103.931 Y41.503 E27.35664
G1 X104.126 Y41.584 E27.36718
G1 X104.291 Y41.711 E27.37756
G1 X104.418 Y41.876 E27.38795
G1 X104.499 Y42.071 E27.39849
G1 X104.527 Y42.286 E27.4093
G1 X104.527 Y43.529 E27.47132
G1 X104.527 Y43.729 E27.4813
G1 X104.727 Y43.729 E27.48776
G1 X114.927 Y43.728 E27.99664
G1 X114.927 Y42.286 E28.06858
G1 X114.955 Y42.071 E28.0794
G1 X115.036 Y41.876 E28.08993
G1 X115.163 Y41.711 E28.10032
G1 X115.328 Y41.584 E28.11071
G1 X115.523 Y41.503 E28.12124
G1 X115.738 Y41.475 E28.13206
G1 X116.716 Y41.475 E28.18085
G1 X116.931 Y41.503 E28.19167
G1 X117.126 Y41.584 E28.2022
G1 X117.291 Y41.711 E28.21259
G1 X117.418 Y41.876 E28.22298
G1 X117.499 Y42.071 E28.23351
G1 X117.527 Y42.286 E28.24433
G1 X117.527 Y45.264 E28.3929
G1 X117.499 Y45.479 E28.40372
G1 X117.418 Y45.674 E28.41425
G1 X117.291 Y45.839 E28.42464
G1 X117.126 Y45.966 E28.43503
G1 X116.931 Y46.047 E28.44556
G1 X116.716 Y46.075 E28.45638
G1 X114.527 Y46.075 E28.56559
G1 X114.527 Y57.925 E29.15679
G1 X116.716 Y57.925 E29.266
G1 X116.931 Y57.953 E29.27682
G1 X117.126 Y58.034 E29.28735
G1 X117.291 Y58.161 E29.29774
G1 X117.418 Y58.326 E29.30813
G1 X117.499 Y58.521 E29.31866
G1 X117.527 Y58.736 E29.32948
G1 X117.527 Y61.714 E29.47805
G1 X117.499 Y61.929 E29.48887
G1 X117.418 Y62.124 E29.4994
G1 X117.291 Y62.289 E29.50979
G1 X117.126 Y62.416 E29.52018
G1 X116.931 Y62.497 E29.53071
G1 X116.716 Y62.525 E29.54153
G1 X115.738 Y62.525 E29.59032
G1 X115.523 Y62.497 E29.60114
G1 X115.328 Y62.416 E29.61167
G1 X115.163 Y62.289 E29.62206
G1 X115.036 Y62.124 E29.63245
G1 X114.957 Y61.933 E29.64276
G1 X114.939 Y61.775 E29.6507
G1 X114.927 Y61.775 E29.65129
G1 X114.927 Y59.995 E29.7401
G1 X104.527 Y59.995 E30.25896
G1 X104.527 Y61.775 E30.34776
G1 X104.515 Y61.775 E30.34836
G0 X104.497 Y61.933
G0 X104.482 Y61.971
G0 X103.787 Y61.926
;TYPE:SKIN
G1 X102.506 Y60.645 E30.43874
G1 X102.436 Y60.575
G0 X102.506 Y60.08
G1 X103.946 Y61.519 E30.54031
G1 X104.016 Y61.589
G0 X103.946 Y60.954
G1 X102.506 Y59.514 E30.64191
G1 X102.436 Y59.444
G0 X102.506 Y58.948
G1 X103.946 Y60.388 E30.74351
G1 X104.016 Y60.458
G0 X103.946 Y59.822
G1 X102.651 Y58.527 E30.83487
G1 X102.581 Y58.457
G0 X103.193 Y58.504
G1 X104.103 Y59.414 E30.89908
G1 X104.173 Y59.484
G0 X104.669 Y59.414
G1 X103.759 Y58.504 E30.96329
G1 X103.689 Y58.434
G0 X104.325 Y58.504
G1 X105.235 Y59.414 E31.02749
G1 X105.305 Y59.484
G0 X105.8 Y59.414
G1 X104.89 Y58.504 E31.0917
G1 X104.82 Y58.434
G0 X105.456 Y58.504
G1 X106.366 Y59.414 E31.1559
G1 X106.436 Y59.484
G0 X106.932 Y59.414
G1 X105.505 Y57.988 E31.25655
G1 X105.435 Y57.918
G0 X105.505 Y57.422
G1 X107.497 Y59.414 E31.3971
G1 X107.567 Y59.484
G0 X108.063 Y59.414
G1 X105.505 Y56.857 E31.57754
G1 X105.435 Y56.787
G0 X105.505 Y56.291
G1 X108.629 Y59.414 E31.79792
G1 X108.699 Y59.484
G0 X109.194 Y59.414
G1 X105.505 Y55.725 E32.0582
G1 X105.435 Y55.655
G0 X105.505 Y55.159
G1 X109.76 Y59.414 E32.35841
G1 X109.83 Y59.484
G0 X110.326 Y59.414
G1 X105.505 Y54.594 E32.69853
G1 X105.435 Y54.524
G0 X105.505 Y54.028
G1 X110.892 Y59.414 E33.07857
G1 X110.962 Y59.484
G0 X111.457 Y59.414
G1 X105.505 Y53.462 E33.49852
G1 X105.435 Y53.392
G0 X105.505 Y52.897
G1 X112.023 Y59.414 E33.95836
G1 X112.093 Y59.484
G0 X112.589 Y59.414
G1 X105.505 Y52.331 E34.45814
G1 X105.435 Y52.261
G0 X105.505 Y51.765
G1 X113.154 Y59.414 E34.99782
G1 X113.224 Y59.484
G0 X113.72 Y59.414
G1 X105.505 Y51.2 E35.5774
G1 X105.435 Y51.13
G0 X105.505 Y50.634
G1 X114.286 Y59.414 E36.19691
G1 X114.356 Y59.484
G0 X114.851 Y59.414
G1 X105.505 Y50.068 E36.85632
G1 X105.435 Y49.998
G0 X105.505 Y49.503
G1 X113.946 Y57.943 E37.45184
G1 X114.016 Y58.013
G0 X113.946 Y57.377
G1 X105.505 Y48.937 E38.04737
G1 X105.435 Y48.867
G0 X105.505 Y48.371
G1 X113.946 Y56.811 E38.64289
G1 X114.016 Y56.881
G0 X113.946 Y56.246
G1 X105.505 Y47.806 E39.23841
G1 X105.435 Y47.736
G0 X105.505 Y47.24
G1 X113.946 Y55.68 E39.83393
G1 X114.016 Y55.75
G0 X113.946 Y55.114
G1 X105.505 Y46.674 E40.42946
G1 X105.435 Y46.604
G0 X105.505 Y46.109
G1 X113.946 Y54.549 E41.02498
G1 X114.016 Y54.619
G0 X113.946 Y53.983
G1 X105.505 Y45.543 E41.6205
G1 X105.435 Y45.473
G0 X105.457 Y45.495
G1 X104.271 Y44.308 E41.70422
G1 X104.201 Y44.238
G0 X103.946 Y43.983
G1 X102.506 Y42.543 E41.80582
G1 X102.436 Y42.473
G0 X102.619 Y42.091
G1 X103.946 Y43.417 E41.89941
G1 X104.016 Y43.487
G0 X103.946 Y42.852
G1 X103.149 Y42.055 E41.95564
G1 X103.079 Y41.985
G0 X103.721 Y42.061
G1 X103.94 Y42.28 E41.97109
G0 X102.506 Y43.109
G1 X104.892 Y45.495 E42.13944
G1 X104.962 Y45.565
G0 X104.326 Y45.495
G1 X102.506 Y43.675 E42.26785
G1 X102.436 Y43.605
G0 X102.506 Y44.24
G1 X103.76 Y45.495 E42.35636
G1 X103.83 Y45.565
G0 X103.195 Y45.495
G1 X102.506 Y44.806 E42.40497
G1 X102.436 Y44.736
G0 X104.837 Y44.308
G1 X113.946 Y53.417 E43.04766
G1 X114.016 Y53.487
G0 X113.946 Y52.851
G1 X105.402 Y44.308 E43.65045
G1 X105.332 Y44.238
G0 X105.968 Y44.308
G1 X113.946 Y52.286 E44.21334
G1 X114.016 Y52.356
G0 X113.946 Y51.72
G1 X106.534 Y44.308 E44.7363
G1 X106.464 Y44.238
G0 X107.099 Y44.308
G1 X113.946 Y51.154 E45.21936
G1 X114.016 Y51.224
G0 X113.946 Y50.589
G1 X107.665 Y44.308 E45.66252
G1 X107.595 Y44.238
G0 X108.231 Y44.308
G1 X113.946 Y50.023 E46.06574
G1 X114.016 Y50.093
G0 X113.946 Y49.457
G1 X108.796 Y44.308 E46.42906
G1 X108.726 Y44.238
G0 X109.362 Y44.308
G1 X113.946 Y48.892 E46.75249
G1 X114.016 Y48.962
G0 X113.946 Y48.326
G1 X109.928 Y44.308 E47.03598
G1 X109.858 Y44.238
G0 X110.493 Y44.308
G1 X113.946 Y47.76 E47.27957
G1 X114.016 Y47.83
G0 X113.946 Y47.195
G1 X111.059 Y44.308 E47.48327
G1 X110.989 Y44.238
G0 X111.625 Y44.308
G1 X113.946 Y46.629 E47.64703
G1 X114.016 Y46.699
G0 X113.946 Y46.063
G1 X112.19 Y44.308 E47.77089
G1 X112.12 Y44.238
G0 X112.756 Y44.308
G1 X113.946 Y45.498 E47.85485
G1 X114.016 Y45.568
G0 X114.508 Y45.494
G1 X113.322 Y44.308 E47.93853
G1 X113.252 Y44.238
G0 X113.888 Y44.308
G1 X115.073 Y45.494 E48.02217
G1 X115.143 Y45.564
G0 X115.639 Y45.494
G1 X114.453 Y44.308 E48.10585
G1 X114.383 Y44.238
G0 X115.018 Y44.308
G1 X116.205 Y45.494 E48.18956
G1 X116.275 Y45.564
G0 X116.759 Y45.483
G1 X115.506 Y44.23 E48.27797
G1 X115.436 Y44.16
G0 X115.506 Y43.664
G1 X116.946 Y45.104 E48.37957
G1 X117.016 Y45.174
G0 X116.946 Y44.538
G1 X115.506 Y43.098 E48.48117
G1 X115.436 Y43.028
G0 X115.506 Y42.533
G1 X116.946 Y43.972 E48.58273
G1 X117.016 Y44.042
G0 X116.946 Y43.407
G1 X115.627 Y42.088 E48.6758
G1 X115.557 Y42.018
G0 X116.159 Y42.055
G1 X116.946 Y42.841 E48.73129
G1 X117.016 Y42.911
G0 X116.939 Y42.268
G1 X116.733 Y42.062 E48.74582
G0 X116.617 Y45.634
G0 X114.099 Y45.647
G0 X114.099 Y58.353
G0 X116.205 Y58.505
G1 X116.946 Y59.246 E48.7981
G1 X117.016 Y59.316
G0 X116.946 Y59.812
G1 X115.639 Y58.505 E48.89032
G1 X115.569 Y58.435
G0 X115.073 Y58.505
G1 X116.946 Y60.377 E49.02243
G1 X117.016 Y60.447
G0 X116.946 Y60.943
G1 X115.505 Y59.503 E49.12407
G1 X115.435 Y59.433
G0 X115.417 Y59.414
G1 X114.508 Y58.505 E49.1882
G1 X114.438 Y58.435
G0 X115.355 Y59.567
G0 X115.505 Y60.068
G1 X116.946 Y61.509 E49.28987
G1 X117.016 Y61.579
G0 X116.796 Y61.924
G1 X115.505 Y60.634 E49.38093
G1 X115.435 Y60.564
G0 X115.505 Y61.2
G1 X116.25 Y61.944 E49.43345
G1 X116.32 Y62.014
G0 X115.671 Y61.931
G1 X115.521 Y61.781 E49.44404
G0 X116.93 Y58.665
G1 X116.786 Y58.52 E49.45423
G0 X104.099 Y59.567
G0 X103.24 Y61.945
G1 X102.506 Y61.211 E49.50602
G1 X102.436 Y61.141
