;FLAVOR:RepRap
;TIME:1861
;Filament used: 0.358546m
;Layer height: 0.1
;Generated with Cura_SteamEngine 2.6.0
M190 S60
M104 S200
M109 S200
G21 ;metric values
G90 ;absolute positioning
M82 ;set extruder to absolute mode
M107 ;start with the fan off
G28 X0 Y0 ;move X/Y to min endstops
G28 Z0 ;move Z to min endstops
G1 Z15.0 F9000 ;move the platform down 15mm
G92 E0 ;zero the extruded length
G1 F200 E3 ;extrude 3mm of feed stock
G92 E0 ;zero the extruded length again
G1 F9000
;Put printing message on LCD screen
M117 Printing...
;LAYER_COUNT:248
;LAYER:0
M107
G0 F3600 X82.123 Y81.849 Z0.3
;TYPE:SKIRT
G1 F1800 X82.722 Y81.334 E0.01486
G1 X83.37 Y80.883 E0.02971
G1 X84.061 Y80.499 E0.04458
G1 X84.786 Y80.187 E0.05943
G1 X85.539 Y79.95 E0.07428
G1 X86.313 Y79.791 E0.08914
G1 X87.098 Y79.71 E0.10398
G1 X87.5 Y79.7 E0.11155
G1 X92.5 Y79.7 E0.2056
G1 X93.289 Y79.74 E0.22046
G1 X94.069 Y79.859 E0.2353
G1 X94.834 Y80.057 E0.25017
G1 X95.574 Y80.331 E0.26501
G1 X96.283 Y80.679 E0.27987
G1 X96.954 Y81.097 E0.29474
G1 X97.578 Y81.58 E0.30958
G1 X98.151 Y82.123 E0.32443
G1 X98.666 Y82.722 E0.33929
G1 X99.117 Y83.37 E0.35414
G1 X99.501 Y84.061 E0.36901
G1 X99.813 Y84.786 E0.38386
G1 X99.907 Y85.084 E0.38974
G1 X100.574 Y85.331 E0.40312
G1 X101.283 Y85.679 E0.41797
G1 X101.954 Y86.097 E0.43284
G1 X102.578 Y86.58 E0.44769
G1 X103.151 Y87.123 E0.46254
G1 X103.666 Y87.722 E0.4774
G1 X104.117 Y88.37 E0.49225
G1 X104.501 Y89.061 E0.50712
G1 X104.813 Y89.786 E0.52196
G1 X104.907 Y90.084 E0.52784
G1 X105.574 Y90.331 E0.54122
G1 X106.283 Y90.679 E0.55608
G1 X106.954 Y91.097 E0.57095
G1 X107.578 Y91.58 E0.58579
G1 X108.151 Y92.123 E0.60064
G1 X108.666 Y92.722 E0.6155
G1 X109.117 Y93.37 E0.63035
G1 X109.501 Y94.061 E0.64522
G1 X109.813 Y94.786 E0.66007
G1 X109.907 Y95.084 E0.66595
G1 X110.574 Y95.331 E0.67933
G1 X111.283 Y95.679 E0.69418
G1 X111.954 Y96.097 E0.70905
G1 X112.578 Y96.58 E0.7239
G1 X113.151 Y97.123 E0.73875
G1 X113.666 Y97.722 E0.7536
G1 X114.117 Y98.37 E0.76846
G1 X114.501 Y99.061 E0.78333
G1 X114.813 Y99.786 E0.79817
G1 X114.907 Y100.084 E0.80405
G1 X115.574 Y100.331 E0.81743
G1 X116.283 Y100.679 E0.83229
G1 X116.954 Y101.097 E0.84716
G1 X117.578 Y101.58 E0.862
G1 X118.151 Y102.123 E0.87685
G1 X118.666 Y102.722 E0.89171
G1 X119.117 Y103.37 E0.90656
G1 X119.501 Y104.061 E0.92143
G1 X119.813 Y104.786 E0.93628
G1 X120.05 Y105.539 E0.95113
G1 X120.209 Y106.313 E0.96599
G1 X120.29 Y107.098 E0.98083
G1 X120.3 Y107.5 E0.9884
G1 X120.3 Y112.5 E1.08245
G1 X120.26 Y113.289 E1.09731
G1 X120.141 Y114.069 E1.11215
G1 X119.943 Y114.834 E1.12702
G1 X119.669 Y115.574 E1.14186
G1 X119.321 Y116.283 E1.15672
G1 X118.903 Y116.954 E1.17159
G1 X118.42 Y117.578 E1.18643
G1 X117.877 Y118.151 E1.20128
G1 X117.278 Y118.666 E1.21614
G1 X116.63 Y119.117 E1.23099
G1 X115.939 Y119.501 E1.24586
G1 X115.214 Y119.813 E1.26071
G1 X114.461 Y120.05 E1.27556
G1 X113.687 Y120.209 E1.29042
G1 X112.902 Y120.29 E1.30527
G1 X112.5 Y120.3 E1.31283
G1 X102.5 Y120.3 E1.50094
G1 X101.711 Y120.26 E1.5158
G1 X100.931 Y120.141 E1.53064
G1 X100.166 Y119.943 E1.5455
G1 X99.426 Y119.669 E1.56035
G1 X98.717 Y119.321 E1.5752
G1 X98.046 Y118.903 E1.59007
G1 X97.497 Y118.478 E1.60313
G1 X97.278 Y118.666 E1.60856
G1 X96.63 Y119.117 E1.62341
G1 X95.939 Y119.501 E1.63828
G1 X95.214 Y119.813 E1.65313
G1 X94.461 Y120.05 E1.66798
G1 X93.687 Y120.209 E1.68284
G1 X92.902 Y120.29 E1.69769
G1 X92.5 Y120.3 E1.70525
G1 X87.5 Y120.3 E1.79931
G1 X86.711 Y120.26 E1.81417
G1 X85.931 Y120.141 E1.82901
G1 X85.166 Y119.943 E1.84387
G1 X84.426 Y119.669 E1.85872
G1 X83.717 Y119.321 E1.87357
G1 X83.046 Y118.903 E1.88844
G1 X82.422 Y118.42 E1.90329
G1 X81.849 Y117.877 E1.91814
G1 X81.334 Y117.278 E1.93299
G1 X80.883 Y116.63 E1.94785
G1 X80.499 Y115.939 E1.96272
G1 X80.187 Y115.214 E1.97756
G1 X79.95 Y114.461 E1.99241
G1 X79.791 Y113.687 E2.00728
G1 X79.71 Y112.902 E2.02212
G1 X79.7 Y112.5 E2.02968
G1 X79.7 Y87.5 E2.49995
G1 X79.74 Y86.711 E2.51481
G1 X79.859 Y85.931 E2.52965
G1 X80.057 Y85.166 E2.54452
G1 X80.331 Y84.426 E2.55936
G1 X80.679 Y83.717 E2.57422
G1 X81.097 Y83.046 E2.58909
G1 X81.58 Y82.422 E2.60393
G1 X82.123 Y81.849 E2.61878
G0 F3600 X82.516 Y82.03
G1 F1800 X83.111 Y81.542 E2.63325
G1 X83.753 Y81.119 E2.64772
G1 X84.436 Y80.764 E2.6622
G1 X85.151 Y80.483 E2.67665
G1 X85.893 Y80.277 E2.69113
G1 X86.651 Y80.149 E2.70559
G1 X87.5 Y80.1 E2.72159
G1 X92.5 Y80.1 E2.81564
G1 X93.268 Y80.14 E2.83011
G1 X94.028 Y80.259 E2.84458
G1 X94.771 Y80.457 E2.85904
G1 X95.49 Y80.731 E2.87352
G1 X96.176 Y81.078 E2.88798
G1 X96.823 Y81.494 E2.90245
G1 X97.423 Y81.975 E2.91691
G1 X97.97 Y82.516 E2.93138
G1 X98.458 Y83.111 E2.94586
G1 X98.881 Y83.753 E2.96032
G1 X99.236 Y84.436 E2.9748
G1 X99.517 Y85.151 E2.98925
G1 X99.588 Y85.408 E2.99427
G1 X99.771 Y85.457 E2.99783
G1 X100.49 Y85.731 E3.0123
G1 X101.176 Y86.078 E3.02676
G1 X101.823 Y86.494 E3.04123
G1 X102.423 Y86.975 E3.0557
G1 X102.97 Y87.516 E3.07017
G1 X103.458 Y88.111 E3.08464
G1 X103.881 Y88.753 E3.09911
G1 X104.236 Y89.436 E3.11359
G1 X104.517 Y90.151 E3.12804
G1 X104.588 Y90.408 E3.13305
G1 X104.771 Y90.457 E3.13662
G1 X105.49 Y90.731 E3.15109
G1 X106.176 Y91.078 E3.16555
G1 X106.823 Y91.494 E3.18002
G1 X107.423 Y91.975 E3.19448
G1 X107.97 Y92.516 E3.20896
G1 X108.458 Y93.111 E3.22343
G1 X108.881 Y93.753 E3.23789
G1 X109.236 Y94.436 E3.25237
G1 X109.517 Y95.151 E3.26682
G1 X109.588 Y95.408 E3.27184
G1 X109.771 Y95.457 E3.2754
G1 X110.49 Y95.731 E3.28988
G1 X111.176 Y96.078 E3.30434
G1 X111.823 Y96.494 E3.31881
G1 X112.423 Y96.975 E3.33327
G1 X112.97 Y97.516 E3.34774
G1 X113.458 Y98.111 E3.36222
G1 X113.881 Y98.753 E3.37668
G1 X114.236 Y99.436 E3.39116
G1 X114.517 Y100.151 E3.40561
G1 X114.588 Y100.408 E3.41063
G1 X114.771 Y100.457 E3.41419
G1 X115.49 Y100.731 E3.42866
G1 X116.176 Y101.078 E3.44313
G1 X116.823 Y101.494 E3.45759
G1 X117.423 Y101.975 E3.47206
G1 X117.97 Y102.516 E3.48653
G1 X118.458 Y103.111 E3.50101
G1 X118.881 Y103.753 E3.51547
G1 X119.236 Y104.436 E3.52995
G1 X119.517 Y105.151 E3.5444
G1 X119.723 Y105.893 E3.55888
G1 X119.851 Y106.651 E3.57334
G1 X119.9 Y107.5 E3.58934
G1 X119.9 Y112.5 E3.68339
G1 X119.86 Y113.268 E3.69786
G1 X119.741 Y114.028 E3.71233
G1 X119.543 Y114.771 E3.72679
G1 X119.269 Y115.49 E3.74127
G1 X118.922 Y116.176 E3.75573
G1 X118.506 Y116.823 E3.7702
G1 X118.025 Y117.423 E3.78466
G1 X117.484 Y117.97 E3.79913
G1 X116.889 Y118.458 E3.81361
G1 X116.247 Y118.881 E3.82807
G1 X115.564 Y119.236 E3.84255
G1 X114.849 Y119.517 E3.857
G1 X114.107 Y119.723 E3.87149
G1 X113.349 Y119.851 E3.88595
G1 X112.5 Y119.9 E3.90194
G1 X102.5 Y119.9 E4.09005
G1 X101.732 Y119.86 E4.10452
G1 X100.972 Y119.741 E4.11899
G1 X100.229 Y119.543 E4.13345
G1 X99.51 Y119.269 E4.14792
G1 X98.824 Y118.922 E4.16239
G1 X98.177 Y118.506 E4.17685
G1 X97.577 Y118.025 E4.19132
G1 X97.502 Y117.951 E4.1933
G1 X97.484 Y117.97 E4.19379
G1 X96.889 Y118.458 E4.20827
G1 X96.247 Y118.881 E4.22273
G1 X95.564 Y119.236 E4.23721
G1 X94.849 Y119.517 E4.25166
G1 X94.107 Y119.723 E4.26615
G1 X93.349 Y119.851 E4.28061
G1 X92.5 Y119.9 E4.2966
G1 X87.5 Y119.9 E4.39066
G1 X86.732 Y119.86 E4.40512
G1 X85.972 Y119.741 E4.41959
G1 X85.229 Y119.543 E4.43406
G1 X84.51 Y119.269 E4.44853
G1 X83.824 Y118.922 E4.46299
G1 X83.177 Y118.506 E4.47746
G1 X82.577 Y118.025 E4.49193
G1 X82.03 Y117.484 E4.5064
G1 X81.542 Y116.889 E4.52087
G1 X81.119 Y116.247 E4.53533
G1 X80.764 Y115.564 E4.54981
G1 X80.483 Y114.849 E4.56427
G1 X80.277 Y114.107 E4.57875
G1 X80.149 Y113.349 E4.59321
G1 X80.1 Y112.5 E4.60921
G1 X80.1 Y87.5 E5.07947
G1 X80.14 Y86.732 E5.09394
G1 X80.259 Y85.972 E5.10841
G1 X80.457 Y85.229 E5.12287
G1 X80.731 Y84.51 E5.13735
G1 X81.078 Y83.824 E5.15181
G1 X81.494 Y83.177 E5.16628
G1 X81.975 Y82.577 E5.18074
G1 X82.516 Y82.03 E5.19521
G0 F3600 X82.908 Y82.216
G1 F1800 X83.498 Y81.757 E5.20927
G1 X84.134 Y81.362 E5.22336
G1 X84.808 Y81.038 E5.23742
G1 X85.513 Y80.788 E5.25149
G1 X86.241 Y80.614 E5.26557
G1 X86.983 Y80.519 E5.27965
G1 X87.5 Y80.5 E5.28938
G1 X92.5 Y80.5 E5.38343
G1 X93.247 Y80.54 E5.3975
G1 X93.985 Y80.659 E5.41156
G1 X94.707 Y80.857 E5.42565
G1 X95.403 Y81.13 E5.43971
G1 X96.066 Y81.477 E5.45379
G1 X96.689 Y81.892 E5.46787
G1 X97.263 Y82.371 E5.48193
G1 X97.784 Y82.908 E5.496
G1 X98.243 Y83.498 E5.51006
G1 X98.638 Y84.134 E5.52415
G1 X98.962 Y84.808 E5.53821
G1 X99.212 Y85.513 E5.55229
G1 X99.265 Y85.736 E5.5566
G1 X99.707 Y85.857 E5.56522
G1 X100.403 Y86.13 E5.57928
G1 X101.066 Y86.477 E5.59336
G1 X101.689 Y86.892 E5.60744
G1 X102.263 Y87.371 E5.6215
G1 X102.784 Y87.908 E5.63557
G1 X103.243 Y88.498 E5.64964
G1 X103.638 Y89.134 E5.66372
G1 X103.962 Y89.808 E5.67779
G1 X104.212 Y90.513 E5.69186
G1 X104.265 Y90.736 E5.69617
G1 X104.707 Y90.857 E5.70479
G1 X105.403 Y91.13 E5.71885
G1 X106.066 Y91.477 E5.73293
G1 X106.689 Y91.892 E5.74701
G1 X107.263 Y92.371 E5.76107
G1 X107.784 Y92.908 E5.77515
G1 X108.243 Y93.498 E5.78921
G1 X108.638 Y94.134 E5.80329
G1 X108.962 Y94.808 E5.81736
G1 X109.212 Y95.513 E5.83143
G1 X109.265 Y95.736 E5.83574
G1 X109.707 Y95.857 E5.84436
G1 X110.403 Y96.13 E5.85842
G1 X111.066 Y96.477 E5.8725
G1 X111.689 Y96.892 E5.88658
G1 X112.263 Y97.371 E5.90064
G1 X112.784 Y97.908 E5.91472
G1 X113.243 Y98.498 E5.92878
G1 X113.638 Y99.134 E5.94286
G1 X113.962 Y99.808 E5.95693
G1 X114.212 Y100.513 E5.971
G1 X114.265 Y100.736 E5.97531
G1 X114.707 Y100.857 E5.98393
G1 X115.403 Y101.13 E5.99799
G1 X116.066 Y101.477 E6.01207
G1 X116.689 Y101.892 E6.02615
G1 X117.263 Y102.371 E6.04021
G1 X117.784 Y102.908 E6.05429
G1 X118.243 Y103.498 E6.06835
G1 X118.638 Y104.134 E6.08243
G1 X118.962 Y104.808 E6.0965
G1 X119.212 Y105.513 E6.11057
G1 X119.386 Y106.241 E6.12465
G1 X119.481 Y106.983 E6.13872
G1 X119.5 Y107.5 E6.14845
G1 X119.5 Y112.5 E6.24251
G1 X119.46 Y113.247 E6.25658
G1 X119.341 Y113.985 E6.27064
G1 X119.143 Y114.707 E6.28472
G1 X118.87 Y115.403 E6.29879
G1 X118.523 Y116.066 E6.31286
G1 X118.108 Y116.689 E6.32694
G1 X117.629 Y117.263 E6.34101
G1 X117.092 Y117.784 E6.35508
G1 X116.502 Y118.243 E6.36914
G1 X115.866 Y118.638 E6.38322
G1 X115.192 Y118.962 E6.39729
G1 X114.487 Y119.212 E6.41136
G1 X113.759 Y119.386 E6.42544
G1 X113.017 Y119.481 E6.43951
G1 X112.5 Y119.5 E6.44924
G1 X102.5 Y119.5 E6.63735
G1 X101.753 Y119.46 E6.65142
G1 X101.015 Y119.341 E6.66548
G1 X100.293 Y119.143 E6.67957
G1 X99.597 Y118.87 E6.69363
G1 X98.934 Y118.523 E6.70771
G1 X98.311 Y118.108 E6.72179
G1 X97.737 Y117.629 E6.73585
G1 X97.502 Y117.386 E6.74221
G1 X97.092 Y117.784 E6.75296
G1 X96.502 Y118.243 E6.76702
G1 X95.866 Y118.638 E6.7811
G1 X95.192 Y118.962 E6.79517
G1 X94.487 Y119.212 E6.80924
G1 X93.759 Y119.386 E6.82332
G1 X93.017 Y119.481 E6.83739
G1 X92.5 Y119.5 E6.84712
G1 X87.5 Y119.5 E6.94117
G1 X86.753 Y119.46 E6.95525
G1 X86.015 Y119.341 E6.96931
G1 X85.293 Y119.143 E6.98339
G1 X84.597 Y118.87 E6.99745
G1 X83.934 Y118.523 E7.01153
G1 X83.311 Y118.108 E7.02561
G1 X82.737 Y117.629 E7.03967
G1 X82.216 Y117.092 E7.05375
G1 X81.757 Y116.502 E7.06781
G1 X81.362 Y115.866 E7.08189
G1 X81.038 Y115.192 E7.09596
G1 X80.788 Y114.487 E7.11003
G1 X80.614 Y113.759 E7.12411
G1 X80.519 Y113.017 E7.13818
G1 X80.5 Y112.5 E7.14791
G1 X80.5 Y87.5 E7.61818
G1 X80.54 Y86.753 E7.63225
G1 X80.659 Y86.015 E7.64631
G1 X80.857 Y85.293 E7.66039
G1 X81.13 Y84.597 E7.67445
G1 X81.477 Y83.934 E7.68853
G1 X81.892 Y83.311 E7.70261
G1 X82.371 Y82.737 E7.71667
G1 X82.908 Y82.216 E7.73075
G0 F3600 X83.299 Y82.409
G1 F1800 X83.884 Y81.979 E7.74441
G1 X84.513 Y81.615 E7.75808
G1 X85.178 Y81.322 E7.77175
G1 X85.871 Y81.104 E7.78541
G1 X86.583 Y80.964 E7.79906
G1 X87.5 Y80.9 E7.81635
G1 X92.5 Y80.9 E7.9104
G1 X93.225 Y80.94 E7.92406
G1 X93.942 Y81.059 E7.93773
G1 X94.641 Y81.257 E7.9514
G1 X95.314 Y81.53 E7.96506
G1 X95.953 Y81.875 E7.97872
G1 X96.55 Y82.289 E7.99239
G1 X97.098 Y82.765 E8.00604
G1 X97.591 Y83.299 E8.01971
G1 X98.021 Y83.884 E8.03337
G1 X98.385 Y84.513 E8.04704
G1 X98.678 Y85.178 E8.06071
G1 X98.896 Y85.871 E8.07438
G1 X98.933 Y86.057 E8.07794
G1 X98.942 Y86.059 E8.07812
G1 X99.641 Y86.257 E8.09178
G1 X100.314 Y86.53 E8.10544
G1 X100.953 Y86.875 E8.1191
G1 X101.55 Y87.289 E8.13277
G1 X102.098 Y87.765 E8.14642
G1 X102.591 Y88.299 E8.16009
G1 X103.021 Y88.884 E8.17375
G1 X103.385 Y89.513 E8.18742
G1 X103.678 Y90.178 E8.20109
G1 X103.896 Y90.871 E8.21476
G1 X103.933 Y91.057 E8.21832
G1 X103.942 Y91.059 E8.2185
G1 X104.641 Y91.257 E8.23216
G1 X105.314 Y91.53 E8.24582
G1 X105.953 Y91.875 E8.25948
G1 X106.55 Y92.289 E8.27315
G1 X107.098 Y92.765 E8.2868
G1 X107.591 Y93.299 E8.30048
G1 X108.021 Y93.884 E8.31413
G1 X108.385 Y94.513 E8.3278
G1 X108.678 Y95.178 E8.34147
G1 X108.896 Y95.871 E8.35514
G1 X108.933 Y96.057 E8.3587
G1 X108.942 Y96.059 E8.35888
G1 X109.641 Y96.257 E8.37254
G1 X110.314 Y96.53 E8.38621
G1 X110.953 Y96.875 E8.39987
G1 X111.55 Y97.289 E8.41353
G1 X112.098 Y97.765 E8.42719
G1 X112.591 Y98.299 E8.44086
G1 X113.021 Y98.884 E8.45451
G1 X113.385 Y99.513 E8.46818
G1 X113.678 Y100.178 E8.48185
G1 X113.896 Y100.871 E8.49552
G1 X113.933 Y101.057 E8.49909
G1 X113.942 Y101.059 E8.49926
G1 X114.641 Y101.257 E8.51293
G1 X115.314 Y101.53 E8.52659
G1 X115.953 Y101.875 E8.54025
G1 X116.55 Y102.289 E8.55391
G1 X117.098 Y102.765 E8.56757
G1 X117.591 Y103.299 E8.58124
G1 X118.021 Y103.884 E8.59489
G1 X118.385 Y104.513 E8.60856
G1 X118.678 Y105.178 E8.62223
G1 X118.896 Y105.871 E8.6359
G1 X119.036 Y106.583 E8.64955
G1 X119.1 Y107.5 E8.66684
G1 X119.1 Y112.5 E8.76089
G1 X119.06 Y113.225 E8.77455
G1 X118.941 Y113.942 E8.78822
G1 X118.743 Y114.641 E8.80189
G1 X118.47 Y115.314 E8.81555
G1 X118.125 Y115.953 E8.82921
G1 X117.711 Y116.55 E8.84288
G1 X117.235 Y117.098 E8.85653
G1 X116.701 Y117.591 E8.8702
G1 X116.116 Y118.021 E8.88386
G1 X115.487 Y118.385 E8.89753
G1 X114.822 Y118.678 E8.9112
G1 X114.129 Y118.896 E8.92486
G1 X113.417 Y119.036 E8.93851
G1 X112.5 Y119.1 E8.9558
G1 X102.5 Y119.1 E9.14391
G1 X101.775 Y119.06 E9.15757
G1 X101.058 Y118.941 E9.17124
G1 X100.359 Y118.743 E9.18491
G1 X99.686 Y118.47 E9.19857
G1 X99.047 Y118.125 E9.21223
G1 X98.45 Y117.711 E9.22589
G1 X97.902 Y117.235 E9.23955
G1 X97.497 Y116.796 E9.25078
G1 X97.235 Y117.098 E9.2583
G1 X96.701 Y117.591 E9.27197
G1 X96.116 Y118.021 E9.28563
G1 X95.487 Y118.385 E9.2993
G1 X94.822 Y118.678 E9.31297
G1 X94.129 Y118.896 E9.32664
G1 X93.417 Y119.036 E9.34029
G1 X92.5 Y119.1 E9.35758
G1 X87.5 Y119.1 E9.45163
G1 X86.775 Y119.06 E9.46529
G1 X86.058 Y118.941 E9.47896
G1 X85.359 Y118.743 E9.49263
G1 X84.686 Y118.47 E9.50629
G1 X84.047 Y118.125 E9.51995
G1 X83.45 Y117.711 E9.53361
G1 X82.902 Y117.235 E9.54727
G1 X82.409 Y116.701 E9.56094
G1 X81.979 Y116.116 E9.5746
G1 X81.615 Y115.487 E9.58827
G1 X81.322 Y114.822 E9.60193
G1 X81.104 Y114.129 E9.6156
G1 X80.964 Y113.417 E9.62925
G1 X80.9 Y112.5 E9.64654
G1 X80.9 Y87.5 E10.11681
G1 X80.94 Y86.775 E10.13046
G1 X81.059 Y86.058 E10.14414
G1 X81.257 Y85.359 E10.1578
G1 X81.53 Y84.686 E10.17146
G1 X81.875 Y84.047 E10.18512
G1 X82.289 Y83.45 E10.19879
G1 X82.765 Y82.902 E10.21244
G1 X83.299 Y82.409 E10.22611
G0 F3600 X83.689 Y82.609
G1 F1800 X84.268 Y82.209 E10.23935
G1 X84.889 Y81.877 E10.2526
G1 X85.543 Y81.617 E10.26584
G1 X86.223 Y81.433 E10.27909
G1 X86.919 Y81.327 E10.29233
G1 X87.5 Y81.3 E10.30327
G1 X92.5 Y81.3 E10.39732
G1 X93.203 Y81.34 E10.41057
G1 X93.897 Y81.459 E10.42381
G1 X94.572 Y81.657 E10.43705
G1 X95.221 Y81.929 E10.45028
G1 X95.835 Y82.274 E10.46353
G1 X96.406 Y82.685 E10.47676
G1 X96.927 Y83.159 E10.49001
G1 X97.391 Y83.689 E10.50326
G1 X97.791 Y84.268 E10.5165
G1 X98.123 Y84.889 E10.52975
G1 X98.383 Y85.543 E10.54299
G1 X98.567 Y86.223 E10.55624
G1 X98.595 Y86.407 E10.55974
G1 X98.897 Y86.459 E10.5655
G1 X99.572 Y86.657 E10.57874
G1 X100.221 Y86.929 E10.59197
G1 X100.835 Y87.274 E10.60522
G1 X101.406 Y87.685 E10.61845
G1 X101.927 Y88.159 E10.6317
G1 X102.391 Y88.689 E10.64495
G1 X102.791 Y89.268 E10.65819
G1 X103.123 Y89.889 E10.67144
G1 X103.383 Y90.543 E10.68468
G1 X103.567 Y91.223 E10.69793
G1 X103.595 Y91.407 E10.70143
G1 X103.897 Y91.459 E10.70719
G1 X104.572 Y91.657 E10.72042
G1 X105.221 Y91.929 E10.73366
G1 X105.835 Y92.274 E10.74691
