;FLAVOR:RepRap
;TIME:2308
;Filament used: 0.548124m
;Layer height: 0.1
;Generated with Cura_SteamEngine 2.6.0
M190 S60
M104 S215
M109 S215
G21 ;metric values
G90 ;absolute positioning
M82 ;set extruder to absolute mode
M107 ;start with the fan off
G28 X0 Y0 ;move X/Y to min endstops
G28 Z0 ;move Z to min endstops
G1 Z15.0 F9000 ;move the platform down 15mm
G92 E0 ;zero the extruded length
G1 F200 E3 ;extrude 3mm of feed stock
G92 E0 ;zero the extruded length again
G1 F9000
;Put printing message on LCD screen
M117 Printing...
;LAYER_COUNT:198
;LAYER:0
M107
G0 F3600 X10.286 Y82.291 Z0.3
;TYPE:SKIRT
G1 F1800 X11.071 Y82.21 E0.01484
G1 X11.473 Y82.2 E0.02241
G1 X31.473 Y82.2 E0.39862
G1 X32.262 Y82.24 E0.41348
G1 X33.042 Y82.359 E0.42832
G1 X33.807 Y82.557 E0.44319
G1 X34.547 Y82.831 E0.45803
G1 X35.256 Y83.179 E0.47289
G1 X35.927 Y83.597 E0.48776
G1 X36.551 Y84.08 E0.5026
G1 X37.124 Y84.623 E0.51745
G1 X37.639 Y85.222 E0.53231
G1 X38.09 Y85.87 E0.54716
G1 X38.474 Y86.561 E0.56203
G1 X38.786 Y87.286 E0.57688
G1 X39.023 Y88.039 E0.59173
G1 X39.182 Y88.813 E0.60659
G1 X39.263 Y89.598 E0.62144
G1 X39.273 Y90 E0.629
G1 X39.273 Y110 E1.00521
G1 X39.233 Y110.789 E1.02007
G1 X39.114 Y111.569 E1.03491
G1 X38.916 Y112.334 E1.04978
G1 X38.642 Y113.074 E1.06462
G1 X38.294 Y113.783 E1.07948
G1 X37.876 Y114.454 E1.09435
G1 X37.393 Y115.078 E1.10919
G1 X36.85 Y115.651 E1.12404
G1 X36.251 Y116.166 E1.1389
G1 X35.603 Y116.617 E1.15375
G1 X34.912 Y117.001 E1.16862
G1 X34.187 Y117.313 E1.18347
G1 X33.434 Y117.55 E1.19832
G1 X32.66 Y117.709 E1.21318
G1 X31.875 Y117.79 E1.22803
G1 X31.473 Y117.8 E1.23559
G1 X11.473 Y117.8 E1.6118
G1 X10.684 Y117.76 E1.62666
G1 X9.904 Y117.641 E1.6415
G1 X9.139 Y117.443 E1.65637
G1 X8.399 Y117.169 E1.67121
G1 X7.69 Y116.821 E1.68607
G1 X7.019 Y116.403 E1.70094
G1 X6.395 Y115.92 E1.71578
G1 X5.822 Y115.377 E1.73063
G1 X5.307 Y114.778 E1.74549
G1 X4.856 Y114.13 E1.76034
G1 X4.472 Y113.439 E1.77521
G1 X4.16 Y112.714 E1.79006
G1 X3.923 Y111.961 E1.80491
G1 X3.764 Y111.187 E1.81977
G1 X3.683 Y110.402 E1.83462
G1 X3.673 Y110 E1.84218
G1 X3.673 Y90 E2.21839
G1 X3.713 Y89.211 E2.23325
G1 X3.832 Y88.431 E2.24809
G1 X4.03 Y87.666 E2.26296
G1 X4.304 Y86.926 E2.2778
G1 X4.652 Y86.217 E2.29266
G1 X5.07 Y85.546 E2.30753
G1 X5.553 Y84.922 E2.32237
G1 X6.096 Y84.349 E2.33722
G1 X6.695 Y83.834 E2.35208
G1 X7.343 Y83.383 E2.36693
G1 X8.034 Y82.999 E2.3818
G1 X8.759 Y82.687 E2.39665
G1 X9.512 Y82.45 E2.4115
G1 X10.286 Y82.291 E2.42636
G0 F3600 X10.624 Y82.649
G1 F1800 X11.473 Y82.6 E2.44236
G1 X31.473 Y82.6 E2.81857
G1 X32.241 Y82.64 E2.83304
G1 X33.001 Y82.759 E2.84751
G1 X33.744 Y82.957 E2.86197
G1 X34.463 Y83.231 E2.87644
G1 X35.149 Y83.578 E2.8909
G1 X35.796 Y83.994 E2.90537
G1 X36.396 Y84.475 E2.91984
G1 X36.943 Y85.016 E2.93431
G1 X37.431 Y85.611 E2.94879
G1 X37.854 Y86.253 E2.96325
G1 X38.209 Y86.936 E2.97773
G1 X38.49 Y87.651 E2.99218
G1 X38.696 Y88.393 E3.00666
G1 X38.824 Y89.151 E3.02112
G1 X38.873 Y90 E3.03712
G1 X38.873 Y110 E3.41333
G1 X38.833 Y110.768 E3.4278
G1 X38.714 Y111.528 E3.44227
G1 X38.516 Y112.271 E3.45673
G1 X38.242 Y112.99 E3.47121
G1 X37.895 Y113.676 E3.48567
G1 X37.479 Y114.323 E3.50014
G1 X36.998 Y114.923 E3.5146
G1 X36.457 Y115.47 E3.52907
G1 X35.862 Y115.958 E3.54355
G1 X35.22 Y116.381 E3.55801
G1 X34.537 Y116.736 E3.57249
G1 X33.822 Y117.017 E3.58694
G1 X33.08 Y117.223 E3.60143
G1 X32.322 Y117.351 E3.61589
G1 X31.473 Y117.4 E3.63188
G1 X11.473 Y117.4 E4.00809
G1 X10.705 Y117.36 E4.02256
G1 X9.945 Y117.241 E4.03703
G1 X9.202 Y117.043 E4.05149
G1 X8.483 Y116.769 E4.06597
G1 X7.797 Y116.422 E4.08043
G1 X7.15 Y116.006 E4.0949
G1 X6.55 Y115.525 E4.10936
G1 X6.003 Y114.984 E4.12383
G1 X5.515 Y114.389 E4.13831
G1 X5.092 Y113.747 E4.15277
G1 X4.737 Y113.064 E4.16725
G1 X4.456 Y112.349 E4.1817
G1 X4.25 Y111.607 E4.19619
G1 X4.122 Y110.849 E4.21065
G1 X4.073 Y110 E4.22664
G1 X4.073 Y90 E4.60286
G1 X4.113 Y89.232 E4.61732
G1 X4.232 Y88.472 E4.63179
G1 X4.43 Y87.729 E4.64626
G1 X4.704 Y87.01 E4.66073
G1 X5.051 Y86.324 E4.67519
G1 X5.467 Y85.677 E4.68966
G1 X5.948 Y85.077 E4.70412
G1 X6.489 Y84.53 E4.7186
G1 X7.084 Y84.042 E4.73307
G1 X7.726 Y83.619 E4.74753
G1 X8.409 Y83.264 E4.76201
G1 X9.124 Y82.983 E4.77646
G1 X9.866 Y82.777 E4.79095
G1 X10.624 Y82.649 E4.80541
G0 F3600 X10.956 Y83.019
G1 F1800 X11.473 Y83 E4.81514
G1 X31.473 Y83 E5.19135
G1 X32.22 Y83.04 E5.20542
G1 X32.958 Y83.159 E5.21949
G1 X33.68 Y83.357 E5.23357
G1 X34.376 Y83.63 E5.24763
G1 X35.039 Y83.977 E5.26171
G1 X35.662 Y84.392 E5.27579
G1 X36.236 Y84.871 E5.28985
G1 X36.757 Y85.408 E5.30393
G1 X37.216 Y85.998 E5.31799
G1 X37.611 Y86.634 E5.33207
G1 X37.935 Y87.308 E5.34614
G1 X38.185 Y88.013 E5.36021
G1 X38.359 Y88.741 E5.37429
G1 X38.454 Y89.483 E5.38836
G1 X38.473 Y90 E5.39809
G1 X38.473 Y110 E5.7743
G1 X38.433 Y110.747 E5.78837
G1 X38.314 Y111.485 E5.80243
G1 X38.116 Y112.207 E5.81652
G1 X37.843 Y112.903 E5.83058
G1 X37.496 Y113.566 E5.84466
G1 X37.081 Y114.189 E5.85874
G1 X36.602 Y114.763 E5.8728
G1 X36.065 Y115.284 E5.88687
G1 X35.475 Y115.743 E5.90094
G1 X34.839 Y116.138 E5.91502
G1 X34.165 Y116.462 E5.92909
G1 X33.46 Y116.712 E5.94316
G1 X32.732 Y116.886 E5.95724
G1 X31.99 Y116.981 E5.97131
G1 X31.473 Y117 E5.98104
G1 X11.473 Y117 E6.35725
G1 X10.726 Y116.96 E6.37132
G1 X9.988 Y116.841 E6.38538
G1 X9.266 Y116.643 E6.39947
G1 X8.57 Y116.37 E6.41353
G1 X7.907 Y116.023 E6.42761
G1 X7.284 Y115.608 E6.44169
G1 X6.71 Y115.129 E6.45575
G1 X6.189 Y114.592 E6.46982
G1 X5.73 Y114.002 E6.48389
G1 X5.335 Y113.366 E6.49797
G1 X5.011 Y112.692 E6.51204
G1 X4.761 Y111.987 E6.52611
G1 X4.587 Y111.259 E6.54019
G1 X4.492 Y110.517 E6.55426
G1 X4.473 Y110 E6.56399
G1 X4.473 Y90 E6.9402
G1 X4.513 Y89.253 E6.95427
G1 X4.632 Y88.515 E6.96833
G1 X4.83 Y87.793 E6.98242
G1 X5.103 Y87.097 E6.99648
G1 X5.45 Y86.434 E7.01056
G1 X5.865 Y85.811 E7.02464
G1 X6.344 Y85.237 E7.0387
G1 X6.881 Y84.716 E7.05277
G1 X7.471 Y84.257 E7.06683
G1 X8.107 Y83.862 E7.08092
G1 X8.781 Y83.538 E7.09498
G1 X9.486 Y83.288 E7.10906
G1 X10.214 Y83.114 E7.12314
G1 X10.956 Y83.019 E7.13721
G0 F3600 X11.473 Y83.4
G1 F1800 X31.473 Y83.4 E7.51342
G1 X32.198 Y83.44 E7.52708
G1 X32.915 Y83.559 E7.54075
G1 X33.614 Y83.757 E7.55441
G1 X34.287 Y84.03 E7.56807
G1 X34.926 Y84.375 E7.58173
G1 X35.523 Y84.789 E7.5954
G1 X36.071 Y85.265 E7.60905
G1 X36.564 Y85.799 E7.62273
G1 X36.994 Y86.384 E7.63638
G1 X37.358 Y87.013 E7.65005
G1 X37.651 Y87.678 E7.66372
G1 X37.869 Y88.371 E7.67739
G1 X38.009 Y89.083 E7.69104
G1 X38.073 Y90 E7.70833
G1 X38.073 Y110 E8.08454
G1 X38.033 Y110.725 E8.0982
G1 X37.914 Y111.442 E8.11187
G1 X37.716 Y112.141 E8.12554
G1 X37.443 Y112.814 E8.1392
G1 X37.098 Y113.453 E8.15286
G1 X36.684 Y114.05 E8.16652
G1 X36.208 Y114.598 E8.18018
G1 X35.674 Y115.091 E8.19385
G1 X35.089 Y115.521 E8.20751
G1 X34.46 Y115.885 E8.22118
G1 X33.795 Y116.178 E8.23484
G1 X33.102 Y116.396 E8.24851
G1 X32.39 Y116.536 E8.26216
G1 X31.473 Y116.6 E8.27945
G1 X11.473 Y116.6 E8.65566
G1 X10.748 Y116.56 E8.66932
G1 X10.031 Y116.441 E8.68299
G1 X9.332 Y116.243 E8.69666
G1 X8.659 Y115.97 E8.71032
G1 X8.02 Y115.625 E8.72398
G1 X7.423 Y115.211 E8.73765
G1 X6.875 Y114.735 E8.7513
G1 X6.382 Y114.201 E8.76497
G1 X5.952 Y113.616 E8.77863
G1 X5.588 Y112.987 E8.7923
G1 X5.295 Y112.322 E8.80597
G1 X5.077 Y111.629 E8.81963
G1 X4.937 Y110.917 E8.83328
G1 X4.873 Y110 E8.85057
G1 X4.873 Y90 E9.22678
G1 X4.913 Y89.275 E9.24044
G1 X5.032 Y88.558 E9.25411
G1 X5.23 Y87.859 E9.26778
G1 X5.503 Y87.186 E9.28144
G1 X5.848 Y86.547 E9.2951
G1 X6.262 Y85.95 E9.30877
G1 X6.738 Y85.402 E9.32242
G1 X7.272 Y84.909 E9.33609
G1 X7.857 Y84.479 E9.34975
G1 X8.486 Y84.115 E9.36342
G1 X9.151 Y83.822 E9.37709
G1 X9.844 Y83.604 E9.39076
G1 X10.556 Y83.464 E9.4044
G1 X11.473 Y83.4 E9.4217
G0 F3600 X11.473 Y83.8
G1 F1800 X31.473 Y83.8 E9.79791
G1 X32.176 Y83.84 E9.81115
G1 X32.87 Y83.959 E9.8244
G1 X33.545 Y84.157 E9.83763
G1 X34.194 Y84.429 E9.85087
G1 X34.808 Y84.774 E9.86411
G1 X35.379 Y85.185 E9.87735
G1 X35.9 Y85.659 E9.8906
G1 X36.364 Y86.189 E9.90385
G1 X36.764 Y86.768 E9.91709
G1 X37.096 Y87.389 E9.93033
G1 X37.356 Y88.043 E9.94357
G1 X37.54 Y88.723 E9.95682
G1 X37.646 Y89.419 E9.97006
G1 X37.673 Y90 E9.98101
G1 X37.673 Y110 E10.35722
G1 X37.633 Y110.703 E10.37046
G1 X37.514 Y111.397 E10.38371
G1 X37.316 Y112.072 E10.39694
G1 X37.044 Y112.721 E10.41018
G1 X36.699 Y113.335 E10.42342
G1 X36.288 Y113.906 E10.43666
G1 X35.814 Y114.427 E10.44991
G1 X35.284 Y114.891 E10.46316
G1 X34.705 Y115.291 E10.47639
G1 X34.084 Y115.623 E10.48964
G1 X33.43 Y115.883 E10.50288
G1 X32.75 Y116.067 E10.51613
G1 X32.054 Y116.173 E10.52937
G1 X31.473 Y116.2 E10.54031
G1 X11.473 Y116.2 E10.91653
G1 X10.77 Y116.16 E10.92977
G1 X10.076 Y116.041 E10.94302
G1 X9.401 Y115.843 E10.95625
G1 X8.752 Y115.571 E10.96948
G1 X8.138 Y115.226 E10.98273
G1 X7.567 Y114.815 E10.99597
G1 X7.046 Y114.341 E11.00922
G1 X6.582 Y113.811 E11.02247
G1 X6.182 Y113.232 E11.0357
G1 X5.85 Y112.611 E11.04895
G1 X5.59 Y111.957 E11.06219
G1 X5.406 Y111.277 E11.07544
G1 X5.3 Y110.581 E11.08868
G1 X5.273 Y110 E11.09962
G1 X5.273 Y90 E11.47583
G1 X5.313 Y89.297 E11.48908
G1 X5.432 Y88.603 E11.50232
G1 X5.63 Y87.928 E11.51556
G1 X5.902 Y87.279 E11.52879
G1 X6.247 Y86.665 E11.54204
G1 X6.658 Y86.094 E11.55528
G1 X7.132 Y85.573 E11.56853
G1 X7.662 Y85.109 E11.58178
G1 X8.241 Y84.709 E11.59501
G1 X8.862 Y84.377 E11.60826
G1 X9.516 Y84.117 E11.6215
G1 X10.196 Y83.933 E11.63475
G1 X10.892 Y83.827 E11.64799
G1 X11.473 Y83.8 E11.65893
G0 F3600 X11.473 Y84.2
G1 F1800 X31.473 Y84.2 E12.03514
G1 X32.153 Y84.24 E12.04796
G1 X32.823 Y84.359 E12.06076
G1 X33.475 Y84.556 E12.07357
G1 X34.099 Y84.828 E12.08637
G1 X34.687 Y85.172 E12.09919
G1 X35.231 Y85.582 E12.112
G1 X35.722 Y86.053 E12.1248
G1 X36.156 Y86.578 E12.13761
G1 X36.525 Y87.15 E12.15042
G1 X36.824 Y87.762 E12.16323
G1 X37.049 Y88.404 E12.17603
G1 X37.198 Y89.069 E12.18885
G1 X37.273 Y90 E12.20642
G1 X37.273 Y110 E12.58263
G1 X37.233 Y110.68 E12.59544
G1 X37.114 Y111.35 E12.60824
G1 X36.917 Y112.002 E12.62105
G1 X36.645 Y112.626 E12.63386
G1 X36.301 Y113.214 E12.64667
G1 X35.891 Y113.758 E12.65948
G1 X35.42 Y114.249 E12.67228
G1 X34.895 Y114.683 E12.6851
G1 X34.323 Y115.052 E12.6979
G1 X33.711 Y115.351 E12.71071
G1 X33.069 Y115.576 E12.72351
G1 X32.404 Y115.725 E12.73633
G1 X31.473 Y115.8 E12.7539
G1 X11.473 Y115.8 E13.13011
G1 X10.793 Y115.76 E13.14292
G1 X10.123 Y115.641 E13.15572
G1 X9.471 Y115.444 E13.16854
G1 X8.847 Y115.172 E13.18134
G1 X8.259 Y114.828 E13.19415
G1 X7.715 Y114.418 E13.20697
G1 X7.224 Y113.947 E13.21977
G1 X6.79 Y113.422 E13.23258
G1 X6.421 Y112.85 E13.24538
G1 X6.122 Y112.238 E13.2582
G1 X5.897 Y111.596 E13.27099
G1 X5.748 Y110.931 E13.28381
G1 X5.673 Y110 E13.30138
G1 X5.673 Y90 E13.67759
G1 X5.713 Y89.32 E13.69041
G1 X5.832 Y88.65 E13.70321
G1 X6.029 Y87.998 E13.71602
G1 X6.301 Y87.374 E13.72882
G1 X6.645 Y86.786 E13.74164
G1 X7.055 Y86.242 E13.75445
G1 X7.526 Y85.751 E13.76725
G1 X8.051 Y85.317 E13.78006
G1 X8.623 Y84.948 E13.79287
G1 X9.235 Y84.649 E13.80568
G1 X9.877 Y84.424 E13.81848
G1 X10.542 Y84.275 E13.83129
G1 X11.473 Y84.2 E13.84886
G0 F3600 X11.473 Y84.6
G1 F1800 X31.473 Y84.6 E14.22507
G1 X32.129 Y84.64 E14.23744
G1 X32.775 Y84.759 E14.24979
G1 X33.402 Y84.956 E14.26216
G1 X34 Y85.228 E14.27451
G1 X34.561 Y85.57 E14.28687
G1 X35.076 Y85.978 E14.29923
G1 X35.538 Y86.445 E14.31159
G1 X35.939 Y86.965 E14.32394
G1 X36.275 Y87.529 E14.33629
G1 X36.539 Y88.131 E14.34866
G1 X36.729 Y88.76 E14.36102
G1 X36.84 Y89.407 E14.37336
G1 X36.873 Y90 E14.38454
G1 X36.873 Y110 E14.76075
G1 X36.833 Y110.656 E14.77311
G1 X36.714 Y111.302 E14.78547
G1 X36.517 Y111.929 E14.79783
G1 X36.245 Y112.527 E14.81019
G1 X35.903 Y113.088 E14.82254
G1 X35.495 Y113.603 E14.8349
G1 X35.028 Y114.065 E14.84726
G1 X34.508 Y114.466 E14.85961
G1 X33.944 Y114.802 E14.87196
G1 X33.342 Y115.066 E14.88433
G1 X32.713 Y115.256 E14.89669
G1 X32.066 Y115.367 E14.90903
G1 X31.473 Y115.4 E14.92021
G1 X11.473 Y115.4 E15.29642
G1 X10.817 Y115.36 E15.30878
G1 X10.171 Y115.241 E15.32114
G1 X9.544 Y115.044 E15.3335
G1 X8.946 Y114.772 E15.34586
G1 X8.385 Y114.43 E15.35822
G1 X7.87 Y114.022 E15.37058
G1 X7.408 Y113.555 E15.38293
G1 X7.007 Y113.035 E15.39528
G1 X6.671 Y112.471 E15.40763
G1 X6.407 Y111.869 E15.42
G1 X6.217 Y111.24 E15.43236
G1 X6.106 Y110.593 E15.44471
G1 X6.073 Y110 E15.45588
G1 X6.073 Y90 E15.83209
G1 X6.113 Y89.344 E15.84445
G1 X6.232 Y88.698 E15.85681
G1 X6.429 Y88.071 E15.86917
G1 X6.701 Y87.473 E15.88153
G1 X7.043 Y86.912 E15.89389
G1 X7.451 Y86.397 E15.90625
G1 X7.918 Y85.935 E15.9186
G1 X8.438 Y85.534 E15.93096
G1 X9.002 Y85.198 E15.9433
G1 X9.604 Y84.934 E15.95567
G1 X10.233 Y84.744 E15.96803
G1 X10.88 Y84.633 E15.98038
G1 X11.473 Y84.6 E15.99155
G0 F3600 X11.473 Y85
G1 F1800 X31.473 Y85 E16.36776
G1 X32.104 Y85.04 E16.37965
G1 X32.725 Y85.159 E16.39155
G1 X33.325 Y85.356 E16.40343
G1 X33.897 Y85.627 E16.41533
G1 X34.429 Y85.967 E16.42721
G1 X34.914 Y86.373 E16.43911
G1 X35.344 Y86.836 E16.45099
G1 X35.713 Y87.35 E16.4629
G1 X36.013 Y87.906 E16.47478
G1 X36.241 Y88.495 E16.48666
G1 X36.393 Y89.109 E16.49856
G1 X36.473 Y90 E16.51539
G1 X36.473 Y110 E16.8916
G1 X36.433 Y110.631 E16.90349
G1 X36.314 Y111.252 E16.91538
G1 X36.117 Y111.852 E16.92726
G1 X35.846 Y112.424 E16.93917
G1 X35.506 Y112.956 E16.95105
G1 X35.1 Y113.441 E16.96294
G1 X34.637 Y113.871 E16.97483
G1 X34.123 Y114.24 E16.98673
G1 X33.567 Y114.54 E16.99862
G1 X32.978 Y114.768 E17.0105
G1 X32.364 Y114.92 E17.02239
G1 X31.473 Y115 E17.03922
G1 X11.473 Y115 E17.41543
G1 X10.842 Y114.96 E17.42733
G1 X10.221 Y114.841 E17.43922
G1 X9.621 Y114.644 E17.4511
G1 X9.049 Y114.373 E17.46301
G1 X8.517 Y114.033 E17.47488
G1 X8.032 Y113.627 E17.48678
G1 X7.602 Y113.164 E17.49867
G1 X7.233 Y112.65 E17.51057
G1 X6.933 Y112.094 E17.52245
G1 X6.705 Y111.505 E17.53433
G1 X6.553 Y110.891 E17.54623
G1 X6.473 Y110 E17.56306
G1 X6.473 Y90 E17.93927
G1 X6.513 Y89.369 E17.95116
G1 X6.632 Y88.748 E17.96306
G1 X6.829 Y88.148 E17.97494
G1 X7.1 Y87.576 E17.98684
G1 X7.44 Y87.044 E17.99872
G1 X7.846 Y86.559 E18.01062
G1 X8.309 Y86.129 E18.0225
G1 X8.823 Y85.76 E18.0344
G1 X9.379 Y85.46 E18.04629
G1 X9.968 Y85.232 E18.05817
G1 X10.582 Y85.08 E18.07007
G1 X11.473 Y85 E18.08689
G0 F3600 X11.473 Y85.4
G1 F1800 X31.473 Y85.4 E18.46311
G1 X32.078 Y85.44 E18.47451
G1 X32.672 Y85.559 E18.48591
G1 X33.246 Y85.755 E18.49732
G1 X33.789 Y86.026 E18.50873
G1 X34.292 Y86.365 E18.52014
G1 X34.745 Y86.767 E18.53153
G1 X35.142 Y87.225 E18.54294
G1 X35.475 Y87.732 E18.55435
G1 X35.739 Y88.278 E18.56575
G1 X35.928 Y88.854 E18.57716
G1 X36.04 Y89.45 E18.58856
G1 X36.073 Y90 E18.59893
G1 X36.073 Y110 E18.97514
G1 X36.033 Y110.605 E18.98654
G1 X35.914 Y111.199 E18.99794
G1 X35.718 Y111.773 E19.00935
G1 X35.447 Y112.316 E19.02077
G1 X35.108 Y112.819 E19.03218
G1 X34.706 Y113.272 E19.04357
G1 X34.248 Y113.669 E19.05497
G1 X33.741 Y114.002 E19.06638
G1 X33.195 Y114.266 E19.07779
G1 X32.619 Y114.455 E19.08919
G1 X32.023 Y114.567 E19.1006
G1 X31.473 Y114.6 E19.11096
G1 X11.473 Y114.6 E19.48717
G1 X10.868 Y114.56 E19.49858
G1 X10.274 Y114.441 E19.50997
G1 X9.7 Y114.245 E19.52138
G1 X9.157 Y113.974 E19.5328
G1 X8.654 Y113.635 E19.54421
G1 X8.201 Y113.233 E19.5556
G1 X7.804 Y112.775 E19.567
G1 X7.471 Y112.268 E19.57841
G1 X7.207 Y111.722 E19.58982
G1 X7.018 Y111.146 E19.60122
G1 X6.906 Y110.55 E19.61263
G1 X6.873 Y110 E19.623
G1 X6.873 Y90 E19.99921
G1 X6.913 Y89.395 E20.01061
G1 X7.032 Y88.801 E20.02201
G1 X7.228 Y88.227 E20.03342
G1 X7.499 Y87.684 E20.04483
G1 X7.838 Y87.181 E20.05624
G1 X8.24 Y86.728 E20.06764
G1 X8.698 Y86.331 E20.07904
G1 X9.205 Y85.998 E20.09045
G1 X9.751 Y85.734 E20.10186
G1 X10.327 Y85.545 E20.11326
G1 X10.923 Y85.433 E20.12467
G1 X11.473 Y85.4 E20.13503
G0 F3600 X11.473 Y85.8
G1 F1800 X31.473 Y85.8 E20.51124
G1 X32.051 Y85.84 E20.52214
G1 X32.618 Y85.959 E20.53304
G1 X33.163 Y86.155 E20.54393
G1 X33.676 Y86.424 E20.55483
G1 X34.147 Y86.761 E20.56572
G1 X34.567 Y87.16 E20.57662
G1 X34.929 Y87.613 E20.58753
G1 X35.224 Y88.111 E20.59842
G1 X35.449 Y88.645 E20.60932
G1 X35.597 Y89.205 E20.62021
