;FLAVOR:RepRap
;TIME:2003
;Filament used: 0.824678m
;Layer height: 0.2
;Generated with Cura_SteamEngine 2.6.0
M190 S50
M104 S195
M109 S195
G28 ;Home
G1 Z15.0 F6000 ;Move the platform down 15mm
;Prime the extruder
G92 E0
G1 F200 E3
G92 E0
;LAYER_COUNT:335
;LAYER:0
M107
G0 F2400 X55.678 Y54.847 Z0.3
;TYPE:SKIRT
G1 F1200 X56.151 Y54.444 E0.031
G1 X58.124 Y53.014 E0.15257
G1 X58.595 Y52.72 E0.18027
G1 X60.365 Y51.78 E0.28026
G1 X60.853 Y51.562 E0.30692
G1 X62.666 Y50.891 E0.40337
G1 X63.182 Y50.738 E0.43022
G1 X65.201 Y50.287 E0.53343
G1 X65.766 Y50.203 E0.56193
G1 X68.042 Y50.028 E0.67581
G1 X68.619 Y50.025 E0.7046
G1 X70.632 Y50.161 E0.80526
G1 X71.182 Y50.237 E0.83296
G1 X73.288 Y50.678 E0.94031
G1 X73.833 Y50.833 E0.96858
G1 X75.896 Y51.582 E1.07807
G1 X76.441 Y51.828 E1.1079
G1 X78.389 Y52.887 E1.21852
G1 X78.869 Y53.193 E1.24692
G1 X80.579 Y54.467 E1.35331
G1 X81.02 Y54.849 E1.38242
G1 X82.564 Y56.396 E1.49146
G1 X82.934 Y56.823 E1.51965
G1 X84.231 Y58.554 E1.62756
G1 X84.534 Y59.024 E1.65546
G1 X85.431 Y60.654 E1.74828
G1 X85.668 Y61.167 E1.77647
G1 X86.569 Y63.548 E1.90348
G1 X86.739 Y64.124 E1.93345
G1 X87.156 Y66.065 E2.03249
G1 X87.234 Y66.61 E2.05996
G1 X87.385 Y68.655 E2.16226
G1 X87.39 Y69.173 E2.18811
G1 X87.302 Y70.751 E2.26696
G1 X87.267 Y71.101 E2.2845
G1 X87.056 Y72.559 E2.358
G1 X86.992 Y72.898 E2.37521
G1 X86.658 Y74.325 E2.44833
G1 X86.511 Y74.811 E2.47366
G1 X85.836 Y76.62 E2.56999
G1 X85.609 Y77.12 E2.59739
G1 X84.562 Y79.062 E2.70746
G1 X84.231 Y79.578 E2.73804
G1 X82.807 Y81.46 E2.85579
G1 X82.437 Y81.882 E2.88379
G1 X81.02 Y83.291 E2.98348
G1 X80.567 Y83.679 E3.01324
G1 X78.69 Y85.057 E3.12941
G1 X78.165 Y85.384 E3.16027
G1 X76.081 Y86.465 E3.27739
G1 X75.61 Y86.672 E3.30306
G1 X74.015 Y87.254 E3.38777
G1 X73.522 Y87.398 E3.41339
G1 X71.656 Y87.818 E3.50881
G1 X71.112 Y87.902 E3.53628
G1 X68.664 Y88.107 E3.65883
G1 X67.979 Y88.106 E3.69301
G1 X65.548 Y87.892 E3.81476
G1 X64.892 Y87.778 E3.84798
G1 X62.346 Y87.116 E3.97922
G1 X61.931 Y86.984 E4.00095
G1 X60.743 Y86.532 E4.06437
G1 X60.255 Y86.307 E4.09117
G1 X58.29 Y85.239 E4.20275
G1 X57.802 Y84.927 E4.23165
G1 X56.098 Y83.651 E4.33786
G1 X55.669 Y83.278 E4.36622
G1 X54.173 Y81.783 E4.47173
G1 X53.805 Y81.361 E4.49967
G1 X52.468 Y79.586 E4.61053
G1 X52.109 Y79.015 E4.64418
G1 X50.895 Y76.665 E4.77615
G1 X50.691 Y76.198 E4.80157
G1 X50.213 Y74.886 E4.87124
G1 X50.055 Y74.332 E4.89998
G1 X49.491 Y71.623 E5.03803
G1 X49.416 Y71.082 E5.06528
G1 X49.307 Y69.493 E5.14474
G1 X49.307 Y68.958 E5.17143
G1 X49.459 Y66.636 E5.28752
G1 X49.54 Y66.053 E5.31689
G1 X49.956 Y64.127 E5.41519
G1 X50.085 Y63.665 E5.43912
G1 X50.539 Y62.351 E5.50848
G1 X50.685 Y61.988 E5.528
G1 X51.427 Y60.372 E5.61672
G1 X51.568 Y60.093 E5.63231
G1 X52.163 Y59.026 E5.69326
G1 X52.467 Y58.56 E5.72102
G1 X53.891 Y56.678 E5.83876
G1 X54.261 Y56.256 E5.86676
G1 X55.678 Y54.847 E5.96646
G0 F2400 X55.96 Y55.13
G1 F1200 X56.385 Y54.768 E5.99431
G1 X58.358 Y53.338 E6.11588
G1 X58.782 Y53.074 E6.1408
G1 X60.552 Y52.134 E6.24078
G1 X60.991 Y51.937 E6.26479
G1 X62.804 Y51.266 E6.36124
G1 X63.269 Y51.129 E6.38542
G1 X65.288 Y50.678 E6.48863
G1 X65.797 Y50.602 E6.51431
G1 X68.073 Y50.427 E6.62819
G1 X68.592 Y50.424 E6.65409
G1 X70.605 Y50.56 E6.75475
G1 X71.1 Y50.628 E6.77967
G1 X73.206 Y51.069 E6.88702
G1 X73.697 Y51.209 E6.91249
G1 X75.76 Y51.958 E7.02199
G1 X76.25 Y52.179 E7.04881
G1 X78.198 Y53.238 E7.15943
G1 X78.63 Y53.514 E7.185
G1 X80.34 Y54.788 E7.29139
G1 X80.737 Y55.132 E7.3176
G1 X82.281 Y56.679 E7.42664
G1 X82.614 Y57.063 E7.452
G1 X83.911 Y58.794 E7.55991
G1 X84.184 Y59.217 E7.58503
G1 X85.081 Y60.847 E7.67785
G1 X85.294 Y61.309 E7.70323
G1 X86.195 Y63.69 E7.83024
G1 X86.348 Y64.208 E7.85719
G1 X86.765 Y66.149 E7.95623
G1 X86.835 Y66.64 E7.98098
G1 X86.986 Y68.685 E8.08328
G1 X86.99 Y69.15 E8.10648
G1 X86.902 Y70.728 E8.18533
G1 X86.871 Y71.044 E8.20117
G1 X86.66 Y72.502 E8.27467
G1 X86.602 Y72.806 E8.29011
G1 X86.268 Y74.233 E8.36322
G1 X86.136 Y74.672 E8.38609
G1 X85.461 Y76.481 E8.48242
G1 X85.257 Y76.93 E8.50703
G1 X84.21 Y78.872 E8.6171
G1 X83.912 Y79.336 E8.64461
G1 X82.488 Y81.218 E8.76235
G1 X82.155 Y81.599 E8.7876
G1 X80.738 Y83.008 E8.88729
G1 X80.33 Y83.357 E8.91408
G1 X78.453 Y84.735 E9.03025
G1 X77.981 Y85.029 E9.05799
G1 X75.897 Y86.11 E9.17512
G1 X75.473 Y86.296 E9.19822
G1 X73.878 Y86.878 E9.28293
G1 X73.435 Y87.008 E9.30596
G1 X71.569 Y87.428 E9.40138
G1 X71.078 Y87.503 E9.42616
G1 X68.63 Y87.708 E9.54872
G1 X68.014 Y87.707 E9.57945
G1 X65.583 Y87.493 E9.70121
G1 X64.993 Y87.391 E9.73108
G1 X62.447 Y86.729 E9.86232
G1 X62.073 Y86.61 E9.8819
G1 X60.885 Y86.158 E9.94532
G1 X60.446 Y85.956 E9.96943
G1 X58.481 Y84.888 E10.081
G1 X58.042 Y84.607 E10.10701
G1 X56.338 Y83.331 E10.21322
G1 X55.951 Y82.995 E10.23878
G1 X54.455 Y81.5 E10.3443
G1 X54.124 Y81.12 E10.36944
G1 X52.787 Y79.345 E10.48031
G1 X52.465 Y78.831 E10.51057
G1 X51.251 Y76.481 E10.64253
G1 X51.066 Y76.061 E10.66543
G1 X50.588 Y74.749 E10.73509
G1 X50.447 Y74.251 E10.76091
G1 X49.883 Y71.542 E10.89896
G1 X49.815 Y71.054 E10.92355
G1 X49.706 Y69.465 E11.00301
G1 X49.706 Y68.984 E11.02701
G1 X49.858 Y66.662 E11.1431
G1 X49.931 Y66.137 E11.16954
G1 X50.347 Y64.211 E11.26785
G1 X50.463 Y63.795 E11.28939
G1 X50.917 Y62.481 E11.35875
G1 X51.048 Y62.155 E11.37628
G1 X51.79 Y60.539 E11.46499
G1 X51.918 Y60.288 E11.47905
G1 X52.513 Y59.221 E11.54
G1 X52.786 Y58.802 E11.56495
G1 X54.21 Y56.92 E11.68269
G1 X54.543 Y56.539 E11.70794
G1 X55.96 Y55.13 E11.80763
G0 F2400 X56.242 Y55.414
G1 F1200 X56.62 Y55.092 E11.83241
G1 X58.593 Y53.662 E11.95398
G1 X58.97 Y53.427 E11.97614
G1 X60.74 Y52.487 E12.07612
G1 X61.13 Y52.312 E12.09745
G1 X62.943 Y51.641 E12.1939
G1 X63.356 Y51.519 E12.21538
G1 X65.375 Y51.068 E12.31859
G1 X65.828 Y51 E12.34145
G1 X68.104 Y50.825 E12.45533
G1 X68.565 Y50.823 E12.47833
G1 X70.578 Y50.959 E12.57899
G1 X71.018 Y51.02 E12.60115
G1 X73.124 Y51.461 E12.7085
G1 X73.56 Y51.585 E12.73111
G1 X75.623 Y52.334 E12.84061
G1 X76.059 Y52.531 E12.86448
G1 X78.007 Y53.59 E12.9751
G1 X78.391 Y53.835 E12.99782
G1 X80.101 Y55.109 E13.10421
G1 X80.454 Y55.414 E13.12749
G1 X81.998 Y56.961 E13.23653
G1 X82.294 Y57.303 E13.25909
G1 X83.591 Y59.034 E13.36701
G1 X83.834 Y59.41 E13.38934
G1 X84.731 Y61.04 E13.48216
G1 X84.92 Y61.45 E13.50469
G1 X85.821 Y63.831 E13.6317
G1 X85.957 Y64.292 E13.65568
G1 X86.374 Y66.233 E13.75472
G1 X86.436 Y66.669 E13.77669
G1 X86.587 Y68.714 E13.879
G1 X86.591 Y69.128 E13.89965
G1 X86.503 Y70.706 E13.9785
G1 X86.475 Y70.986 E13.99254
G1 X86.264 Y72.444 E14.06604
G1 X86.213 Y72.715 E14.0798
G1 X85.879 Y74.142 E14.15291
G1 X85.761 Y74.532 E14.17324
G1 X85.086 Y76.341 E14.26957
G1 X84.905 Y76.741 E14.29147
G1 X83.858 Y78.683 E14.40155
G1 X83.593 Y79.095 E14.42598
G1 X82.169 Y80.977 E14.54373
G1 X81.873 Y81.315 E14.56614
G1 X80.456 Y82.724 E14.66584
G1 X80.094 Y83.034 E14.68961
G1 X78.217 Y84.412 E14.80578
G1 X77.796 Y84.674 E14.83052
G1 X75.712 Y85.755 E14.94765
G1 X75.336 Y85.92 E14.96814
G1 X73.741 Y86.502 E15.05284
G1 X73.347 Y86.618 E15.07333
G1 X71.481 Y87.038 E15.16876
G1 X71.045 Y87.105 E15.19076
G1 X68.597 Y87.31 E15.31332
G1 X68.049 Y87.309 E15.34066
G1 X65.618 Y87.095 E15.46242
G1 X65.094 Y87.004 E15.48895
G1 X62.548 Y86.342 E15.62019
G1 X62.215 Y86.236 E15.63763
G1 X61.027 Y85.784 E15.70104
G1 X60.637 Y85.605 E15.72245
G1 X58.672 Y84.537 E15.83403
G1 X58.282 Y84.286 E15.85717
G1 X56.578 Y83.01 E15.96337
G1 X56.234 Y82.712 E15.98608
G1 X54.738 Y81.217 E16.0916
G1 X54.444 Y80.879 E16.11395
G1 X53.107 Y79.104 E16.22481
G1 X52.82 Y78.648 E16.25169
G1 X51.606 Y76.298 E16.38366
G1 X51.442 Y75.924 E16.40403
G1 X50.964 Y74.612 E16.47369
G1 X50.838 Y74.169 E16.49667
G1 X50.274 Y71.46 E16.63472
G1 X50.215 Y71.027 E16.65652
G1 X50.106 Y69.438 E16.73599
G1 X50.105 Y69.01 E16.75734
G1 X50.257 Y66.688 E16.87343
G1 X50.322 Y66.221 E16.89696
G1 X50.738 Y64.295 E16.99526
G1 X50.841 Y63.926 E17.01437
G1 X51.295 Y62.612 E17.08373
G1 X51.412 Y62.322 E17.09933
G1 X52.154 Y60.706 E17.18805
G1 X52.267 Y60.482 E17.20057
G1 X52.862 Y59.415 E17.26152
G1 X53.105 Y59.043 E17.28368
G1 X54.529 Y57.161 E17.40143
G1 X54.825 Y56.823 E17.42384
G1 X56.242 Y55.414 E17.52354
G1 F2400 E15.52354
G0 F2400 X58.014 Y57.214
G0 X58.638 Y57.84
G0 X58.69 Y57.9
G0 X58.625 Y57.825
;TYPE:WALL-OUTER
G1 F2400 E17.52354
G1 F1200 X60.225 Y56.621 E17.62344
G1 X60.428 Y56.497 E17.6353
G1 X62.228 Y55.524 E17.73739
G1 X64.117 Y54.82 E17.83796
G1 X64.353 Y54.76 E17.85011
G1 X66.09 Y54.382 E17.9388
G1 X66.308 Y54.353 E17.94977
G1 X68.342 Y54.206 E18.05151
G1 X70.368 Y54.344 E18.15282
G1 X70.608 Y54.382 E18.16494
G1 X72.342 Y54.758 E18.25347
G1 X72.57 Y54.818 E18.26523
G1 X74.472 Y55.525 E18.36646
G1 X74.66 Y55.619 E18.37695
G1 X76.277 Y56.501 E18.46884
G1 X76.458 Y56.614 E18.47949
G1 X78.073 Y57.825 E18.5802
G1 X79.581 Y59.337 E18.68673
G1 X80.878 Y61.067 E18.79461
G1 X81.839 Y62.822 E18.89443
G1 X81.949 Y63.079 E18.90838
G1 X82.55 Y64.69 E18.99416
G1 X82.627 Y64.944 E19.0074
G1 X83.057 Y66.933 E19.10893
G1 X83.077 Y67.136 E19.1191
G1 X83.207 Y68.973 E19.21098
G1 X83.204 Y69.151 E19.21986
G1 X83.059 Y71.219 E19.32329
G1 X82.639 Y73.163 E19.42251
G1 X82.563 Y73.383 E19.43413
G1 X82.549 Y73.452 E19.43764
G1 X81.954 Y75.048 E19.52262
G1 X81.843 Y75.302 E19.53645
G1 X80.871 Y77.079 E19.6375
G1 X80.737 Y77.271 E19.64918
G1 X79.666 Y78.7 E19.73827
G1 X79.511 Y78.881 E19.75016
G1 X78.073 Y80.313 E19.85141
G1 X76.469 Y81.52 E19.95156
G1 X76.26 Y81.649 E19.96381
G1 X74.686 Y82.507 E20.05325
G1 X74.469 Y82.614 E20.06532
G1 X72.581 Y83.318 E20.16585
G1 X72.345 Y83.378 E20.178
G1 X70.61 Y83.755 E20.26657
G1 X70.385 Y83.789 E20.27793
G1 X68.342 Y83.932 E20.3801
G1 X66.243 Y83.782 E20.48509
G1 X66.155 Y83.758 E20.48964
G1 X64.124 Y83.318 E20.59332
G1 X62.226 Y82.613 E20.69433
G1 X62.038 Y82.519 E20.70482
G1 X60.421 Y81.637 E20.79671
G1 X60.249 Y81.53 E20.80682
G1 X58.62 Y80.304 E20.90853
G1 X57.114 Y78.799 E21.01475
G1 X57.037 Y78.707 E21.02074
G1 X55.962 Y77.272 E21.11019
G1 X55.82 Y77.071 E21.12247
G1 X54.859 Y75.316 E21.22229
G1 X54.746 Y75.051 E21.23667
G1 X54.151 Y73.454 E21.32169
G1 X54.135 Y73.383 E21.32532
G1 X54.068 Y73.182 E21.33589
G1 X53.642 Y71.208 E21.43664
G1 X53.609 Y70.923 E21.45096
G1 X53.489 Y69.218 E21.53623
G1 X53.494 Y69.174 E21.53844
G1 X53.49 Y68.956 E21.54932
G1 X53.638 Y66.926 E21.65086
G1 X54.059 Y64.975 E21.75044
G1 X54.147 Y64.693 E21.76518
G1 X54.744 Y63.09 E21.85052
G1 X54.855 Y62.836 E21.86435
G1 X55.827 Y61.059 E21.9654
G1 X55.961 Y60.867 E21.97708
G1 X57.033 Y59.436 E22.06628
G1 X57.187 Y59.257 E22.07806
G1 X58.625 Y57.825 E22.17931
G0 F2400 X58.784 Y57.705
G0 X58.942 Y57.81
;TYPE:SKIN
G1 F1200 X79.608 Y78.476 E23.63741
G1 X79.678 Y78.546
G0 F2400 X79.35 Y78.785
G1 F1200 X58.634 Y58.069 E25.09903
G1 X58.564 Y57.999
G0 F2400 X58.351 Y58.351
G1 F1200 X79.067 Y79.067 E26.56066
G1 X79.137 Y79.137
G0 F2400 X78.783 Y79.349
G1 F1200 X58.067 Y58.633 E28.02229
G1 X57.997 Y58.563
G0 F2400 X57.784 Y58.915
G1 F1200 X78.5 Y79.631 E29.48391
G1 X78.57 Y79.701
G0 F2400 X78.216 Y79.913
G1 F1200 X57.5 Y59.197 E30.94554
G1 X57.43 Y59.127
G0 F2400 X57.224 Y59.486
G1 F1200 X77.93 Y80.192 E32.40646
G1 X78 Y80.262
G0 F2400 X77.607 Y80.436
G1 F1200 X56.978 Y59.807 E33.86194
G1 X56.908 Y59.737
G0 F2400 X56.736 Y60.13
G1 F1200 X77.285 Y80.679 E35.31179
G1 X77.355 Y80.749
G0 F2400 X76.962 Y80.922
G1 F1200 X56.494 Y60.454 E36.75592
G1 X56.424 Y60.384
G0 F2400 X56.251 Y60.777
G1 F1200 X76.639 Y81.165 E38.1944
G1 X76.709 Y81.235
G0 F2400 X76.312 Y81.403
G1 F1200 X56.013 Y61.104 E39.6266
G1 X55.943 Y61.034
G0 F2400 X55.808 Y61.465
G1 F1200 X75.952 Y81.609 E41.04787
G1 X76.022 Y81.679
G0 F2400 X75.586 Y81.809
G1 F1200 X55.608 Y61.83 E42.45746
G1 X55.538 Y61.76
G0 F2400 X55.408 Y62.196
G1 F1200 X75.221 Y82.009 E43.85538
G1 X75.291 Y82.079
G0 F2400 X74.855 Y82.208
G1 F1200 X55.208 Y62.561 E45.24158
G1 X55.138 Y62.491
G0 F2400 X55.009 Y62.928
G1 F1200 X74.485 Y82.404 E46.61572
G1 X74.555 Y82.474
G0 F2400 X74.08 Y82.566
G1 F1200 X54.844 Y63.329 E47.97295
G1 X54.774 Y63.259
G0 F2400 X54.691 Y63.742
G1 F1200 X73.668 Y82.719 E49.31188
G1 X73.738 Y82.789
G0 F2400 X73.256 Y82.873
G1 F1200 X54.538 Y64.155 E50.63254
G1 X54.468 Y64.085
G0 F2400 X54.384 Y64.567
G1 F1200 X72.844 Y83.027 E51.93499
G1 X72.914 Y83.097
G0 F2400 X72.422 Y83.17
G1 F1200 X54.242 Y64.99 E53.21769
G1 X54.172 Y64.92
G0 F2400 X54.14 Y65.454
G1 F1200 X71.961 Y83.275 E54.47506
G1 X72.031 Y83.345
G0 F2400 X71.496 Y83.376
G1 F1200 X54.039 Y65.919 E55.70674
G1 X53.969 Y65.849
G0 F2400 X53.939 Y66.384
G1 F1200 X71.033 Y83.478 E56.91282
G1 X71.103 Y83.548
G0 F2400 X70.567 Y83.578
G1 F1200 X53.839 Y66.849 E58.0931
G1 X53.769 Y66.779
G0 F2400 X53.786 Y67.362
G1 F1200 X70.053 Y83.63 E59.24086
G1 X70.123 Y83.7
G0 F2400 X69.524 Y83.666
G1 F1200 X53.747 Y67.89 E60.35398
G1 X53.677 Y67.82
G0 F2400 X53.709 Y68.416
G1 F1200 X68.996 Y83.704 E61.4326
G1 X69.066 Y83.774
G0 F2400 X68.467 Y83.741
G1 F1200 X53.67 Y68.943 E62.47664
G1 X53.6 Y68.873
G0 F2400 X53.691 Y69.53
G1 F1200 X67.878 Y83.717 E63.47761
G1 X67.948 Y83.787
G0 F2400 X67.269 Y83.674
G1 F1200 X53.733 Y70.138 E64.43265
G1 X53.663 Y70.068
G0 F2400 X53.776 Y70.747
G1 F1200 X66.66 Y83.63 E65.34165
G1 X66.73 Y83.7
G0 F2400 X66.004 Y83.541
G1 F1200 X53.868 Y71.404 E66.19794
G1 X53.798 Y71.334
G0 F2400 X54.023 Y72.125
G1 F1200 X65.282 Y83.384 E66.99233
G1 X65.352 Y83.454
G0 F2400 X64.559 Y83.227
G1 F1200 X54.179 Y72.846 E67.72473
G1 X54.109 Y72.776
G0 F2400 X54.416 Y73.649
G1 F1200 X63.753 Y82.986 E68.3835
G1 X63.823 Y83.056
G0 F2400 X62.853 Y82.652
G1 F1200 X54.752 Y74.551 E68.95507
G1 X54.682 Y74.481
G0 F2400 X55.199 Y75.564
G1 F1200 X61.84 Y82.205 E69.42363
G1 X61.91 Y82.275
G0 F2400 X60.594 Y81.524
G1 F1200 X55.883 Y76.813 E69.75602
G1 X55.813 Y76.743
G0 F2400 X59.265 Y57.568
G1 F1200 X79.85 Y78.152 E71.20836
G1 X79.92 Y78.222
G0 F2400 X80.092 Y77.829
G1 F1200 X59.587 Y57.325 E72.65507
G1 X59.517 Y57.255
G0 F2400 X59.911 Y57.082
G1 F1200 X80.335 Y77.506 E74.09609
G1 X80.405 Y77.576
G0 F2400 X80.576 Y77.182
G1 F1200 X60.234 Y56.84 E75.53133
G1 X60.164 Y56.77
G0 F2400 X60.579 Y56.619
G1 F1200 X80.798 Y76.838 E76.95789
G1 X80.868 Y76.908
G0 F2400 X80.998 Y76.472
G1 F1200 X60.946 Y56.421 E78.37263
G1 X60.876 Y56.351
G0 F2400 X61.313 Y56.222
G1 F1200 X81.197 Y76.106 E79.77555
G1 X81.267 Y76.176
G0 F2400 X81.397 Y75.741
G1 F1200 X61.68 Y56.024 E81.1667
G1 X61.61 Y55.954
G0 F2400 X62.047 Y55.825
G1 F1200 X81.598 Y75.375 E82.54609
G1 X81.668 Y75.445
G0 F2400 X81.781 Y74.993
G1 F1200 X62.429 Y55.64 E83.91151
G1 X62.359 Y55.57
G0 F2400 X62.841 Y55.487
G1 F1200 X81.936 Y74.582 E85.25877
G1 X82.006 Y74.652
G0 F2400 X82.09 Y74.17
G1 F1200 X63.252 Y55.333 E86.58785
G1 X63.182 Y55.263
G0 F2400 X63.665 Y55.179
G1 F1200 X82.243 Y73.758 E87.89867
G1 X82.313 Y73.828
G0 F2400 X82.387 Y73.336
G1 F1200 X64.077 Y55.026 E89.19054
G1 X64.007 Y54.956
G0 F2400 X64.524 Y54.907
G1 F1200 X82.512 Y72.895 E90.45969
G1 X82.582 Y72.965
G0 F2400 X82.613 Y72.431
G1 F1200 X64.988 Y54.806 E91.70323
G1 X64.918 Y54.736
G0 F2400 X65.452 Y54.704
G1 F1200 X82.713 Y71.965 E92.92108
G1 X82.783 Y72.035
G0 F2400 X82.814 Y71.501
G1 F1200 X65.917 Y54.603 E94.11329
G1 X65.847 Y54.533
G0 F2400 X66.405 Y54.525
G1 F1200 X82.893 Y71.014 E95.27665
G1 X82.963 Y71.084
G0 F2400 X82.93 Y70.485
G1 F1200 X66.932 Y54.487 E96.40539
G1 X66.862 Y54.417
G0 F2400 X67.46 Y54.449
G1 F1200 X82.966 Y69.956 E97.49946
G1 X83.036 Y70.026
G0 F2400 X83.003 Y69.427
G1 F1200 X67.987 Y54.411 E98.55892
G1 X67.917 Y54.341
G0 F2400 X68.542 Y54.4
G1 F1200 X83.019 Y68.877 E99.58035
G1 X83.089 Y68.947
G0 F2400 X82.976 Y68.268
G1 F1200 X69.149 Y54.441 E100.55592
G1 X69.079 Y54.371
G0 F2400 X69.756 Y54.483
G1 F1200 X82.933 Y67.659 E101.48559
G1 X83.003 Y67.729
G0 F2400 X82.887 Y67.047
G1 F1200 X70.366 Y54.527 E102.36898
G1 X70.296 Y54.457
G0 F2400 X71.07 Y54.665
G1 F1200 X82.745 Y66.34 E103.19272
G1 X82.815 Y66.41
G0 F2400 X82.588 Y65.618
G1 F1200 X71.793 Y54.822 E103.9544
G1 X71.723 Y54.752
G0 F2400 X72.532 Y54.995
G1 F1200 X82.42 Y64.884 E104.65208
G1 X82.49 Y64.954
G0 F2400 X82.099 Y63.997
