;FLAVOR:RepRap
;TIME:6032
;Filament used: 4.73985m
;Layer height: 0.2
;Generated with Cura_SteamEngine 2.6.0
M190 S50
M104 S195
M109 S195
G28 ;Home
G1 Z15.0 F6000 ;Move the platform down 15mm
;Prime the extruder
G92 E0
G1 F200 E3
G92 E0
;LAYER_COUNT:255
;LAYER:0
M107
G0 F1200 X63.57 Y92.824 Z0.3
;TYPE:SKIRT
G1 X64.764 Y92.015 E0.07195
G1 X65.205 Y91.759 E0.09739
G1 X66.526 Y91.115 E0.17071
G1 X66.989 Y90.928 E0.19563
G1 X68.358 Y90.482 E0.26746
G1 X68.924 Y90.347 E0.29649
G1 X77.802 Y88.977 E0.74466
G1 X83.126 Y87.815 E1.01653
G1 X85.728 Y87.131 E1.15075
G1 X90.973 Y85.509 E1.42465
G1 X95.325 Y83.981 E1.65477
G1 X95.787 Y83.853 E1.67868
G1 X97.2 Y83.56 E1.75068
G1 X97.539 Y83.506 E1.7678
G1 X98.954 Y83.351 E1.83882
G1 X99.334 Y83.33 E1.85781
G1 X100.854 Y83.325 E1.93364
G1 X101.272 Y83.348 E1.95453
G1 X102.021 Y83.433 E1.99214
G1 X102.04 Y83.433 E1.99308
G1 X102.11 Y83.443 E1.99661
G1 X102.196 Y83.453 E2.00093
G1 X102.196 Y83.456 E2.00108
G1 X102.58 Y83.512 E2.02044
G1 X104.625 Y83.972 E2.12502
G1 X104.888 Y84.041 E2.13858
G1 X106.438 Y84.515 E2.21945
G1 X106.438 Y84.516 E2.2195
G1 X108.086 Y85.015 E2.3054
G1 X113.425 Y86.404 E2.58063
G1 X116.067 Y86.973 E2.71546
G1 X118.726 Y87.466 E2.85038
G1 X124.153 Y88.238 E3.12386
G1 X130.636 Y88.877 E3.44887
G1 X131.23 Y88.987 E3.47901
G1 X132.745 Y89.4 E3.55735
G1 X133.15 Y89.536 E3.57866
G1 X134.389 Y90.038 E3.64536
G1 X134.849 Y90.264 E3.67093
G1 X136.54 Y91.249 E3.76856
G1 X137.098 Y91.65 E3.80284
G1 X139.081 Y93.384 E3.93426
G1 X139.527 Y93.851 E3.96648
G1 X140.475 Y95.041 E4.04239
G1 X140.817 Y95.556 E4.07323
G1 X141.944 Y97.616 E4.19038
G1 X142.196 Y98.191 E4.2217
G1 X142.845 Y100.11 E4.32276
G1 X142.981 Y100.643 E4.35021
G1 X143.225 Y102.039 E4.42091
G1 X143.276 Y102.501 E4.4441
G1 X143.352 Y104.231 E4.53049
G1 X143.308 Y104.968 E4.56733
G1 X142.829 Y107.907 E4.71589
G1 X142.66 Y108.557 E4.7494
G1 X142.188 Y109.857 E4.8184
G1 X141.985 Y110.313 E4.8433
G1 X141.113 Y111.959 E4.93623
G1 X140.772 Y112.486 E4.96755
G1 X139.424 Y114.217 E5.077
G1 X139.106 Y114.574 E5.10086
G1 X138.271 Y115.394 E5.15924
G1 X137.891 Y115.718 E5.18416
G1 X136.381 Y116.836 E5.27789
G1 X135.882 Y117.146 E5.3072
G1 X133.962 Y118.131 E5.41486
G1 X133.324 Y118.385 E5.44912
G1 X131.361 Y118.956 E5.55111
G1 X130.902 Y119.057 E5.57456
G1 X129.684 Y119.244 E5.63604
G1 X129.09 Y119.286 E5.66575
G1 X126.519 Y119.252 E5.79403
G1 X125.878 Y119.186 E5.82617
G1 X120.614 Y118.16 E6.09374
G1 X115.222 Y117.344 E6.36581
G1 X109.805 Y116.836 E6.63725
G1 X104.294 Y116.631 E6.91239
G1 X99.236 Y116.634 E7.16473
G1 X99.041 Y116.629 E7.17446
G1 X93.997 Y116.358 E7.42647
G1 X88.541 Y116.342 E7.69867
G1 X83.089 Y116.636 E7.97107
G1 X77.652 Y117.238 E8.24398
G1 X73.657 Y117.88 E8.44585
G1 X73.124 Y117.926 E8.47254
G1 X70.935 Y117.949 E8.58176
G1 X70.264 Y117.893 E8.61535
G1 X68.881 Y117.646 E8.68544
G1 X68.174 Y117.443 E8.72214
G1 X65.505 Y116.373 E8.86559
G1 X64.836 Y116.019 E8.90336
G1 X63.508 Y115.126 E8.9832
G1 X63.095 Y114.803 E9.00935
G1 X62.071 Y113.872 E9.0784
G1 X61.732 Y113.518 E9.10285
G1 X60.82 Y112.428 E9.17376
G1 X60.456 Y111.905 E9.20555
G1 X59.402 Y110.062 E9.31147
G1 X59.215 Y109.685 E9.33246
G1 X58.897 Y108.938 E9.37297
G1 X58.747 Y108.516 E9.39531
G1 X58.362 Y107.167 E9.4653
G1 X58.239 Y106.51 E9.49865
G1 X58.019 Y104.13 E9.61789
G1 X58.01 Y103.594 E9.64464
G1 X58.042 Y103.278 E9.66049
G1 X58.35 Y101.171 E9.76672
G1 X58.416 Y100.831 E9.784
G1 X58.726 Y99.572 E9.84869
G1 X58.934 Y98.967 E9.88061
G1 X59.502 Y97.693 E9.9502
G1 X59.87 Y97.053 E9.98703
G1 X61.561 Y94.708 E10.13127
G1 X62.056 Y94.153 E10.16837
G1 X63.164 Y93.143 E10.24317
G1 X63.57 Y92.824 E10.26893
G0 X63.794 Y93.155
G1 X64.988 Y92.346 E10.34088
G1 X65.381 Y92.119 E10.36352
G1 X66.702 Y91.475 E10.43684
G1 X67.113 Y91.308 E10.45898
G1 X68.482 Y90.862 E10.53081
G1 X68.985 Y90.742 E10.55661
G1 X77.886 Y89.369 E11.00593
G1 X83.195 Y88.21 E11.27704
G1 X85.851 Y87.511 E11.41406
G1 X91.121 Y85.882 E11.68925
G1 X95.458 Y84.359 E11.91858
G1 X95.868 Y84.245 E11.93981
G1 X97.281 Y83.952 E12.01181
G1 X97.583 Y83.904 E12.02706
G1 X98.998 Y83.749 E12.09808
G1 X99.335 Y83.73 E12.11492
G1 X100.855 Y83.725 E12.19075
G1 X101.227 Y83.745 E12.20934
G1 X102.151 Y83.85 E12.25573
G1 X102.15 Y83.862 E12.25634
G1 X102.492 Y83.902 E12.27351
G1 X104.537 Y84.362 E12.37809
G1 X104.771 Y84.424 E12.39017
G1 X106.313 Y84.896 E12.47062
G1 X106.313 Y84.895 E12.47067
G1 X107.99 Y85.403 E12.55809
G1 X113.338 Y86.794 E12.83378
G1 X116.014 Y87.371 E12.97035
G1 X118.646 Y87.859 E13.1039
G1 X124.102 Y88.634 E13.37884
G1 X130.597 Y89.275 E13.70445
G1 X131.125 Y89.373 E13.73124
G1 X132.64 Y89.786 E13.80958
G1 X133 Y89.907 E13.82853
G1 X134.239 Y90.409 E13.89522
G1 X134.648 Y90.61 E13.91796
G1 X136.339 Y91.595 E14.01559
G1 X136.834 Y91.951 E14.04601
G1 X138.817 Y93.685 E14.17743
G1 X139.214 Y94.1 E14.20609
G1 X140.162 Y95.29 E14.28199
G1 X140.466 Y95.748 E14.30942
G1 X141.593 Y97.808 E14.42657
G1 X141.817 Y98.319 E14.4544
G1 X142.466 Y100.238 E14.55547
G1 X142.587 Y100.712 E14.57987
G1 X142.831 Y102.108 E14.65058
G1 X142.876 Y102.519 E14.6712
G1 X142.952 Y104.249 E14.7576
G1 X142.913 Y104.904 E14.79033
G1 X142.434 Y107.843 E14.9389
G1 X142.284 Y108.42 E14.96864
G1 X141.812 Y109.72 E15.03764
G1 X141.632 Y110.126 E15.0598
G1 X140.76 Y111.772 E15.15273
G1 X140.457 Y112.24 E15.18054
G1 X139.109 Y113.971 E15.29
G1 X138.826 Y114.288 E15.3112
G1 X137.991 Y115.108 E15.36959
G1 X137.653 Y115.397 E15.39177
G1 X136.143 Y116.515 E15.48551
G1 X135.7 Y116.79 E15.51152
G1 X133.78 Y117.775 E15.61918
G1 X133.213 Y118.001 E15.64963
G1 X131.25 Y118.572 E15.75163
G1 X130.842 Y118.662 E15.77247
G1 X129.624 Y118.849 E15.83395
G1 X129.096 Y118.886 E15.86036
G1 X126.525 Y118.852 E15.98864
G1 X125.955 Y118.793 E16.01722
G1 X120.704 Y117.77 E16.28412
G1 X115.268 Y116.946 E16.55842
G1 X109.821 Y116.436 E16.83136
G1 X104.309 Y116.231 E17.10655
G1 X99.236 Y116.234 E17.35964
G1 X99.062 Y116.229 E17.36833
G1 X94.019 Y115.958 E17.62029
G1 X88.521 Y115.942 E17.89458
G1 X83.074 Y116.235 E18.16673
G1 X77.589 Y116.843 E18.44205
G1 X73.594 Y117.485 E18.64392
G1 X73.12 Y117.526 E18.66766
G1 X70.931 Y117.549 E18.77687
G1 X70.334 Y117.499 E18.80676
G1 X68.951 Y117.252 E18.87685
G1 X68.323 Y117.072 E18.90944
G1 X65.654 Y116.002 E19.0529
G1 X65.059 Y115.687 E19.08649
G1 X63.731 Y114.794 E19.16633
G1 X63.364 Y114.507 E19.18958
G1 X62.34 Y113.576 E19.25862
G1 X62.039 Y113.261 E19.28036
G1 X61.127 Y112.171 E19.35126
G1 X60.803 Y111.707 E19.3795
G1 X59.749 Y109.864 E19.48542
G1 X59.583 Y109.528 E19.50412
G1 X59.265 Y108.781 E19.54462
G1 X59.132 Y108.406 E19.56447
G1 X58.747 Y107.057 E19.63446
G1 X58.638 Y106.474 E19.66405
G1 X58.418 Y104.094 E19.7833
G1 X58.411 Y103.588 E19.80854
G1 X58.438 Y103.336 E19.82119
G1 X58.746 Y101.229 E19.92742
G1 X58.805 Y100.927 E19.94277
G1 X59.115 Y99.668 E20.00746
G1 X59.299 Y99.13 E20.03583
G1 X59.867 Y97.856 E20.10542
G1 X60.194 Y97.287 E20.13816
G1 X61.885 Y94.942 E20.2824
G1 X62.325 Y94.449 E20.31537
G1 X63.433 Y93.439 E20.39016
G1 X63.794 Y93.155 E20.41308
G1 F1500 E13.91308
G0 F1200 X65.249 Y95.22
G0 X65.97 Y96.281
G0 X66.019 Y96.344
G0 X65.958 Y96.266
;TYPE:WALL-INNER
G1 F1500 E20.41308
G1 F1200 X67.088 Y95.501 E20.48116
G1 X68.327 Y94.899 E20.54988
G1 X69.621 Y94.476 E20.6178
G1 X70.971 Y94.24 E20.68618
G1 X72.341 Y94.191 E20.75457
G1 X73.707 Y94.334 E20.82309
G1 X75.022 Y94.661 E20.8907
G1 X76.895 Y95.521 E20.99352
G1 X78.576 Y96.715 E21.09639
G1 X79.517 Y97.688 E21.16392
G1 X80.315 Y98.787 E21.23168
G1 X81.434 Y101.3 E21.36892
G1 X81.814 Y104.017 E21.50579
G1 X81.718 Y105.377 E21.57381
G1 X81.434 Y106.713 E21.64195
G1 X80.962 Y108.004 E21.71053
G1 X80.321 Y109.206 E21.77849
G1 X79.516 Y110.313 E21.84678
G1 X78.565 Y111.297 E21.91505
G1 X77.489 Y112.138 E21.98319
G1 X76.293 Y112.827 E22.05205
G1 X75.048 Y113.33 E22.11904
G1 X73.02 Y113.736 E22.22222
G1 X70.957 Y113.76 E22.32516
G1 X69.63 Y113.522 E22.39242
G1 X67.068 Y112.486 E22.53029
G1 X65.948 Y111.727 E22.59779
G1 X64.938 Y110.819 E22.66555
G1 X64.058 Y109.77 E22.73386
G1 X63.329 Y108.599 E22.80268
G1 X62.774 Y107.353 E22.87073
G1 X62.399 Y106.043 E22.93871
G1 X62.186 Y103.987 E23.04183
G1 X62.302 Y102.647 E23.10893
G1 X62.78 Y100.63 E23.21235
G1 X63.327 Y99.405 E23.27928
G1 X64.954 Y97.17 E23.4172
G1 X65.958 Y96.266 E23.4846
G0 X65.709 Y95.952
;TYPE:WALL-OUTER
G1 X66.891 Y95.152 E23.55581
G1 X68.173 Y94.529 E23.62692
G1 X69.526 Y94.087 E23.69793
G1 X70.931 Y93.841 E23.7691
G1 X72.355 Y93.79 E23.84019
G1 X73.773 Y93.939 E23.91132
G1 X75.154 Y94.282 E23.98231
G1 X77.098 Y95.175 E24.08904
G1 X78.839 Y96.411 E24.19556
G1 X79.824 Y97.43 E24.26627
G1 X80.662 Y98.584 E24.33742
G1 X81.822 Y101.189 E24.47969
G1 X82.216 Y104.004 E24.6215
G1 X82.115 Y105.431 E24.69287
G1 X81.818 Y106.827 E24.76408
G1 X81.329 Y108.166 E24.83519
G1 X80.662 Y109.416 E24.90588
G1 X79.819 Y110.575 E24.97738
G1 X78.837 Y111.592 E25.04791
G1 X77.708 Y112.474 E25.11939
G1 X76.471 Y113.187 E25.19062
G1 X75.165 Y113.714 E25.26088
G1 X73.061 Y114.136 E25.36794
G1 X70.923 Y114.16 E25.47461
G1 X69.519 Y113.909 E25.54577
G1 X66.881 Y112.842 E25.68774
G1 X65.703 Y112.044 E25.75872
G1 X64.649 Y111.096 E25.82945
G1 X63.733 Y110.004 E25.90056
G1 X62.975 Y108.788 E25.97205
G1 X62.395 Y107.486 E26.04316
G1 X62.005 Y106.121 E26.11398
G1 X61.784 Y103.993 E26.22072
G1 X61.907 Y102.582 E26.29138
G1 X62.4 Y100.501 E26.39808
G1 X62.979 Y99.205 E26.46889
G1 X64.657 Y96.899 E26.61117
G1 X65.709 Y95.952 E26.68179
G0 X65.874 Y95.84
G0 X66.282 Y96.264
;TYPE:SKIN
G1 X79.73 Y109.711 E27.63059
G1 X79.8 Y109.781
G0 X79.968 Y109.383
G1 X66.62 Y96.035 E28.57236
G1 X66.55 Y95.965
G0 X66.957 Y95.807
G1 X80.2 Y109.05 E29.50672
G1 X80.27 Y109.12
G0 X80.397 Y108.681
G1 X67.309 Y95.593 E30.43015
G1 X67.239 Y95.523
G0 X67.69 Y95.409
G1 X80.593 Y108.312 E31.34053
G1 X80.663 Y108.382
G0 X80.791 Y107.944
G1 X68.071 Y95.223 E32.23803
G1 X68.001 Y95.153
G0 X68.457 Y95.045
G1 X80.943 Y107.53 E33.11895
G1 X81.013 Y107.6
G0 X81.095 Y107.116
G1 X68.884 Y94.905 E33.9805
G1 X68.814 Y94.835
G0 X69.31 Y94.766
G1 X81.246 Y106.702 E34.82265
G1 X81.316 Y106.772
G0 X81.35 Y106.24
G1 X69.746 Y94.637 E35.64134
G1 X69.676 Y94.567
G0 X70.228 Y94.552
G1 X81.449 Y105.773 E36.43304
G1 X81.519 Y105.843
G0 X81.542 Y105.301
G1 X70.709 Y94.468 E37.19737
G1 X70.639 Y94.398
G0 X71.218 Y94.411
G1 X81.58 Y104.773 E37.92846
G1 X81.65 Y104.843
G0 X81.617 Y104.245
G1 X71.763 Y94.39 E38.62375
G1 X71.693 Y94.32
G0 X72.309 Y94.371
G1 X81.581 Y103.642 E39.27791
G1 X81.651 Y103.712
G0 X81.488 Y102.984
G1 X72.937 Y94.433 E39.88123
G1 X72.867 Y94.363
G0 X73.569 Y94.499
G1 X81.396 Y102.326 E40.43346
G1 X81.466 Y102.396
G0 X81.304 Y101.669
G1 X74.302 Y94.666 E40.92753
G1 X74.232 Y94.596
G0 X75.09 Y94.889
G1 X81.025 Y100.824 E41.34627
G1 X81.095 Y100.894
G0 X80.571 Y99.804
G1 X76.137 Y95.371 E41.65908
G1 X76.067 Y95.301
G0 X77.512 Y96.179
G1 X80.019 Y98.687 E41.836
G1 X80.089 Y98.757
G0 X79.492 Y110.039
G1 X65.96 Y96.507 E42.79075
G1 X65.89 Y96.437
G0 X65.662 Y96.775
G1 X79.233 Y110.346 E43.74826
G1 X79.303 Y110.416
G0 X78.954 Y110.633
G1 X65.364 Y97.043 E44.70711
G1 X65.294 Y96.973
G0 X65.07 Y97.314
G1 X78.676 Y110.921 E45.66712
G1 X78.746 Y110.991
G0 X78.391 Y111.201
G1 X64.832 Y97.642 E46.62378
G1 X64.762 Y97.572
G0 X64.594 Y97.969
G1 X78.074 Y111.449 E47.57487
G1 X78.144 Y111.519
G0 X77.756 Y111.698
G1 X64.355 Y98.297 E48.52038
G1 X64.285 Y98.227
G0 X64.117 Y98.624
G1 X77.44 Y111.947 E49.46039
G1 X77.51 Y112.017
G0 X77.088 Y112.16
G1 X63.879 Y98.951 E50.39236
G1 X63.809 Y98.881
G0 X63.641 Y99.279
G1 X76.729 Y112.367 E51.31579
G1 X76.799 Y112.437
G0 X76.37 Y112.574
G1 X63.424 Y99.628 E52.2292
G1 X63.354 Y99.558
G0 X63.249 Y100.018
G1 X75.986 Y112.755 E53.12786
G1 X76.056 Y112.825
G0 X75.583 Y112.918
G1 X63.074 Y100.409 E54.01044
G1 X63.004 Y100.339
G0 X62.919 Y100.819
G1 X75.18 Y113.081 E54.87555
G1 X75.25 Y113.151
G0 X74.739 Y113.206
G1 X62.81 Y101.277 E55.71721
G1 X62.74 Y101.207
G0 X62.702 Y101.734
G1 X74.268 Y113.301 E56.53329
G1 X74.338 Y113.371
G0 X73.797 Y113.395
G1 X62.594 Y102.192 E57.32372
G1 X62.524 Y102.122
G0 X62.485 Y102.649
G1 X73.326 Y113.489 E58.08858
G1 X73.396 Y113.559
G0 X72.827 Y113.557
G1 X62.436 Y103.166 E58.82172
G1 X62.366 Y103.096
G0 X62.392 Y103.687
G1 X72.268 Y113.563 E59.51852
G1 X72.338 Y113.633
G0 X71.709 Y113.57
G1 X62.395 Y104.255 E60.17571
G1 X62.325 Y104.185
G0 X62.46 Y104.886
G1 X71.15 Y113.576 E60.78884
G1 X71.22 Y113.646
G0 X70.502 Y113.494
G1 X62.525 Y105.517 E61.35166
G1 X62.455 Y105.447
G0 X62.624 Y106.182
G1 X69.812 Y113.37 E61.85881
G1 X69.882 Y113.44
G0 X68.913 Y113.037
G1 X62.851 Y106.975 E62.28652
G1 X62.781 Y106.905
G0 X63.217 Y107.906
G1 X67.964 Y112.654 E62.62148
G1 X68.034 Y112.724
G0 X66.897 Y112.152
G1 X63.867 Y109.122 E62.83526
G1 X63.797 Y109.052
G0 X64.003 Y108.926
G1 F1500 E56.33526
G0 F1200 X81.795 Y104.017
G0 X83.065 Y103.84
G0 X86.561 Y102.925
G0 X87.806 Y102.619
G0 X87.946 Y102.853
G0 X87.85 Y102.878
;TYPE:WALL-INNER
G1 F1500 E62.83526
G1 F1200 X87.787 Y102.623 E62.84837
G1 X87.626 Y101.69 E62.8956
G1 X87.589 Y101.426 E62.9089
G1 X87.519 Y100.492 E62.95563
G1 X87.508 Y100.215 E62.96946
G1 X87.531 Y99.281 E63.01607
G1 X87.548 Y99.05 E63.02763
G1 X87.639 Y98.405 E63.06012
G1 X87.702 Y97.873 E63.08685
G1 X87.96 Y96.708 E63.14638
G1 X88.331 Y95.564 E63.20638
G1 X88.544 Y95.08 E63.23276
G1 X88.685 Y94.723 E63.25191
G1 X88.831 Y94.393 E63.26992
G1 X89.147 Y93.861 E63.30079
G1 X89.408 Y93.392 E63.32757
G1 X90.097 Y92.375 E63.38885
G1 X90.529 Y91.888 E63.42133
G1 X90.86 Y91.49 E63.44716
G1 X91.728 Y90.644 E63.50763
G1 X92.14 Y90.314 E63.53396
G1 X92.436 Y90.057 E63.55352
G1 X92.717 Y89.833 E63.57145
G1 X93.498 Y89.322 E63.61801
G1 X93.709 Y89.194 E63.63032
G1 X94.283 Y88.91 E63.66227
G1 X94.753 Y88.662 E63.68879
G1 X95.236 Y88.469 E63.71474
G1 X95.601 Y88.302 E63.73476
G1 X95.922 Y88.173 E63.75202
G1 X97.079 Y87.835 E63.81216
G1 X97.688 Y87.737 E63.84293
G1 X98.201 Y87.634 E63.86903
G1 X99.403 Y87.518 E63.92928
G1 X100.691 Y87.506 E63.99354
G1 X101.59 Y87.593 E64.0386
G1 X101.853 Y87.632 E64.05187
G1 X102.484 Y87.767 E64.08406
G1 X102.993 Y87.865 E64.10992
G1 X103.5 Y88.016 E64.13631
G1 X103.883 Y88.116 E64.15606
G1 X104.21 Y88.22 E64.17318
G1 X105.338 Y88.68 E64.23396
G1 X106.398 Y89.243 E64.29384
G1 X106.906 Y89.6 E64.32481
G1 X107.339 Y89.882 E64.35059
G1 X107.758 Y90.218 E64.37739
G1 X108.141 Y90.501 E64.40115
G1 X108.348 Y90.675 E64.41464
G1 X109.017 Y91.33 E64.46135
G1 X109.186 Y91.506 E64.47352
G1 X109.956 Y92.425 E64.53334
G1 X110.67 Y93.463 E64.59619
G1 X111.115 Y94.262 E64.64182
G1 X111.246 Y94.512 E64.6559
G1 X111.719 Y95.617 E64.71587
G1 X111.821 Y95.963 E64.73386
G1 X112.091 Y96.791 E64.77731
G1 X112.27 Y97.607 E64.81899
G1 X112.377 Y98.487 E64.86322
G1 X112.454 Y98.939 E64.8861
G1 X112.482 Y99.155 E64.89696
G1 X112.505 Y100.078 E64.94302
G1 X112.504 Y100.363 E64.95724
G1 X112.438 Y101.284 E65.00331
G1 X112.411 Y101.551 E65.0167
G1 X112.286 Y102.164 E65.04791
G1 X112.2 Y102.675 E65.07376
G1 X111.884 Y103.837 E65.13384
G1 X111.695 Y104.341 E65.1607
G1 X111.538 Y104.807 E65.18523
G1 X111.445 Y105.036 E65.19756
G1 X111.028 Y105.88 E65.24453
G1 X110.913 Y106.087 E65.25634
G1 X110.749 Y106.351 E65.27185
G1 X110.561 Y106.632 E65.28871
G1 X110.287 Y107.075 E65.3147
G1 X109.546 Y108.043 E65.37552
G1 X108.728 Y108.924 E65.4355
G1 X107.83 Y109.718 E65.4953
G1 X106.842 Y110.437 E65.55626
G1 X105.816 Y111.04 E65.61563
G1 X105.33 Y111.265 E65.64235
G1 X104.898 Y111.489 E65.66663
G1 X104.691 Y111.572 E65.67776
G1 X104.071 Y111.778 E65.71035
G1 X103.572 Y111.954 E65.73675
G1 X102.518 Y112.217 E65.79095
G1 X102.326 Y112.273 E65.80093
G1 X101.421 Y112.405 E65.84655
G1 X101.14 Y112.434 E65.86065
G1 X99.941 Y112.49 E65.92053
G1 X99.33 Y112.44 E65.95112
G1 X98.796 Y112.414 E65.97779
G1 X98.28 Y112.34 E66.0038
G1 X97.78 Y112.286 E66.02889
G1 X97.555 Y112.248 E66.04027
G1 X96.949 Y112.078 E66.07167
G1 X96.439 Y111.953 E66.09787
G1 X95.947 Y111.78 E66.12389
G1 X95.217 Y111.536 E66.16229
G1 X94.379 Y111.147 E66.20838
G1 X94.151 Y111.033 E66.2211
G1 X93.62 Y110.698 E66.25242
